;FLAVOR:Marlin
;TIME:3650
;Filament used: 3.07198m
;Layer height: 0.12
;MINX:59.189
;MINY:86.56
;MINZ:0.12
;MAXX:160.809
;MAXY:133.435
;MAXZ:7.44
;TARGET_MACHINE.NAME:Creality Ender-3 V3 SE
;Generated with Cura_SteamEngine 5.9.0
M82 ;absolute extrusion mode
M220 S100 ;Reset Feedrate
M221 S100 ;Reset Flowrate

G28 ;Home

M420 S1; Use saved mesh leveling data

G92 E0 ;Reset Extruder
G1 Z2.0 F3000 ;Move Z Axis up
G1 X-3 Y20 Z0.28 F5000.0 ;Move to start position
M190 S60 ; Set bed temperature and wait
M109 S200 ; Set hotend temperature and wait
G1 X-3 Y100.0 Z0.28 F1500.0 E15 ;Draw the first line
G1 X-2 Y100.0 Z0.28 F5000.0 ;Move to side a little
G1 X-2 Y20 Z0.28 F1500.0 E30 ;Draw the second line
G92 E0 ;Reset Extruder
G1 E-1.0000 F1800 ;Retract a bit
G1 Z2.0 F3000 ;Move Z Axis up
G1 E0.0000 F1800 

G92 E0
G92 E0
G1 F2400 E-0.8
;LAYER_COUNT:62
;LAYER:0
M107
;MESH:curved-track-join-clip-v2.stl
G0 F9000 X110 Y131.435 Z0.12
;TYPE:WALL-INNER
G1 F2400 E0
G1 F1800 X130.885 Y131.036 E0.41686
G1 X158.519 Y130.087 E0.96865
G1 X158.711 Y129.991 E0.97293
G1 X158.801 Y129.789 E0.97735
G1 X156.798 Y88.824 E1.79582
G1 X156.736 Y88.682 E1.79892
G1 X156.61 Y88.588 E1.80205
G1 X156.483 Y88.56 E1.80465
G1 X63.531 Y88.564 E3.65961
G1 X63.325 Y88.615 E3.66384
G1 X63.238 Y88.722 E3.66659
G1 X63.191 Y88.867 E3.66964
G1 X61.194 Y129.837 E4.48821
G1 X61.304 Y130.009 E4.49228
G1 X61.423 Y130.08 E4.49505
G1 X89.111 Y131.036 E5.04792
G1 X110 Y131.435 E5.46486
G0 F9000 X110 Y131.835
G1 F1800 X130.895 Y131.436 E5.88192
G1 X158.585 Y130.485 E6.43483
G1 X158.803 Y130.419 E6.43937
G1 X159.009 Y130.26 E6.44457
G1 X159.174 Y129.978 E6.45109
G1 X159.201 Y129.789 E6.4549
G1 X157.193 Y88.703 E7.27579
G1 X157.05 Y88.428 E7.28198
G1 X156.787 Y88.225 E7.28861
G1 X156.517 Y88.16 E7.29415
G1 X63.502 Y88.164 E9.15036
G1 X63.312 Y88.191 E9.15419
G1 X63.083 Y88.294 E9.1592
G1 X62.868 Y88.564 E9.16609
G1 X62.795 Y88.797 E9.17096
G1 X60.797 Y129.747 E9.98914
G1 X60.832 Y129.998 E9.99419
G1 X60.917 Y130.178 E9.99817
G1 X61.153 Y130.394 E10.00455
G1 X61.348 Y130.481 E10.00881
G1 X89.101 Y131.436 E10.56298
G1 X110 Y131.835 E10.98012
G0 F9000 X110 Y132.235
G1 F1800 X130.906 Y131.836 E11.3974
G1 X158.65 Y130.883 E11.95139
G1 X158.947 Y130.793 E11.95758
G1 X159.137 Y130.684 E11.96195
G1 X159.441 Y130.348 E11.97099
G1 X159.558 Y130.101 E11.97645
G1 X159.602 Y129.789 E11.98273
G1 X157.589 Y88.608 E12.80553
G1 X157.393 Y88.2 E12.81456
G1 X157.207 Y88.027 E12.81963
G1 X156.989 Y87.878 E12.8249
G1 X156.552 Y87.76 E12.83393
G1 X63.473 Y87.764 E14.69142
G1 X63.103 Y87.817 E14.69888
G1 X62.76 Y88.021 E14.70685
G1 X62.514 Y88.354 E14.71511
G1 X62.398 Y88.727 E14.7229
G1 X60.396 Y129.757 E15.54268
G1 X60.429 Y130.082 E15.5492
G1 X60.581 Y130.402 E15.55626
G1 X60.844 Y130.692 E15.56408
G1 X61.268 Y130.878 E15.57332
G1 X89.09 Y131.836 E16.12886
G1 X110 Y132.235 E16.54622
G0 F9000 X110 Y132.635
G1 F1800 X130.917 Y132.236 E16.96372
G1 X158.716 Y131.281 E17.51881
G1 X159.091 Y131.168 E17.52662
G1 X159.38 Y131.004 E17.53325
G1 X159.606 Y130.798 E17.53936
G1 X159.786 Y130.555 E17.54539
G1 X159.942 Y130.224 E17.55269
G1 X160.006 Y129.872 E17.55983
G1 X157.99 Y88.637 E18.3837
G1 X157.918 Y88.371 E18.3892
G1 X157.72 Y87.96 E18.39831
G1 X157.458 Y87.714 E18.40548
G1 X157.187 Y87.529 E18.41203
G1 X156.868 Y87.409 E18.41883
G1 X156.586 Y87.36 E18.42454
G1 X63.444 Y87.364 E20.28329
G1 X63.129 Y87.409 E20.28964
G1 X62.853 Y87.5 E20.29544
G1 X62.598 Y87.652 E20.30136
G1 X62.392 Y87.846 E20.30701
G1 X62.148 Y88.179 E20.31525
G1 X62.025 Y88.582 E20.32366
G1 X61.993 Y88.836 E20.32877
G1 X59.995 Y129.767 E21.14656
G1 X60.037 Y130.188 E21.15501
G1 X60.245 Y130.626 E21.16468
G1 X60.495 Y130.903 E21.17213
G1 X60.731 Y131.077 E21.17798
G1 X61.189 Y131.277 E21.18795
G1 X89.079 Y132.236 E21.74486
G1 X110 Y132.635 E22.16243
G0 F9000 X110 Y133.035
G1 F1800 X130.927 Y132.636 E22.58013
G1 X158.781 Y131.679 E23.13631
G1 X159.311 Y131.519 E23.14736
G1 X159.623 Y131.324 E23.15471
G1 X159.904 Y131.068 E23.16229
G1 X160.13 Y130.762 E23.16988
G1 X160.327 Y130.347 E23.17905
G1 X160.408 Y129.893 E23.18825
G1 X158.388 Y88.574 E24.0138
G1 X158.295 Y88.231 E24.0209
G1 X158.125 Y87.878 E24.02871
G1 X157.974 Y87.65 E24.03417
G1 X157.71 Y87.401 E24.04141
G1 X157.329 Y87.141 E24.05062
G1 X156.966 Y87.02 E24.05825
G1 X156.62 Y86.96 E24.06526
G1 X63.416 Y86.964 E25.92525
G1 X63.038 Y87.019 E25.93287
G1 X62.686 Y87.134 E25.94026
G1 X62.356 Y87.33 E25.94792
G1 X62.091 Y87.58 E25.95519
G1 X61.862 Y87.891 E25.9629
G1 X61.748 Y88.119 E25.96799
G1 X61.633 Y88.498 E25.97589
G1 X61.594 Y88.801 E25.98199
G1 X59.594 Y129.777 E26.80068
G1 X59.632 Y130.164 E26.80844
G1 X59.704 Y130.42 E26.81375
G1 X59.909 Y130.851 E26.82327
G1 X60.225 Y131.201 E26.83268
G1 X60.521 Y131.419 E26.84002
G1 X60.776 Y131.548 E26.84572
G1 X61.026 Y131.639 E26.85103
G1 X61.304 Y131.681 E26.85664
G1 X89.069 Y132.636 E27.41105
G1 X110 Y133.035 E27.82883
G0 F9000 X110 Y133.435
;TYPE:WALL-OUTER
G1 F1800 X130.938 Y133.036 E28.24674
G1 X158.847 Y132.077 E28.80403
G1 X159.48 Y131.885 E28.81723
G1 X159.866 Y131.644 E28.82631
G1 X160.202 Y131.337 E28.83539
G1 X160.475 Y130.968 E28.84455
G1 X160.711 Y130.47 E28.85555
G1 X160.809 Y129.92 E28.8667
G1 X158.785 Y88.512 E29.69402
G1 X158.671 Y88.091 E29.70273
G1 X158.473 Y87.68 E29.71183
G1 X158.282 Y87.39 E29.71876
G1 X157.962 Y87.089 E29.72753
G1 X157.505 Y86.777 E29.73857
G1 X157.063 Y86.631 E29.74786
G1 X156.654 Y86.56 E29.75614
G1 X63.387 Y86.564 E31.61739
G1 X62.946 Y86.628 E31.62628
G1 X62.52 Y86.768 E31.63523
G1 X62.114 Y87.009 E31.64465
G1 X61.791 Y87.314 E31.65352
G1 X61.52 Y87.681 E31.66262
G1 X61.375 Y87.971 E31.66909
G1 X61.241 Y88.414 E31.67833
G1 X61.196 Y88.766 E31.68541
G1 X59.193 Y129.787 E32.505
G1 X59.238 Y130.238 E32.51405
G1 X59.328 Y130.561 E32.52074
G1 X59.573 Y131.075 E32.5321
G1 X59.955 Y131.499 E32.54349
G1 X60.31 Y131.761 E32.5523
G1 X60.616 Y131.916 E32.55914
G1 X60.926 Y132.029 E32.56573
G1 X61.267 Y132.08 E32.57261
G1 X89.058 Y133.036 E33.12754
G1 X110 Y133.435 E33.54553
G0 F9000 X110 Y132.729
G0 X109.995 Y131.333
G0 X110 Y131.071
;TYPE:SKIN
G1 F1800 X89.122 Y130.676 E33.96225
G1 X61.56 Y129.724 E34.51261
G1 X63.549 Y88.924 E35.32778
G1 X156.437 Y88.92 E37.18146
G1 X158.432 Y129.729 E37.99682
G1 X130.87 Y130.676 E38.54718
G1 X110 Y131.071 E38.96373
G1 F2400 E38.16373
G0 F9000 X109.995 Y131.333
G0 X89.116 Y130.875
G0 X61.465 Y129.922
G0 X61.332 Y129.083
G0 X61.788 Y129.105
G1 F2400 E38.96373
G1 F1800 X62.23 Y129.547 E38.97621
G0 F9000 X62.817 Y129.567
G1 F1800 X61.815 Y128.565 E39.00449
G0 F9000 X61.841 Y128.026
G1 F1800 X63.402 Y129.587 E39.04854
G0 F9000 X63.988 Y129.608
G1 F1800 X61.868 Y127.487 E39.10839
G0 F9000 X61.894 Y126.948
G1 F1800 X64.574 Y129.628 E39.18402
G0 F9000 X65.16 Y129.648
G1 F1800 X61.92 Y126.408 E39.27546
G0 F9000 X61.946 Y125.869
G1 F1800 X65.746 Y129.669 E39.38271
G0 F9000 X66.332 Y129.688
G1 F1800 X61.972 Y125.329 E39.50574
G0 F9000 X61.999 Y124.79
G1 F1800 X66.918 Y129.709 E39.64457
G0 F9000 X67.504 Y129.729
G1 F1800 X62.025 Y124.251 E39.79918
G0 F9000 X62.051 Y123.711
G1 F1800 X68.089 Y129.749 E39.96959
G0 F9000 X68.676 Y129.77
G1 F1800 X62.078 Y123.172 E40.1558
G0 F9000 X62.104 Y122.633
G1 F1800 X69.261 Y129.789 E40.35777
G0 F9000 X69.847 Y129.81
G1 F1800 X62.131 Y122.093 E40.57554
G0 F9000 X62.157 Y121.554
G1 F1800 X70.433 Y129.83 E40.80911
G0 F9000 X71.019 Y129.85
G1 F1800 X62.183 Y121.014 E41.05848
G0 F9000 X62.21 Y120.475
G1 F1800 X71.605 Y129.871 E41.32364
G0 F9000 X72.191 Y129.891
G1 F1800 X62.236 Y119.936 E41.60459
G0 F9000 X62.262 Y119.396
G1 F1800 X72.777 Y129.911 E41.90135
G0 F9000 X73.363 Y129.932
G1 F1800 X62.288 Y118.857 E42.21391
G0 F9000 X62.314 Y118.317
G1 F1800 X73.949 Y129.951 E42.54226
G0 F9000 X74.535 Y129.972
G1 F1800 X62.341 Y117.779 E42.88639
G0 F9000 X62.368 Y117.239
G1 F1800 X75.121 Y129.992 E43.24631
G0 F9000 X75.706 Y130.012
G1 F1800 X62.394 Y116.699 E43.62201
G0 F9000 X62.42 Y116.16
G1 F1800 X76.293 Y130.033 E44.01354
G0 F9000 X76.878 Y130.052
G1 F1800 X62.447 Y115.621 E44.42081
G0 F9000 X62.473 Y115.082
G1 F1800 X77.464 Y130.073 E44.84389
G0 F9000 X78.05 Y130.094
G1 F1800 X62.499 Y114.542 E45.28279
G0 F9000 X62.525 Y114.003
G1 F1800 X78.636 Y130.113 E45.73746
G0 F9000 X79.222 Y130.134
G1 F1800 X62.551 Y113.463 E46.20795
G0 F9000 X62.578 Y112.924
G1 F1800 X79.808 Y130.154 E46.69422
G0 F9000 X80.394 Y130.174
G1 F1800 X62.604 Y112.385 E47.19628
G0 F9000 X62.631 Y111.845
G1 F1800 X80.98 Y130.195 E47.71414
G0 F9000 X81.565 Y130.214
G1 F1800 X62.657 Y111.306 E48.24777
G0 F9000 X62.684 Y110.767
G1 F1800 X82.152 Y130.235 E48.7972
G0 F9000 X82.737 Y130.255
G1 F1800 X62.71 Y110.227 E49.36241
G0 F9000 X62.736 Y109.688
G1 F1800 X83.323 Y130.275 E49.94342
G0 F9000 X83.91 Y130.296
G1 F1800 X62.762 Y109.148 E50.54027
G0 F9000 X62.789 Y108.609
G1 F1800 X84.495 Y130.316 E51.15287
G0 F9000 X85.081 Y130.336
G1 F1800 X62.815 Y108.07 E51.78127
G0 F9000 X62.841 Y107.53
G1 F1800 X85.667 Y130.357 E52.42548
G0 F9000 X86.253 Y130.376
G1 F1800 X62.867 Y106.991 E53.08547
G0 F9000 X62.894 Y106.451
G1 F1800 X86.839 Y130.397 E53.76126
G0 F9000 X87.425 Y130.417
G1 F1800 X62.92 Y105.913 E54.45283
G0 F9000 X62.947 Y105.373
G1 F1800 X88.011 Y130.437 E55.16019
G0 F9000 X88.597 Y130.458
G1 F1800 X62.973 Y104.834 E55.88336
G0 F9000 X62.999 Y104.294
G1 F1800 X89.182 Y130.477 E56.6223
G0 F9000 X89.758 Y130.487
G1 F1800 X63.026 Y103.755 E57.37673
G0 F9000 X63.052 Y103.216
G1 F1800 X90.335 Y130.499 E58.14672
G0 F9000 X90.911 Y130.509
G1 F1800 X63.078 Y102.676 E58.93222
G0 F9000 X63.104 Y102.137
G1 F1800 X91.488 Y130.521 E59.73328
G0 F9000 X92.065 Y130.531
G1 F1800 X63.13 Y101.597 E60.54988
G0 F9000 X63.157 Y101.058
G1 F1800 X92.642 Y130.543 E61.38201
G0 F9000 X93.218 Y130.553
G1 F1800 X63.184 Y100.519 E62.22963
G0 F9000 X63.21 Y99.979
G1 F1800 X93.795 Y130.564 E63.09281
G0 F9000 X94.371 Y130.575
G1 F1800 X63.236 Y99.44 E63.9715
G0 F9000 X63.263 Y98.901
G1 F1800 X94.947 Y130.586 E64.86571
G0 F9000 X95.524 Y130.597
G1 F1800 X63.289 Y98.361 E65.77546
G0 F9000 X63.315 Y97.822
G1 F1800 X96.101 Y130.608 E66.70076
G0 F9000 X96.678 Y130.619
G1 F1800 X63.341 Y97.282 E67.6416
G0 F9000 X63.367 Y96.743
G1 F1800 X97.254 Y130.629 E68.59795
G0 F9000 X97.831 Y130.641
G1 F1800 X63.394 Y96.204 E69.56983
G0 F9000 X63.42 Y95.664
G1 F1800 X98.407 Y130.651 E70.55724
G0 F9000 X98.984 Y130.662
G1 F1800 X63.447 Y95.125 E71.56017
G0 F9000 X63.473 Y94.585
G1 F1800 X99.561 Y130.673 E72.57866
G0 F9000 X100.137 Y130.684
G1 F1800 X63.5 Y94.047 E73.61263
G0 F9000 X63.526 Y93.507
G1 F1800 X100.714 Y130.695 E74.66216
G0 F9000 X101.29 Y130.706
G1 F1800 X63.552 Y92.968 E75.7272
G0 F9000 X63.578 Y92.428
G1 F1800 X101.867 Y130.717 E76.8078
G0 F9000 X102.444 Y130.728
G1 F1800 X63.605 Y91.889 E77.90392
G0 F9000 X63.631 Y91.35
G1 F1800 X103.021 Y130.739 E79.01558
G0 F9000 X103.597 Y130.75
G1 F1800 X63.657 Y90.81 E80.14277
G0 F9000 X63.683 Y90.271
G1 F1800 X104.173 Y130.76 E81.28547
G0 F9000 X104.75 Y130.772
G1 F1800 X63.71 Y89.731 E82.44373
G0 F9000 X63.736 Y89.192
G1 F1800 X105.326 Y130.782 E83.61749
G0 F9000 X105.903 Y130.794
G1 F1800 X64.232 Y89.122 E84.79355
G0 F9000 X64.798 Y89.122
G1 F1800 X106.48 Y130.804 E85.9699
G0 F9000 X107.057 Y130.815
G1 F1800 X65.364 Y89.122 E87.14657
G0 F9000 X65.929 Y89.122
G1 F1800 X107.633 Y130.826 E88.32354
G0 F9000 X108.21 Y130.837
G1 F1800 X66.495 Y89.122 E89.50083
G0 F9000 X67.061 Y89.122
G1 F1800 X108.786 Y130.848 E90.67842
G0 F9000 X109.363 Y130.859
G1 F1800 X67.626 Y89.122 E91.85632
G0 F9000 X68.192 Y89.122
G1 F1800 X109.94 Y130.87 E93.03454
G0 F9000 X110.497 Y130.861
G1 F1800 X68.758 Y89.122 E94.21251
G0 F9000 X69.323 Y89.122
G1 F1800 X111.052 Y130.851 E95.39019
G0 F9000 X111.607 Y130.84
G1 F1800 X69.889 Y89.122 E96.56756
G0 F9000 X70.455 Y89.122
G1 F1800 X112.163 Y130.83 E97.74465
G0 F9000 X112.718 Y130.82
G1 F1800 X71.02 Y89.122 E98.92146
G0 F9000 X71.586 Y89.122
G1 F1800 X113.273 Y130.809 E100.09796
G0 F9000 X113.828 Y130.798
G1 F1800 X72.152 Y89.122 E101.27414
G0 F9000 X72.717 Y89.122
G1 F1800 X114.383 Y130.788 E102.45005
G0 F9000 X114.938 Y130.777
G1 F1800 X73.283 Y89.122 E103.62564
G0 F9000 X73.849 Y89.122
G1 F1800 X115.493 Y130.767 E104.80094
G0 F9000 X116.048 Y130.756
G1 F1800 X74.415 Y89.122 E105.97593
G0 F9000 X74.98 Y89.122
G1 F1800 X116.604 Y130.746 E107.15065
G0 F9000 X117.159 Y130.736
G1 F1800 X75.546 Y89.122 E108.32507
G0 F9000 X76.112 Y89.122
G1 F1800 X117.714 Y130.725 E109.49918
G0 F9000 X118.269 Y130.714
G1 F1800 X76.677 Y89.122 E110.673
G0 F9000 X77.243 Y89.122
G1 F1800 X118.824 Y130.704 E111.84652
G0 F9000 X119.379 Y130.693
G1 F1800 X77.809 Y89.122 E113.01973
G0 F9000 X78.374 Y89.122
G1 F1800 X119.935 Y130.683 E114.19267
G0 F9000 X120.49 Y130.672
G1 F1800 X78.94 Y89.122 E115.3653
G0 F9000 X79.506 Y89.122
G1 F1800 X121.045 Y130.662 E116.53763
G0 F9000 X121.6 Y130.651
G1 F1800 X80.071 Y89.122 E117.70967
G0 F9000 X80.637 Y89.122
G1 F1800 X122.156 Y130.641 E118.88143
G0 F9000 X122.711 Y130.63
G1 F1800 X81.203 Y89.122 E120.05287
G0 F9000 X81.768 Y89.122
G1 F1800 X123.266 Y130.62 E121.22404
G0 F9000 X123.821 Y130.609
G1 F1800 X82.334 Y89.122 E122.39489
G0 F9000 X82.9 Y89.122
G1 F1800 X124.376 Y130.598 E123.56543
G0 F9000 X124.931 Y130.588
G1 F1800 X83.465 Y89.122 E124.73569
G0 F9000 X84.031 Y89.122
G1 F1800 X125.487 Y130.578 E125.90567
G0 F9000 X126.042 Y130.567
G1 F1800 X84.597 Y89.122 E127.07534
G0 F9000 X85.163 Y89.122
G1 F1800 X126.597 Y130.557 E128.24471
G0 F9000 X127.152 Y130.546
G1 F1800 X85.728 Y89.122 E129.41378
G0 F9000 X86.294 Y89.122
G1 F1800 X127.707 Y130.535 E130.58255
G0 F9000 X128.262 Y130.525
G1 F1800 X86.86 Y89.122 E131.75102
G0 F9000 X87.425 Y89.122
G1 F1800 X128.817 Y130.514 E132.91919
G0 F9000 X129.372 Y130.504
G1 F1800 X87.991 Y89.122 E134.08706
G0 F9000 X88.557 Y89.122
G1 F1800 X129.928 Y130.494 E135.25466
G0 F9000 X130.483 Y130.483
G1 F1800 X89.122 Y89.122 E136.42195
G0 F9000 X89.688 Y89.122
G1 F1800 X131.035 Y130.47 E137.58887
G0 F9000 X131.583 Y130.451
G1 F1800 X90.254 Y89.122 E138.75526
G0 F9000 X90.819 Y89.122
G1 F1800 X132.129 Y130.432 E139.92112
G0 F9000 X132.676 Y130.413
G1 F1800 X91.385 Y89.122 E141.08644
G0 F9000 X91.951 Y89.122
G1 F1800 X133.223 Y130.395 E142.25124
G0 F9000 X133.77 Y130.376
G1 F1800 X92.516 Y89.122 E143.41552
G0 F9000 X93.082 Y89.122
G1 F1800 X134.317 Y130.357 E144.57926
G0 F9000 X134.864 Y130.338
G1 F1800 X93.648 Y89.122 E145.74246
G0 F9000 X94.213 Y89.122
G1 F1800 X135.411 Y130.32 E146.90516
G0 F9000 X135.958 Y130.301
G1 F1800 X94.778 Y89.122 E148.06733
G0 F9000 X95.344 Y89.122
G1 F1800 X136.505 Y130.282 E149.22897
G0 F9000 X137.051 Y130.263
G1 F1800 X95.91 Y89.122 E150.39006
G0 F9000 X96.476 Y89.122
G1 F1800 X137.598 Y130.244 E151.55061
G0 F9000 X138.145 Y130.226
G1 F1800 X97.041 Y89.122 E152.71065
G0 F9000 X97.607 Y89.122
G1 F1800 X138.692 Y130.207 E153.87016
G0 F9000 X139.239 Y130.188
G1 F1800 X98.173 Y89.122 E155.02913
G0 F9000 X98.738 Y89.122
G1 F1800 X139.786 Y130.169 E156.18758
G0 F9000 X140.333 Y130.151
G1 F1800 X99.304 Y89.122 E157.34551
G0 F9000 X99.87 Y89.122
G1 F1800 X140.88 Y130.132 E158.5029
G0 F9000 X141.426 Y130.113
G1 F1800 X100.435 Y89.122 E159.65975
G0 F9000 X101.001 Y89.122
G1 F1800 X141.974 Y130.094 E160.81609
G0 F9000 X142.52 Y130.075
G1 F1800 X101.567 Y89.122 E161.97187
G0 F9000 X102.132 Y89.122
G1 F1800 X143.068 Y130.057 E163.12716
G0 F9000 X143.614 Y130.038
G1 F1800 X102.698 Y89.122 E164.2819
G0 F9000 X103.264 Y89.122
G1 F1800 X144.161 Y130.019 E165.4361
G0 F9000 X144.708 Y130
G1 F1800 X103.829 Y89.122 E166.58978
G0 F9000 X104.395 Y89.122
G1 F1800 X145.255 Y129.981 E167.74292
G0 F9000 X145.802 Y129.963
G1 F1800 X104.961 Y89.122 E168.89554
G0 F9000 X105.526 Y89.122
G1 F1800 X146.348 Y129.944 E170.04763
G0 F9000 X146.896 Y129.925
G1 F1800 X106.092 Y89.122 E171.19919
G0 F9000 X106.658 Y89.122
G1 F1800 X147.442 Y129.906 E172.3502
G0 F9000 X147.99 Y129.888
G1 F1800 X107.224 Y89.122 E173.50071
G0 F9000 X107.789 Y89.122
G1 F1800 X148.536 Y129.869 E174.65067
G0 F9000 X149.083 Y129.85
G1 F1800 X108.355 Y89.122 E175.80011
G0 F9000 X108.921 Y89.122
