;FLAVOR:Marlin
;TIME:3484
;Filament used: 6.18661m
;Layer height: 0.2
;MINX:23.493
;MINY:17.872
;MINZ:0.2
;MAXX:196.571
;MAXY:202.122
;MAXZ:7.4
;TARGET_MACHINE.NAME:Creality Ender-3 V3 SE
;Generated with Cura_SteamEngine 5.9.0
M82 ;absolute extrusion mode
M220 S100 ;Reset Feedrate
M221 S100 ;Reset Flowrate

G28 ;Home

M420 S1; Use saved mesh leveling data

G92 E0 ;Reset Extruder
G1 Z2.0 F3000 ;Move Z Axis up
G1 X-3 Y20 Z0.28 F5000.0 ;Move to start position
M190 S65 ; Set bed temperature and wait
M109 S215.0 ; Set hotend temperature and wait
G1 X-3 Y100.0 Z0.28 F1500.0 E15 ;Draw the first line
G1 X-2 Y100.0 Z0.28 F5000.0 ;Move to side a little
G1 X-2 Y20 Z0.28 F1500.0 E30 ;Draw the second line
G92 E0 ;Reset Extruder
G1 E-1.0000 F1800 ;Retract a bit
G1 Z2.0 F3000 ;Move Z Axis up
G1 E0.0000 F1800 

G92 E0
G92 E0
G1 F2400 E-0.8
;LAYER_COUNT:37
;LAYER:0
M107
;MESH:lifelike-powerloc-straight-base-plate.stl
G0 F11100 X110.024 Y141.708 Z0.2
;TYPE:WALL-INNER
G1 F2400 E0
G1 F1500 X189.344 Y76.316 E3.41913
G1 X175.827 Y59.922 E4.12584
G1 X175.579 Y59.523 E4.14146
G1 X175.391 Y59.145 E4.15551
G1 X175.243 Y58.738 E4.16991
G1 X175.146 Y58.361 E4.18286
G1 X175.083 Y57.916 E4.19781
G1 X175.07 Y57.434 E4.21384
G1 X175.099 Y57.083 E4.22556
G1 X175.184 Y56.61 E4.24154
G1 X175.288 Y56.261 E4.25365
G1 X175.445 Y55.878 E4.26742
G1 X175.637 Y55.511 E4.2812
G1 X175.903 Y55.123 E4.29684
G1 X176.177 Y54.804 E4.31083
G1 X176.463 Y54.532 E4.32396
G1 X195.151 Y39.126 E5.1295
G1 X195.367 Y38.883 E5.14032
G1 X195.579 Y38.551 E5.15342
G1 X195.772 Y37.926 E5.17517
G1 X195.765 Y37.505 E5.18918
G1 X195.721 Y37.233 E5.19834
G1 X195.653 Y36.986 E5.20686
G1 X195.545 Y36.754 E5.21537
G1 X195.41 Y36.523 E5.22427
G1 X181.956 Y20.196 E5.92793
G1 X30.724 Y144.872 E12.44685
G1 X44.177 Y161.198 E13.15046
G1 X44.378 Y161.483 E13.16206
G1 X44.655 Y161.983 E13.18107
G1 X44.822 Y162.458 E13.19782
G1 X44.918 Y162.831 E13.21063
G1 X44.981 Y163.276 E13.22557
G1 X44.994 Y163.758 E13.24161
G1 X44.959 Y164.153 E13.2548
G1 X44.895 Y164.525 E13.26735
G1 X44.764 Y164.961 E13.2825
G1 X44.624 Y165.313 E13.2951
G1 X44.369 Y165.782 E13.31285
G1 X44.048 Y166.207 E13.33057
G1 X43.724 Y166.55 E13.34626
G1 X24.904 Y182.073 E14.15767
G1 X24.607 Y182.443 E14.17345
G1 X24.481 Y182.671 E14.18211
G1 X24.349 Y183.029 E14.1948
G1 X24.297 Y183.375 E14.20644
G1 X24.3 Y183.691 E14.21695
G1 X24.342 Y183.953 E14.22578
G1 X24.473 Y184.337 E14.23927
G1 X24.686 Y184.704 E14.25338
G1 X38.108 Y200.996 E14.95546
G1 X110.024 Y141.708 E18.05544
G0 F11100 X110.024 Y142.226
G1 F1500 X189.907 Y76.37 E21.49884
G1 X176.166 Y59.704 E22.21726
G1 X175.905 Y59.286 E22.23366
G1 X175.738 Y58.938 E22.24649
G1 X175.618 Y58.594 E22.25861
G1 X175.537 Y58.276 E22.26953
G1 X175.482 Y57.881 E22.28279
G1 X175.469 Y57.465 E22.29663
G1 X175.496 Y57.131 E22.30778
G1 X175.568 Y56.723 E22.32156
G1 X175.665 Y56.393 E22.333
G1 X175.807 Y56.047 E22.34544
G1 X175.98 Y55.716 E22.35786
G1 X176.192 Y55.403 E22.37043
G1 X176.432 Y55.115 E22.3829
G1 X176.718 Y54.841 E22.39608
G1 X195.286 Y39.534 E23.19645
G1 X195.487 Y39.35 E23.20551
G1 X195.687 Y39.125 E23.21552
G1 X195.857 Y38.859 E23.22602
G1 X195.972 Y38.63 E23.23455
G1 X196.058 Y38.393 E23.24293
G1 X196.123 Y38.14 E23.25162
G1 X196.171 Y37.845 E23.26156
G1 X196.164 Y37.47 E23.27403
G1 X196.112 Y37.148 E23.28488
G1 X196.03 Y36.848 E23.29523
G1 X195.9 Y36.568 E23.30549
G1 X195.738 Y36.293 E23.31611
G1 X182.01 Y19.633 E24.03411
G1 X30.161 Y144.818 E30.57963
G1 X43.837 Y161.411 E31.29481
G1 X44.045 Y161.704 E31.30676
G1 X44.279 Y162.123 E31.32272
G1 X44.439 Y162.574 E31.33864
G1 X44.527 Y162.916 E31.35039
G1 X44.582 Y163.311 E31.36365
G1 X44.595 Y163.727 E31.37749
G1 X44.568 Y164.061 E31.38864
G1 X44.505 Y164.435 E31.40125
G1 X44.408 Y164.767 E31.41276
G1 X44.261 Y165.145 E31.42625
G1 X44.033 Y165.565 E31.44214
G1 X43.744 Y165.947 E31.45807
G1 X43.451 Y166.258 E31.47228
G1 X24.778 Y181.658 E32.27732
G1 X24.579 Y181.839 E32.28626
G1 X24.313 Y182.148 E32.29983
G1 X24.116 Y182.503 E32.31333
G1 X24.01 Y182.792 E32.32357
G1 X23.941 Y183.054 E32.33258
G1 X23.897 Y183.347 E32.34243
G1 X23.9 Y183.725 E32.35501
G1 X23.951 Y184.04 E32.36562
G1 X24.108 Y184.501 E32.38182
G1 X24.281 Y184.841 E32.39451
G1 X38.054 Y201.559 E33.11494
G1 X110.024 Y142.226 E36.21726
G0 F11100 X110.024 Y142.745
;TYPE:WALL-OUTER
G1 F1500 X190.47 Y76.424 E39.68494
G1 X176.484 Y59.462 E40.41615
G1 X176.264 Y59.109 E40.42998
G1 X176.115 Y58.804 E40.44127
G1 X176.008 Y58.503 E40.4519
G1 X175.925 Y58.176 E40.46312
G1 X175.88 Y57.846 E40.4742
G1 X175.868 Y57.496 E40.48584
G1 X175.894 Y57.171 E40.49669
G1 X175.952 Y56.835 E40.50803
G1 X176.047 Y56.515 E40.51913
G1 X176.174 Y56.207 E40.53021
G1 X176.33 Y55.911 E40.54134
G1 X176.518 Y55.635 E40.55245
G1 X176.725 Y55.387 E40.56319
G1 X176.972 Y55.149 E40.5746
G1 X195.548 Y39.836 E41.3753
G1 X195.773 Y39.631 E41.38543
G1 X196.007 Y39.367 E41.39716
G1 X196.205 Y39.057 E41.4094
G1 X196.34 Y38.788 E41.41941
G1 X196.44 Y38.512 E41.42917
G1 X196.515 Y38.222 E41.43913
G1 X196.571 Y37.873 E41.45089
G1 X196.564 Y37.434 E41.46549
G1 X196.504 Y37.063 E41.47799
G1 X196.407 Y36.71 E41.49017
G1 X196.254 Y36.382 E41.50221
G1 X196.067 Y36.063 E41.5145
G1 X182.064 Y19.07 E42.24687
G1 X29.598 Y144.764 E48.81899
G1 X43.524 Y161.66 E49.54724
G1 X43.719 Y161.938 E49.55853
G1 X43.923 Y162.307 E49.57256
G1 X44.058 Y162.698 E49.58631
G1 X44.139 Y163.016 E49.59723
G1 X44.184 Y163.346 E49.60831
G1 X44.196 Y163.696 E49.61995
G1 X44.17 Y164.021 E49.6308
G1 X44.112 Y164.357 E49.64214
G1 X44.019 Y164.669 E49.65297
G1 X43.898 Y164.977 E49.66397
G1 X43.697 Y165.349 E49.67804
G1 X43.44 Y165.687 E49.69216
G1 X43.168 Y165.975 E49.70533
G1 X24.516 Y181.356 E50.50943
G1 X24.292 Y181.56 E50.5195
G1 X24.101 Y181.781 E50.52922
G1 X23.933 Y182.009 E50.53864
G1 X23.751 Y182.336 E50.55109
G1 X23.628 Y182.672 E50.56299
G1 X23.549 Y182.973 E50.57334
G1 X23.497 Y183.319 E50.58497
G1 X23.5 Y183.759 E50.59961
G1 X23.56 Y184.128 E50.61204
G1 X23.638 Y184.399 E50.62142
G1 X23.743 Y184.665 E50.63093
G1 X23.882 Y184.939 E50.64115
G1 X24.042 Y185.18 E50.65077
G1 X38 Y202.122 E51.38088
G1 X110.024 Y142.745 E54.48551
G0 F11100 X109.574 Y142.198
G0 X110.191 Y141.44
G0 X110.024 Y141.236
;TYPE:SKIN
G1 F1500 X38.156 Y200.486 E57.58345
G1 X24.981 Y184.497 E58.27252
G1 X24.799 Y184.184 E58.28457
G1 X24.66 Y183.773 E58.299
G1 X24.653 Y183.306 E58.31453
G1 X24.836 Y182.729 E58.33467
G1 X25.156 Y182.33 E58.35168
G1 X43.978 Y166.806 E59.16316
G1 X44.311 Y166.449 E59.1794
G1 X44.672 Y165.973 E59.19926
G1 X44.95 Y165.465 E59.21853
G1 X45.099 Y165.085 E59.2321
G1 X45.244 Y164.615 E59.24846
G1 X45.322 Y164.162 E59.26375
G1 X45.356 Y163.649 E59.28085
G1 X45.34 Y163.237 E59.29456
G1 X45.279 Y162.803 E59.30914
G1 X45.178 Y162.394 E59.32315
G1 X44.986 Y161.838 E59.34272
G1 X44.687 Y161.301 E59.36316
G1 X44.416 Y160.916 E59.37882
G1 X31.23 Y144.92 E60.06831
G1 X181.904 Y20.702 E66.56322
G1 X195.108 Y36.724 E67.25376
G1 X195.343 Y37.173 E67.27061
G1 X195.404 Y37.539 E67.28295
G1 X195.411 Y37.872 E67.29403
G1 X195.271 Y38.327 E67.30987
G1 X195.077 Y38.666 E67.32286
G1 X194.893 Y38.871 E67.33202
G1 X176.232 Y54.253 E68.13636
G1 X175.922 Y54.546 E68.15055
G1 X175.58 Y54.943 E68.16798
G1 X175.329 Y55.321 E68.18307
G1 X175.114 Y55.727 E68.19835
G1 X174.944 Y56.149 E68.21348
G1 X174.816 Y56.569 E68.22809
G1 X174.742 Y57.033 E68.24371
G1 X174.708 Y57.538 E68.26055
G1 X174.72 Y57.95 E68.27426
G1 X174.783 Y58.387 E68.28894
G1 X174.893 Y58.829 E68.30409
G1 X175.039 Y59.236 E68.31847
G1 X175.259 Y59.691 E68.33528
G1 X175.546 Y60.147 E68.3532
G1 X188.834 Y76.264 E69.04796
G1 X110.024 Y141.236 E72.44511
G1 F2400 E71.64511
G0 F11100 X110.191 Y141.44
G0 X38.605 Y200.455
G0 X38.311 Y200.097
G1 F2400 E72.44511
G1 F1500 X37.084 Y198.87 E72.50283
G0 F11100 X36.728 Y199.162
G0 X38.132 Y200.753
G0 X38.915 Y200.2
G0 X38.621 Y199.842
G1 F1500 X34.435 Y195.656 E72.69972
G0 F11100 X34.079 Y195.948
G0 X31.431 Y192.733
G0 X31.787 Y192.441
G1 F1500 X38.931 Y199.586 E73.03578
G0 F11100 X39.242 Y199.331
G1 F1500 X29.138 Y189.227 E73.51104
G0 F11100 X28.783 Y189.519
G0 X26.135 Y186.304
G0 X26.49 Y186.013
G1 F1500 X39.551 Y199.075 E74.12541
G0 F11100 X39.862 Y198.819
G1 F1500 X24.899 Y183.856 E74.82923
G0 F11100 X24.874 Y183.266
G1 F1500 X40.171 Y198.563 E75.54875
G0 F11100 X40.482 Y198.308
G1 F1500 X25.01 Y182.837 E76.27648
G0 F11100 X25.259 Y182.52
G1 F1500 X40.792 Y198.052 E77.00708
G0 F11100 X41.102 Y197.797
G1 F1500 X25.561 Y182.256 E77.73809
G0 F11100 X25.871 Y182
G1 F1500 X41.412 Y197.541 E78.46909
G0 F11100 X41.722 Y197.286
G1 F1500 X26.181 Y181.745 E79.20009
G0 F11100 X26.491 Y181.489
G1 F1500 X42.032 Y197.03 E79.93109
G0 F11100 X42.342 Y196.774
G1 F1500 X26.801 Y181.233 E80.66209
G0 F11100 X27.111 Y180.978
G1 F1500 X42.652 Y196.518 E81.39307
G0 F11100 X42.962 Y196.263
G1 F1500 X27.421 Y180.722 E82.12407
G0 F11100 X27.731 Y180.466
G1 F1500 X43.272 Y196.007 E82.85507
G0 F11100 X43.583 Y195.752
G1 F1500 X28.041 Y180.21 E83.58612
G0 F11100 X28.351 Y179.955
G1 F1500 X43.892 Y195.496 E84.31712
G0 F11100 X44.203 Y195.241
G1 F1500 X28.661 Y179.699 E85.04817
G0 F11100 X28.971 Y179.443
G1 F1500 X44.512 Y194.985 E85.77919
G0 F11100 X44.823 Y194.729
G1 F1500 X29.281 Y179.188 E86.51021
G0 F11100 X29.591 Y178.932
G1 F1500 X45.133 Y194.473 E87.24124
G0 F11100 X45.443 Y194.218
G1 F1500 X29.901 Y178.677 E87.97226
G0 F11100 X30.211 Y178.421
G1 F1500 X45.753 Y193.962 E88.70329
G0 F11100 X46.063 Y193.707
G1 F1500 X30.521 Y178.165 E89.43434
G0 F11100 X30.831 Y177.909
G1 F1500 X46.373 Y193.451 E90.16538
G0 F11100 X46.683 Y193.196
G1 F1500 X31.141 Y177.654 E90.89643
G0 F11100 X31.451 Y177.398
G1 F1500 X46.993 Y192.94 E91.62748
G0 F11100 X47.303 Y192.684
G1 F1500 X31.761 Y177.142 E92.35853
G0 F11100 X32.071 Y176.886
G1 F1500 X47.613 Y192.429 E93.0896
G0 F11100 X47.923 Y192.173
G1 F1500 X32.381 Y176.631 E93.82065
G0 F11100 X32.691 Y176.375
G1 F1500 X48.233 Y191.917 E94.5517
G0 F11100 X48.544 Y191.662
G1 F1500 X33.001 Y176.12 E95.28277
G0 F11100 X33.311 Y175.864
G1 F1500 X48.853 Y191.406 E96.01382
G0 F11100 X49.164 Y191.151
G1 F1500 X33.621 Y175.608 E96.74491
G0 F11100 X33.931 Y175.353
G1 F1500 X49.473 Y190.895 E97.47596
G0 F11100 X49.784 Y190.64
G1 F1500 X34.241 Y175.097 E98.20705
G0 F11100 X34.551 Y174.841
G1 F1500 X50.094 Y190.384 E98.93815
G0 F11100 X50.404 Y190.128
G1 F1500 X34.861 Y174.585 E99.66924
G0 F11100 X35.171 Y174.329
G1 F1500 X50.714 Y189.872 E100.40034
G0 F11100 X51.024 Y189.617
G1 F1500 X35.481 Y174.074 E101.13143
G0 F11100 X35.791 Y173.818
G1 F1500 X51.334 Y189.361 E101.86253
G0 F11100 X51.644 Y189.106
G1 F1500 X36.101 Y173.563 E102.59362
G0 F11100 X36.411 Y173.307
G1 F1500 X51.954 Y188.85 E103.32472
G0 F11100 X52.264 Y188.595
G1 F1500 X36.721 Y173.051 E104.05584
G0 F11100 X37.031 Y172.796
G1 F1500 X52.574 Y188.339 E104.78693
G0 F11100 X52.885 Y188.083
G1 F1500 X37.341 Y172.54 E105.51805
G0 F11100 X37.651 Y172.284
G1 F1500 X53.194 Y187.827 E106.24915
G0 F11100 X53.505 Y187.572
G1 F1500 X37.961 Y172.028 E106.98029
G0 F11100 X38.271 Y171.773
G1 F1500 X53.814 Y187.316 E107.71138
G0 F11100 X54.125 Y187.061
G1 F1500 X38.581 Y171.517 E108.44253
G0 F11100 X38.891 Y171.261
G1 F1500 X54.434 Y186.805 E109.17364
G0 F11100 X54.745 Y186.55
G1 F1500 X39.201 Y171.006 E109.90479
G0 F11100 X39.511 Y170.75
G1 F1500 X55.055 Y186.294 E110.63593
G0 F11100 X55.365 Y186.038
G1 F1500 X39.821 Y170.494 E111.36707
G0 F11100 X40.131 Y170.239
G1 F1500 X55.675 Y185.782 E112.09819
G0 F11100 X55.985 Y185.527
G1 F1500 X40.441 Y169.983 E112.82933
G0 F11100 X40.751 Y169.728
G1 F1500 X56.295 Y185.271 E113.56045
G0 F11100 X56.605 Y185.016
G1 F1500 X41.061 Y169.472 E114.29159
G0 F11100 X41.371 Y169.216
G1 F1500 X56.915 Y184.76 E115.02273
G0 F11100 X57.225 Y184.505
G1 F1500 X41.681 Y168.96 E115.7539
G0 F11100 X41.991 Y168.704
G1 F1500 X57.535 Y184.249 E116.48507
G0 F11100 X57.846 Y183.993
G1 F1500 X42.301 Y168.449 E117.21623
G0 F11100 X42.611 Y168.193
G1 F1500 X58.155 Y183.737 E117.94737
G0 F11100 X58.466 Y183.482
G1 F1500 X42.921 Y167.938 E118.67854
G0 F11100 X43.231 Y167.682
G1 F1500 X58.775 Y183.226 E119.40968
G0 F11100 X59.086 Y182.971
G1 F1500 X43.541 Y167.426 E120.14087
G0 F11100 X43.851 Y167.171
G1 F1500 X59.396 Y182.715 E120.87204
G0 F11100 X59.706 Y182.46
G1 F1500 X44.155 Y166.908 E121.60353
G0 F11100 X44.428 Y166.616
G1 F1500 X60.016 Y182.204 E122.33674
G0 F11100 X60.326 Y181.948
G1 F1500 X44.674 Y166.296 E123.07296
G0 F11100 X44.906 Y165.963
G1 F1500 X60.636 Y181.693 E123.81286
G0 F11100 X60.946 Y181.437
G1 F1500 X45.106 Y165.597 E124.55792
G0 F11100 X45.269 Y165.194
G1 F1500 X61.256 Y181.181 E125.3099
G0 F11100 X61.566 Y180.926
G1 F1500 X45.406 Y164.766 E126.07002
G0 F11100 X45.502 Y164.296
G1 F1500 X61.876 Y180.67 E126.8402
G0 F11100 X62.187 Y180.415
G1 F1500 X45.548 Y163.776 E127.62285
G0 F11100 X45.536 Y163.199
G1 F1500 X62.496 Y180.159 E128.42059
G0 F11100 X62.807 Y179.904
G1 F1500 X45.412 Y162.509 E129.2388
G0 F11100 X45.104 Y161.635
G1 F1500 X63.116 Y179.648 E130.08605
G0 F11100 X63.427 Y179.392
G1 F1500 X43.382 Y159.348 E131.02889
G0 F11100 X43.027 Y159.639
G0 X40.373 Y156.42
G0 X40.728 Y156.128
G1 F1500 X63.736 Y179.136 E132.11111
G0 F11100 X64.047 Y178.881
G1 F1500 X38.073 Y152.908 E133.33283
G0 F11100 X37.718 Y153.199
G0 X35.065 Y149.98
G0 X35.42 Y149.688
G1 F1500 X64.357 Y178.625 E134.69393
G0 F11100 X64.667 Y178.37
G1 F1500 X32.765 Y146.468 E136.19451
G0 F11100 X32.41 Y146.759
G0 X30.967 Y144.896
G0 X31.385 Y144.458
G0 X31.676 Y144.813
G1 F1500 X64.977 Y178.114 E137.76088
G0 F11100 X65.287 Y177.859
G1 F1500 X31.985 Y144.557 E139.32731
G0 F11100 X32.296 Y144.301
G1 F1500 X65.597 Y177.603 E140.89371
G0 F11100 X65.907 Y177.347
G1 F1500 X32.605 Y144.045 E142.46013
G0 F11100 X32.916 Y143.79
G1 F1500 X66.217 Y177.091 E144.02651
G0 F11100 X66.527 Y176.836
G1 F1500 X33.226 Y143.534 E145.59291
G0 F11100 X33.536 Y143.279
G1 F1500 X66.837 Y176.58 E147.15928
G0 F11100 X67.148 Y176.325
G1 F1500 X33.846 Y143.023 E148.72571
G0 F11100 X34.156 Y142.768
G1 F1500 X67.457 Y176.069 E150.29209
G0 F11100 X67.768 Y175.814
G1 F1500 X34.466 Y142.512 E151.85851
G0 F11100 X34.776 Y142.256
G1 F1500 X68.077 Y175.558 E153.42491
G0 F11100 X68.388 Y175.302
G1 F1500 X35.086 Y142 E154.99133
G0 F11100 X35.396 Y141.745
G1 F1500 X68.698 Y175.046 E156.55773
G0 F11100 X69.008 Y174.791
G1 F1500 X35.706 Y141.489 E158.12416
G0 F11100 X36.016 Y141.234
G1 F1500 X69.318 Y174.535 E159.69056
G0 F11100 X69.628 Y174.28
G1 F1500 X36.326 Y140.978 E161.25698
G0 F11100 X36.637 Y140.723
G1 F1500 X69.938 Y174.024 E162.82336
G0 F11100 X70.248 Y173.769
G1 F1500 X36.946 Y140.467 E164.38978
G0 F11100 X37.257 Y140.211
G1 F1500 X70.558 Y173.513 E165.95618
G0 F11100 X70.868 Y173.257
G1 F1500 X37.566 Y139.956 E167.52258
G0 F11100 X37.877 Y139.7
G1 F1500 X71.178 Y173.001 E169.08896
G0 F11100 X71.488 Y172.746
G1 F1500 X38.187 Y139.444 E170.65536
G0 F11100 X38.497 Y139.189
G1 F1500 X71.798 Y172.49 E172.22174
G0 F11100 X72.109 Y172.235
G1 F1500 X38.807 Y138.933 E173.78816
G0 F11100 X39.117 Y138.678
G1 F1500 X72.418 Y171.979 E175.35454
G0 F11100 X72.729 Y171.724
G1 F1500 X39.427 Y138.422 E176.92096
G0 F11100 X39.737 Y138.167
G1 F1500 X73.038 Y171.468 E178.48734
G0 F11100 X73.348 Y171.212
G1 F1500 X40.047 Y137.911 E180.05372
G0 F11100 X40.357 Y137.655
G1 F1500 X73.659 Y170.956 E181.62012
G0 F11100 X73.968 Y170.701
G1 F1500 X40.667 Y137.399 E183.18652
G0 F11100 X40.978 Y137.144
G1 F1500 X74.279 Y170.445 E184.7529
G0 F11100 X74.588 Y170.189
G1 F1500 X41.287 Y136.888 E186.31927
G0 F11100 X41.598 Y136.633
G1 F1500 X74.899 Y169.934 E187.88565
G0 F11100 X75.209 Y169.678
G1 F1500 X41.907 Y136.377 E189.45205
G0 F11100 X42.218 Y136.122
G1 F1500 X75.519 Y169.423 E191.01843
G0 F11100 X75.829 Y169.167
G1 F1500 X42.528 Y135.866 E192.5848
G0 F11100 X42.838 Y135.61
G1 F1500 X76.139 Y168.912 E194.1512
G0 F11100 X76.449 Y168.656
G1 F1500 X43.148 Y135.354 E195.71761
G0 F11100 X43.458 Y135.099
G1 F1500 X76.759 Y168.4 E197.28398
G0 F11100 X77.069 Y168.144
G1 F1500 X43.768 Y134.843 E198.85036
G0 F11100 X44.078 Y134.588
G1 F1500 X77.379 Y167.889 E200.41674
