;FLAVOR:Marlin
;TIME:3189
;Filament used: 3.08755m
;Layer height: 0.12
;MINX:58.701
;MINY:86.736
;MINZ:0.12
;MAXX:161.295
;MAXY:133.26
;MAXZ:7.44
;TARGET_MACHINE.NAME:Creality Ender-3 V3 SE
;Generated with Cura_SteamEngine 5.9.0
M82 ;absolute extrusion mode
M220 S100 ;Reset Feedrate
M221 S100 ;Reset Flowrate

G28 ;Home

M420 S1; Use saved mesh leveling data

G92 E0 ;Reset Extruder
G1 Z2.0 F3000 ;Move Z Axis up
G1 X-3 Y20 Z0.28 F5000.0 ;Move to start position
M190 S60 ; Set bed temperature and wait
M109 S200 ; Set hotend temperature and wait
G1 X-3 Y100.0 Z0.28 F1500.0 E15 ;Draw the first line
G1 X-2 Y100.0 Z0.28 F5000.0 ;Move to side a little
G1 X-2 Y20 Z0.28 F1500.0 E30 ;Draw the second line
G92 E0 ;Reset Extruder
G1 E-1.0000 F1800 ;Retract a bit
G1 Z2.0 F3000 ;Move Z Axis up
G1 E0.0000 F1800 

G92 E0
G92 E0
G1 F2400 E-0.8
;LAYER_COUNT:62
;LAYER:0
M107
;MESH:curved-track-join-clip.stl
G0 F9000 X110 Y131.26 Z0.12
;TYPE:WALL-INNER
G1 F2400 E0
G1 F1800 X153.895 Y131.26 E0.87597
G1 X155.026 Y131.148 E0.89865
G1 X156.019 Y130.845 E0.91937
G1 X156.94 Y130.356 E0.94018
G1 X157.735 Y129.701 E0.96074
G1 X158.397 Y128.896 E0.98154
G1 X158.885 Y127.981 E1.00223
G1 X159.187 Y126.99 E1.0229
G1 X159.289 Y125.93 E1.04416
G1 X157.302 Y94.207 E1.67846
G1 X157.187 Y93.006 E1.70254
G1 X156.885 Y92.014 E1.72323
G1 X156.397 Y91.1 E1.74391
G1 X155.737 Y90.296 E1.76467
G1 X154.94 Y89.643 E1.78523
G1 X154.017 Y89.15 E1.80611
G1 X153.026 Y88.848 E1.82679
G1 X151.895 Y88.736 E1.84947
G1 X68.105 Y88.736 E3.52159
G1 X66.973 Y88.848 E3.54429
G1 X65.978 Y89.151 E3.56505
G1 X65.057 Y89.642 E3.58587
G1 X64.264 Y90.295 E3.60637
G1 X63.601 Y91.103 E3.62723
G1 X63.11 Y92.017 E3.64794
G1 X62.809 Y93.006 E3.66857
G1 X62.694 Y94.207 E3.69264
G1 X60.707 Y125.93 E4.32695
G1 X60.809 Y126.99 E4.3482
G1 X61.11 Y127.979 E4.36883
G1 X61.601 Y128.894 E4.38956
G1 X62.266 Y129.703 E4.41045
G1 X63.057 Y130.357 E4.43094
G1 X63.976 Y130.844 E4.45169
G1 X64.973 Y131.147 E4.47249
G1 X66.105 Y131.26 E4.49519
G1 X110 Y131.26 E5.37116
G0 F9000 X110 Y131.66
G1 F1800 X153.915 Y131.66 E6.24753
G1 X155.105 Y131.542 E6.2714
G1 X156.173 Y131.216 E6.29368
G1 X157.163 Y130.69 E6.31605
G1 X158.02 Y129.985 E6.3382
G1 X158.731 Y129.119 E6.36056
G1 X159.256 Y128.135 E6.38282
G1 X159.581 Y127.068 E6.40507
G1 X159.69 Y125.937 E6.42775
G1 X157.701 Y94.175 E7.06284
G1 X157.581 Y92.928 E7.08784
G1 X157.257 Y91.861 E7.11009
G1 X156.732 Y90.877 E7.13235
G1 X156.021 Y90.012 E7.15469
G1 X155.163 Y89.309 E7.17683
G1 X154.171 Y88.779 E7.19927
G1 X153.105 Y88.454 E7.22151
G1 X151.915 Y88.336 E7.24538
G1 X68.085 Y88.336 E8.91829
G1 X66.894 Y88.454 E8.94218
G1 X65.825 Y88.779 E8.96448
G1 X64.834 Y89.308 E8.98689
G1 X63.98 Y90.011 E9.00897
G1 X63.267 Y90.879 E9.03138
G1 X62.739 Y91.863 E9.05367
G1 X62.415 Y92.928 E9.07588
G1 X62.295 Y94.175 E9.10088
G1 X60.306 Y125.937 E9.73597
G1 X60.415 Y127.068 E9.75865
G1 X60.739 Y128.133 E9.78086
G1 X61.267 Y129.117 E9.80315
G1 X61.981 Y129.987 E9.82561
G1 X62.834 Y130.691 E9.84768
G1 X63.822 Y131.216 E9.87
G1 X64.894 Y131.542 E9.89236
G1 X66.085 Y131.66 E9.91625
G1 X110 Y131.66 E10.79262
G0 F9000 X110 Y132.06
G1 F1800 X153.934 Y132.06 E11.66937
G1 X155.184 Y131.936 E11.69444
G1 X156.326 Y131.588 E11.71826
G1 X157.387 Y131.025 E11.74223
G1 X158.304 Y130.269 E11.76595
G1 X159.066 Y129.342 E11.7899
G1 X159.628 Y128.289 E11.81372
G1 X159.975 Y127.146 E11.83755
G1 X160.091 Y125.944 E11.86165
G1 X158.1 Y94.143 E12.49752
G1 X157.975 Y92.85 E12.52344
G1 X157.628 Y91.707 E12.54728
G1 X157.066 Y90.654 E12.5711
G1 X156.305 Y89.728 E12.59502
G1 X155.387 Y88.975 E12.61871
G1 X154.325 Y88.408 E12.64274
G1 X153.184 Y88.06 E12.66654
G1 X151.934 Y87.936 E12.69161
G1 X68.066 Y87.936 E14.36529
G1 X66.816 Y88.06 E14.39035
G1 X65.671 Y88.408 E14.41424
G1 X64.61 Y88.974 E14.43823
G1 X63.696 Y89.727 E14.46187
G1 X62.933 Y90.655 E14.48584
G1 X62.368 Y91.709 E14.50971
G1 X62.021 Y92.85 E14.53351
G1 X61.896 Y94.143 E14.55943
G1 X59.905 Y125.944 E15.1953
G1 X60.021 Y127.146 E15.21939
G1 X60.368 Y128.288 E15.24321
G1 X60.933 Y129.341 E15.26706
G1 X61.697 Y130.27 E15.29106
G1 X62.61 Y131.026 E15.31472
G1 X63.669 Y131.587 E15.33863
G1 X64.816 Y131.936 E15.36256
G1 X66.066 Y132.06 E15.38763
G1 X110 Y132.06 E16.26438
G0 F9000 X110 Y132.46
G1 F1800 X153.954 Y132.46 E17.14153
G1 X155.263 Y132.33 E17.16778
G1 X156.48 Y131.959 E17.19317
G1 X157.61 Y131.359 E17.2187
G1 X158.589 Y130.553 E17.24401
G1 X159.4 Y129.565 E17.26952
G1 X159.999 Y128.443 E17.2949
G1 X160.37 Y127.224 E17.32033
G1 X160.492 Y125.951 E17.34585
G1 X158.499 Y94.112 E17.98247
G1 X158.37 Y92.772 E18.00934
G1 X157.999 Y91.553 E18.03476
G1 X157.4 Y90.431 E18.06015
G1 X156.589 Y89.443 E18.08565
G1 X155.61 Y88.64 E18.11092
G1 X154.479 Y88.037 E18.1365
G1 X153.262 Y87.666 E18.16189
G1 X151.954 Y87.536 E18.18812
G1 X68.046 Y87.536 E19.8626
G1 X66.737 Y87.666 E19.88885
G1 X65.517 Y88.037 E19.91429
G1 X64.387 Y88.64 E19.93986
G1 X63.411 Y89.443 E19.96508
G1 X62.599 Y90.432 E19.99061
G1 X61.996 Y91.554 E20.01603
G1 X61.626 Y92.772 E20.04144
G1 X61.498 Y94.112 E20.0683
G1 X59.504 Y125.951 E20.70493
G1 X59.626 Y127.224 E20.73045
G1 X59.996 Y128.442 E20.75585
G1 X60.599 Y129.564 E20.78127
G1 X61.412 Y130.554 E20.80683
G1 X62.387 Y131.36 E20.83208
G1 X63.516 Y131.959 E20.85758
G1 X64.737 Y132.33 E20.88305
G1 X66.046 Y132.46 E20.9093
G1 X110 Y132.46 E21.78645
G0 F9000 X110 Y132.86
G1 F1800 X153.974 Y132.86 E22.664
G1 X155.341 Y132.724 E22.69141
G1 X156.633 Y132.33 E22.71837
G1 X157.833 Y131.694 E22.74547
G1 X158.873 Y130.837 E22.77236
G1 X159.734 Y129.789 E22.79943
G1 X160.37 Y128.597 E22.82639
G1 X160.764 Y127.302 E22.85341
G1 X160.894 Y125.957 E22.88037
G1 X158.897 Y94.08 E23.51776
G1 X158.764 Y92.694 E23.54555
G1 X158.371 Y91.399 E23.57255
G1 X157.734 Y90.207 E23.59952
G1 X156.873 Y89.159 E23.62659
G1 X155.833 Y88.306 E23.65343
G1 X154.633 Y87.665 E23.68058
G1 X153.341 Y87.272 E23.70753
G1 X151.974 Y87.136 E23.73495
G1 X68.026 Y87.136 E25.41022
G1 X66.658 Y87.272 E25.43765
G1 X65.363 Y87.665 E25.46466
G1 X64.164 Y88.306 E25.49179
G1 X63.127 Y89.159 E25.51859
G1 X62.265 Y90.208 E25.54569
G1 X61.625 Y91.4 E25.57268
G1 X61.232 Y92.694 E25.59967
G1 X61.099 Y94.08 E25.62746
G1 X59.102 Y125.957 E26.26485
G1 X59.232 Y127.302 E26.29181
G1 X59.625 Y128.596 E26.3188
G1 X60.265 Y129.788 E26.3458
G1 X61.127 Y130.838 E26.37291
G1 X62.164 Y131.694 E26.39974
G1 X63.362 Y132.33 E26.42681
G1 X64.658 Y132.724 E26.45384
G1 X66.026 Y132.86 E26.48128
G1 X110 Y132.86 E27.35883
G0 F9000 X110 Y133.26
;TYPE:WALL-OUTER
G1 F1800 X153.994 Y133.26 E28.23677
G1 X155.42 Y133.118 E28.26537
G1 X156.787 Y132.702 E28.29389
G1 X158.056 Y132.028 E28.32256
G1 X159.157 Y131.121 E28.35103
G1 X160.068 Y130.012 E28.37967
G1 X160.742 Y128.751 E28.4082
G1 X161.158 Y127.38 E28.4368
G1 X161.295 Y125.964 E28.46518
G1 X159.296 Y94.048 E29.10335
G1 X159.158 Y92.616 E29.13206
G1 X158.742 Y91.245 E29.16065
G1 X158.068 Y89.984 E29.18919
G1 X157.157 Y88.875 E29.21783
G1 X156.056 Y87.972 E29.24624
G1 X154.787 Y87.294 E29.27496
G1 X153.42 Y86.878 E29.30347
G1 X151.994 Y86.736 E29.33207
G1 X68.006 Y86.736 E31.00814
G1 X66.58 Y86.878 E31.03674
G1 X65.209 Y87.294 E31.06533
G1 X63.94 Y87.972 E31.09404
G1 X62.843 Y88.875 E31.1224
G1 X61.931 Y89.984 E31.15105
G1 X61.254 Y91.246 E31.17963
G1 X60.838 Y92.616 E31.2082
G1 X60.7 Y94.048 E31.23691
G1 X58.701 Y125.964 E31.87508
G1 X58.838 Y127.38 E31.90347
G1 X59.254 Y128.75 E31.93204
G1 X59.931 Y130.012 E31.96062
G1 X60.843 Y131.122 E31.98929
G1 X61.94 Y132.028 E32.01768
G1 X63.209 Y132.702 E32.04636
G1 X64.58 Y133.118 E32.07495
G1 X66.006 Y133.26 E32.10355
G1 X110 Y133.26 E32.98149
G0 F9000 X110 Y132.552
G0 X110 Y131.16
G0 X110 Y130.9
;TYPE:SKIN
G1 F1800 X66.119 Y130.9 E33.85719
G1 X65.044 Y130.79 E33.87875
G1 X64.113 Y130.51 E33.89815
G1 X63.252 Y130.052 E33.91761
G1 X62.523 Y129.45 E33.93648
G1 X61.9 Y128.688 E33.95612
G1 X61.446 Y127.842 E33.97528
G1 X61.162 Y126.912 E33.99469
G1 X61.069 Y125.928 E34.01441
G1 X63.052 Y94.228 E34.64826
G1 X63.162 Y93.08 E34.67127
G1 X63.446 Y92.15 E34.69068
G1 X63.896 Y91.312 E34.70966
G1 X64.523 Y90.543 E34.72946
G1 X65.252 Y89.948 E34.74824
G1 X66.118 Y89.482 E34.76786
G1 X67.044 Y89.202 E34.78717
G1 X68.118 Y89.096 E34.80871
G1 X151.878 Y89.096 E36.48023
G1 X152.952 Y89.202 E36.50176
G1 X153.875 Y89.482 E36.52101
G1 X154.74 Y89.944 E36.54058
G1 X155.478 Y90.551 E36.55965
G1 X156.097 Y91.3 E36.57904
G1 X156.55 Y92.149 E36.59825
G1 X156.83 Y93.079 E36.61763
G1 X156.94 Y94.228 E36.64066
G1 X158.923 Y125.928 E37.27451
G1 X158.83 Y126.917 E37.29433
G1 X158.55 Y127.838 E37.31354
G1 X158.089 Y128.7 E37.33305
G1 X157.477 Y129.442 E37.35224
G1 X156.74 Y130.052 E37.37133
G1 X155.879 Y130.51 E37.3908
G1 X154.952 Y130.79 E37.41012
G1 X153.877 Y130.9 E37.43169
G1 X110 Y130.9 E38.3073
G1 F2400 E37.5073
G0 F9000 X110 Y131.16
G0 X66.114 Y131.099
G0 X65.216 Y131.01
G0 X63.865 Y130.672
G0 X64.081 Y130.266
G1 F2400 E38.3073
G1 F1800 X61.692 Y127.877 E38.37472
G0 F9000 X61.406 Y127.025
G1 F1800 X64.927 Y130.546 E38.47409
G0 F9000 X65.591 Y130.645
G1 F1800 X61.311 Y126.365 E38.59488
G0 F9000 X61.279 Y125.767
G1 F1800 X66.211 Y130.699 E38.73407
G0 F9000 X66.777 Y130.699
G1 F1800 X61.313 Y125.235 E38.88828
G0 F9000 X61.346 Y124.703
G1 F1800 X67.343 Y130.699 E39.05751
G0 F9000 X67.908 Y130.699
G1 F1800 X61.38 Y124.171 E39.24175
G0 F9000 X61.413 Y123.638
G1 F1800 X68.474 Y130.699 E39.44103
G0 F9000 X69.04 Y130.699
G1 F1800 X61.446 Y123.106 E39.65533
G0 F9000 X61.479 Y122.573
G1 F1800 X69.605 Y130.699 E39.88466
G0 F9000 X70.171 Y130.699
G1 F1800 X61.513 Y122.041 E40.12901
G0 F9000 X61.546 Y121.509
G1 F1800 X70.737 Y130.699 E40.38839
G0 F9000 X71.303 Y130.699
G1 F1800 X61.579 Y120.976 E40.66281
G0 F9000 X61.612 Y120.444
G1 F1800 X71.868 Y130.699 E40.95224
G0 F9000 X72.434 Y130.699
G1 F1800 X61.646 Y119.911 E41.2567
G0 F9000 X61.679 Y119.379
G1 F1800 X73 Y130.699 E41.57619
G0 F9000 X73.565 Y130.699
G1 F1800 X61.713 Y118.847 E41.91068
G0 F9000 X61.746 Y118.315
G1 F1800 X74.131 Y130.699 E42.26019
G0 F9000 X74.697 Y130.699
G1 F1800 X61.779 Y117.782 E42.62475
G0 F9000 X61.812 Y117.25
G1 F1800 X75.262 Y130.699 E43.00433
G0 F9000 X75.828 Y130.699
G1 F1800 X61.846 Y116.717 E43.39893
G0 F9000 X61.879 Y116.185
G1 F1800 X76.394 Y130.699 E43.80856
G0 F9000 X76.959 Y130.699
G1 F1800 X61.912 Y115.652 E44.23322
G0 F9000 X61.945 Y115.12
G1 F1800 X77.525 Y130.699 E44.67291
G0 F9000 X78.091 Y130.699
G1 F1800 X61.979 Y114.587 E45.12762
G0 F9000 X62.012 Y114.055
G1 F1800 X78.656 Y130.699 E45.59735
G0 F9000 X79.222 Y130.699
G1 F1800 X62.045 Y113.522 E46.08212
G0 F9000 X62.078 Y112.99
G1 F1800 X79.788 Y130.699 E46.58192
G0 F9000 X80.353 Y130.699
G1 F1800 X62.112 Y112.458 E47.09672
G0 F9000 X62.145 Y111.926
G1 F1800 X80.919 Y130.699 E47.62655
G0 F9000 X81.485 Y130.699
G1 F1800 X62.179 Y111.393 E48.17141
G0 F9000 X62.212 Y110.861
G1 F1800 X82.051 Y130.699 E48.7313
G0 F9000 X82.616 Y130.699
G1 F1800 X62.245 Y110.328 E49.30621
G0 F9000 X62.278 Y109.796
G1 F1800 X83.182 Y130.699 E49.89615
G0 F9000 X83.748 Y130.699
G1 F1800 X62.312 Y109.264 E50.50111
G0 F9000 X62.345 Y108.731
G1 F1800 X84.313 Y130.699 E51.12109
G0 F9000 X84.879 Y130.699
G1 F1800 X62.378 Y108.199 E51.7561
G0 F9000 X62.411 Y107.666
G1 F1800 X85.445 Y130.699 E52.40616
G0 F9000 X86.01 Y130.699
G1 F1800 X62.445 Y107.134 E53.07121
G0 F9000 X62.479 Y106.602
G1 F1800 X86.576 Y130.699 E53.75128
G0 F9000 X87.142 Y130.699
G1 F1800 X62.512 Y106.07 E54.44638
G0 F9000 X62.545 Y105.537
G1 F1800 X87.707 Y130.699 E55.15651
G0 F9000 X88.273 Y130.699
G1 F1800 X62.578 Y105.005 E55.88166
G0 F9000 X62.611 Y104.472
G1 F1800 X88.839 Y130.699 E56.62186
G0 F9000 X89.404 Y130.699
G1 F1800 X62.645 Y103.94 E57.37706
G0 F9000 X62.678 Y103.407
G1 F1800 X89.97 Y130.699 E58.14729
G0 F9000 X90.536 Y130.699
G1 F1800 X62.711 Y102.875 E58.93256
G0 F9000 X62.744 Y102.342
G1 F1800 X91.102 Y130.699 E59.73287
G0 F9000 X91.667 Y130.699
G1 F1800 X62.778 Y101.81 E60.54818
G0 F9000 X62.811 Y101.277
G1 F1800 X92.233 Y130.699 E61.37853
G0 F9000 X92.799 Y130.699
G1 F1800 X62.844 Y100.745 E62.22392
G0 F9000 X62.878 Y100.213
G1 F1800 X93.364 Y130.699 E63.0843
G0 F9000 X93.93 Y130.699
G1 F1800 X62.911 Y99.681 E63.9597
G0 F9000 X62.945 Y99.148
G1 F1800 X94.496 Y130.699 E64.85014
G0 F9000 X95.061 Y130.699
G1 F1800 X62.978 Y98.616 E65.75559
G0 F9000 X63.011 Y98.083
G1 F1800 X95.627 Y130.699 E66.67609
G0 F9000 X96.193 Y130.699
G1 F1800 X63.044 Y97.551 E67.61161
G0 F9000 X63.077 Y97.019
G1 F1800 X96.758 Y130.699 E68.56215
G0 F9000 X97.324 Y130.699
G1 F1800 X63.111 Y96.486 E69.52771
G0 F9000 X63.144 Y95.954
G1 F1800 X97.89 Y130.699 E70.5083
G0 F9000 X98.455 Y130.699
G1 F1800 X63.177 Y95.421 E71.50393
G0 F9000 X63.21 Y94.889
G1 F1800 X99.021 Y130.699 E72.51458
G0 F9000 X99.587 Y130.699
G1 F1800 X63.244 Y94.356 E73.54025
G0 F9000 X63.29 Y93.837
G1 F1800 X100.152 Y130.699 E74.58058
G0 F9000 X100.718 Y130.699
G1 F1800 X63.34 Y93.321 E75.63547
G0 F9000 X63.439 Y92.855
G1 F1800 X101.284 Y130.699 E76.70352
G0 F9000 X101.85 Y130.699
G1 F1800 X63.572 Y92.422 E77.78379
G0 F9000 X63.74 Y92.024
G1 F1800 X102.415 Y130.699 E78.87529
G0 F9000 X102.981 Y130.699
G1 F1800 X63.937 Y91.656 E79.97718
G0 F9000 X64.156 Y91.309
G1 F1800 X103.547 Y130.699 E81.08886
G0 F9000 X104.112 Y130.699
G1 F1800 X64.41 Y90.997 E82.20934
G0 F9000 X64.664 Y90.686
G1 F1800 X104.678 Y130.699 E83.33861
G0 F9000 X105.244 Y130.699
G1 F1800 X64.976 Y90.432 E84.47504
G0 F9000 X65.288 Y90.178
G1 F1800 X105.809 Y130.699 E85.61863
G0 F9000 X106.375 Y130.699
G1 F1800 X65.641 Y89.966 E86.76822
G0 F9000 X66.01 Y89.769
G1 F1800 X106.941 Y130.699 E87.92337
G0 F9000 X107.506 Y130.699
G1 F1800 X66.41 Y89.603 E89.08319
G0 F9000 X66.844 Y89.472
G1 F1800 X108.072 Y130.699 E90.24671
G0 F9000 X108.638 Y130.699
G1 F1800 X67.314 Y89.376 E91.41295
G0 F9000 X67.83 Y89.326
G1 F1800 X109.203 Y130.699 E92.58059
G0 F9000 X109.769 Y130.699
G1 F1800 X68.366 Y89.296 E93.74907
G0 F9000 X68.932 Y89.296
G1 F1800 X110.335 Y130.699 E94.91755
G0 F9000 X110.901 Y130.699
G1 F1800 X69.497 Y89.296 E96.08605
G0 F9000 X70.063 Y89.296
G1 F1800 X111.466 Y130.699 E97.25453
G0 F9000 X112.032 Y130.699
G1 F1800 X70.629 Y89.296 E98.42301
G0 F9000 X71.194 Y89.296
G1 F1800 X112.598 Y130.699 E99.59151
G0 F9000 X113.163 Y130.699
G1 F1800 X71.76 Y89.296 E100.75999
G0 F9000 X72.326 Y89.296
G1 F1800 X113.729 Y130.699 E101.92847
G0 F9000 X114.295 Y130.699
G1 F1800 X72.891 Y89.296 E103.09697
G0 F9000 X73.457 Y89.296
G1 F1800 X114.86 Y130.699 E104.26545
G0 F9000 X115.426 Y130.699
G1 F1800 X74.023 Y89.296 E105.43393
G0 F9000 X74.588 Y89.296
G1 F1800 X115.992 Y130.699 E106.60243
G0 F9000 X116.557 Y130.699
G1 F1800 X75.154 Y89.296 E107.77091
G0 F9000 X75.72 Y89.296
G1 F1800 X117.123 Y130.699 E108.93939
G0 F9000 X117.689 Y130.699
G1 F1800 X76.286 Y89.296 E110.10788
G0 F9000 X76.851 Y89.296
G1 F1800 X118.254 Y130.699 E111.27636
G0 F9000 X118.82 Y130.699
G1 F1800 X77.417 Y89.296 E112.44484
G0 F9000 X77.983 Y89.296
G1 F1800 X119.386 Y130.699 E113.61332
G0 F9000 X119.951 Y130.699
G1 F1800 X78.548 Y89.296 E114.7818
G0 F9000 X79.114 Y89.296
G1 F1800 X120.517 Y130.699 E115.95029
G0 F9000 X121.083 Y130.699
G1 F1800 X79.68 Y89.296 E117.11877
G0 F9000 X80.245 Y89.296
G1 F1800 X121.649 Y130.699 E118.28726
G0 F9000 X122.214 Y130.699
G1 F1800 X80.811 Y89.296 E119.45575
G0 F9000 X81.377 Y89.296
G1 F1800 X122.78 Y130.699 E120.62423
G0 F9000 X123.346 Y130.699
G1 F1800 X81.942 Y89.296 E121.79273
G0 F9000 X82.508 Y89.296
G1 F1800 X123.911 Y130.699 E122.96121
G0 F9000 X124.477 Y130.699
G1 F1800 X83.074 Y89.296 E124.12969
G0 F9000 X83.639 Y89.296
G1 F1800 X125.043 Y130.699 E125.29819
G0 F9000 X125.608 Y130.699
G1 F1800 X84.205 Y89.296 E126.46667
G0 F9000 X84.771 Y89.296
G1 F1800 X126.174 Y130.699 E127.63515
G0 F9000 X126.74 Y130.699
G1 F1800 X85.336 Y89.296 E128.80365
G0 F9000 X85.902 Y89.296
G1 F1800 X127.305 Y130.699 E129.97213
G0 F9000 X127.871 Y130.699
G1 F1800 X86.468 Y89.296 E131.14061
G0 F9000 X87.034 Y89.296
G1 F1800 X128.437 Y130.699 E132.30909
G0 F9000 X129.002 Y130.699
G1 F1800 X87.599 Y89.296 E133.47757
G0 F9000 X88.165 Y89.296
