;FLAVOR:Marlin
;TIME:1977
;Filament used: 3.13345m
;Layer height: 0.2
;MINX:66.278
;MINY:86.164
;MINZ:0.2
;MAXX:164.74
;MAXY:136.628
;MAXZ:7.4
;TARGET_MACHINE.NAME:Creality Ender-3 V3 SE
;Generated with Cura_SteamEngine 5.9.0
M82 ;absolute extrusion mode
M220 S100 ;Reset Feedrate
M221 S100 ;Reset Flowrate

G28 ;Home

M420 S1; Use saved mesh leveling data

G92 E0 ;Reset Extruder
G1 Z2.0 F3000 ;Move Z Axis up
G1 X-3 Y20 Z0.28 F5000.0 ;Move to start position
M190 S65 ; Set bed temperature and wait
M109 S215.0 ; Set hotend temperature and wait
G1 X-3 Y100.0 Z0.28 F1500.0 E15 ;Draw the first line
G1 X-2 Y100.0 Z0.28 F5000.0 ;Move to side a little
G1 X-2 Y20 Z0.28 F1500.0 E30 ;Draw the second line
G92 E0 ;Reset Extruder
G1 E-1.0000 F1800 ;Retract a bit
G1 Z2.0 F3000 ;Move Z Axis up
G1 E0.0000 F1800 

G92 E0
G92 E0
G1 F2400 E-0.8
;LAYER_COUNT:37
;LAYER:0
M107
;MESH:lifelike-powerloc-straight-joiner.stl
G0 F11100 X114.624 Y135.828 Z0.2
;TYPE:WALL-INNER
G1 F2400 E0
G1 F1500 X163.94 Y135.828 E1.64026
G1 X163.94 Y87.828 E3.23674
G1 X67.94 Y87.828 E6.42972
G1 X67.94 Y135.828 E8.0262
G1 X114.624 Y135.828 E9.57892
G0 F11100 X114.602 Y136.228
G1 F1500 X164.34 Y136.228 E11.23321
G1 X164.34 Y87.428 E12.85631
G1 X67.54 Y87.428 E16.07589
G1 X67.54 Y136.228 E17.69898
G1 X114.602 Y136.228 E19.26427
G0 F11100 X114.581 Y136.628
;TYPE:WALL-OUTER
G1 F1500 X164.74 Y136.628 E20.93257
G1 X164.74 Y87.028 E22.58227
G1 X67.14 Y87.028 E25.82846
G1 X67.14 Y136.628 E27.47816
G1 X114.581 Y136.628 E29.05605
G0 F11100 X114.581 Y135.919
G0 X114.644 Y135.468
;TYPE:SKIN
G1 F1500 X68.3 Y135.468 E30.59746
G1 X68.3 Y88.188 E32.17
G1 X163.58 Y88.188 E35.33903
G1 X163.58 Y135.468 E36.91157
G1 X114.644 Y135.468 E38.53918
G1 F2400 E37.73918
G0 F11100 X114.644 Y135.728
G0 X68.112 Y135.656
G0 X68.04 Y134.685
G0 X68.5 Y134.685
G1 F2400 E38.53918
G1 F1500 X69.083 Y135.268 E38.56661
G0 F11100 X69.649 Y135.268
G1 F1500 X68.5 Y134.12 E38.62063
G0 F11100 X68.5 Y133.554
G1 F1500 X70.214 Y135.268 E38.70125
G0 F11100 X70.78 Y135.268
G1 F1500 X68.5 Y132.988 E38.80849
G0 F11100 X68.5 Y132.423
G1 F1500 X71.346 Y135.268 E38.94234
G0 F11100 X71.911 Y135.268
G1 F1500 X68.5 Y131.857 E39.10278
G0 F11100 X68.5 Y131.291
G1 F1500 X72.477 Y135.268 E39.28985
G0 F11100 X73.043 Y135.268
G1 F1500 X68.5 Y130.726 E39.50351
G0 F11100 X68.5 Y130.16
G1 F1500 X73.608 Y135.268 E39.74378
G0 F11100 X74.174 Y135.268
G1 F1500 X68.5 Y129.594 E40.01066
G0 F11100 X68.5 Y129.029
G1 F1500 X74.74 Y135.268 E40.30415
G0 F11100 X75.305 Y135.268
G1 F1500 X68.5 Y128.463 E40.62424
G0 F11100 X68.5 Y127.897
G1 F1500 X75.871 Y135.268 E40.97095
G0 F11100 X76.437 Y135.268
G1 F1500 X68.5 Y127.332 E41.34425
G0 F11100 X68.5 Y126.766
G1 F1500 X77.003 Y135.268 E41.74419
G0 F11100 X77.568 Y135.268
G1 F1500 X68.5 Y126.2 E42.17072
G0 F11100 X68.5 Y125.634
G1 F1500 X78.134 Y135.268 E42.62387
G0 F11100 X78.7 Y135.268
G1 F1500 X68.5 Y125.069 E43.10362
G0 F11100 X68.5 Y124.503
G1 F1500 X79.265 Y135.268 E43.60998
G0 F11100 X79.831 Y135.268
G1 F1500 X68.5 Y123.937 E44.14295
G0 F11100 X68.5 Y123.372
G1 F1500 X80.397 Y135.268 E44.70253
G0 F11100 X80.962 Y135.268
G1 F1500 X68.5 Y122.806 E45.2887
G0 F11100 X68.5 Y122.24
G1 F1500 X81.528 Y135.268 E45.9015
G0 F11100 X82.094 Y135.268
G1 F1500 X68.5 Y121.675 E46.5409
G0 F11100 X68.5 Y121.109
G1 F1500 X82.659 Y135.268 E47.20689
G0 F11100 X83.225 Y135.268
G1 F1500 X68.5 Y120.543 E47.89951
G0 F11100 X68.5 Y119.978
G1 F1500 X83.791 Y135.268 E48.61873
G0 F11100 X84.356 Y135.268
G1 F1500 X68.5 Y119.412 E49.36455
G0 F11100 X68.5 Y118.846
G1 F1500 X84.922 Y135.268 E50.13699
G0 F11100 X85.488 Y135.268
G1 F1500 X68.5 Y118.281 E50.93603
G0 F11100 X68.5 Y117.715
G1 F1500 X86.053 Y135.268 E51.76167
G0 F11100 X86.619 Y135.268
G1 F1500 X68.5 Y117.149 E52.61393
G0 F11100 X68.5 Y116.584
G1 F1500 X87.185 Y135.268 E53.49279
G0 F11100 X87.751 Y135.268
G1 F1500 X68.5 Y116.018 E54.39827
G0 F11100 X68.5 Y115.452
G1 F1500 X88.316 Y135.268 E55.33036
G0 F11100 X88.882 Y135.268
G1 F1500 X68.5 Y114.886 E56.28906
G0 F11100 X68.5 Y114.321
G1 F1500 X89.448 Y135.268 E57.27437
G0 F11100 X90.013 Y135.268
G1 F1500 X68.5 Y113.755 E58.28628
G0 F11100 X68.5 Y113.189
G1 F1500 X90.579 Y135.268 E59.3248
G0 F11100 X91.145 Y135.268
G1 F1500 X68.5 Y112.624 E60.38993
G0 F11100 X68.5 Y112.058
G1 F1500 X91.71 Y135.268 E61.48166
G0 F11100 X92.276 Y135.268
G1 F1500 X68.5 Y111.492 E62.60001
G0 F11100 X68.5 Y110.927
G1 F1500 X92.842 Y135.268 E63.74496
G0 F11100 X93.407 Y135.268
G1 F1500 X68.5 Y110.361 E64.91651
G0 F11100 X68.5 Y109.795
G1 F1500 X93.973 Y135.268 E66.11468
G0 F11100 X94.539 Y135.268
G1 F1500 X68.5 Y109.23 E67.33945
G0 F11100 X68.5 Y108.664
G1 F1500 X95.104 Y135.268 E68.59082
G0 F11100 X95.67 Y135.268
G1 F1500 X68.5 Y108.098 E69.86882
G0 F11100 X68.5 Y107.533
G1 F1500 X96.236 Y135.268 E71.17341
G0 F11100 X96.802 Y135.268
G1 F1500 X68.5 Y106.967 E72.50462
G0 F11100 X68.5 Y106.401
G1 F1500 X97.367 Y135.268 E73.86244
G0 F11100 X97.933 Y135.268
G1 F1500 X68.5 Y105.836 E75.24685
G0 F11100 X68.5 Y105.27
G1 F1500 X98.499 Y135.268 E76.65789
G0 F11100 X99.064 Y135.268
G1 F1500 X68.5 Y104.704 E78.09553
G0 F11100 X68.5 Y104.138
G1 F1500 X99.63 Y135.268 E79.55979
G0 F11100 X100.196 Y135.268
G1 F1500 X68.5 Y103.573 E81.05065
G0 F11100 X68.5 Y103.007
G1 F1500 X100.761 Y135.268 E82.56811
G0 F11100 X101.327 Y135.268
G1 F1500 X68.5 Y102.441 E84.11219
G0 F11100 X68.5 Y101.876
G1 F1500 X101.893 Y135.268 E85.68287
G0 F11100 X102.458 Y135.268
G1 F1500 X68.5 Y101.31 E87.28015
G0 F11100 X68.5 Y100.744
G1 F1500 X103.024 Y135.268 E88.90405
G0 F11100 X103.59 Y135.268
G1 F1500 X68.5 Y100.179 E90.55455
G0 F11100 X68.5 Y99.613
G1 F1500 X104.155 Y135.268 E92.23166
G0 F11100 X104.721 Y135.268
G1 F1500 X68.5 Y99.047 E93.93538
G0 F11100 X68.5 Y98.482
G1 F1500 X105.287 Y135.268 E95.6657
G0 F11100 X105.852 Y135.268
G1 F1500 X68.5 Y97.916 E97.42263
G0 F11100 X68.5 Y97.35
G1 F1500 X106.418 Y135.268 E99.20617
G0 F11100 X106.984 Y135.268
G1 F1500 X68.5 Y96.785 E101.01632
G0 F11100 X68.5 Y96.219
G1 F1500 X107.55 Y135.268 E102.85309
G0 F11100 X108.115 Y135.268
G1 F1500 X68.5 Y95.653 E104.71646
G0 F11100 X68.5 Y95.087
G1 F1500 X108.681 Y135.268 E106.60645
G0 F11100 X109.247 Y135.268
G1 F1500 X68.5 Y94.522 E108.52304
G0 F11100 X68.5 Y93.956
G1 F1500 X109.812 Y135.268 E110.46623
G0 F11100 X110.378 Y135.268
G1 F1500 X68.5 Y93.39 E112.43604
G0 F11100 X68.5 Y92.825
G1 F1500 X110.944 Y135.268 E114.43245
G0 F11100 X111.509 Y135.268
G1 F1500 X68.5 Y92.259 E116.45547
G0 F11100 X68.5 Y91.693
G1 F1500 X112.075 Y135.268 E118.5051
G0 F11100 X112.641 Y135.268
G1 F1500 X68.5 Y91.128 E120.58133
G0 F11100 X68.5 Y90.562
G1 F1500 X113.206 Y135.268 E122.68417
G0 F11100 X113.772 Y135.268
G1 F1500 X68.5 Y89.996 E124.81362
G0 F11100 X68.5 Y89.431
G1 F1500 X114.338 Y135.268 E126.96968
G0 F11100 X114.903 Y135.268
G1 F1500 X68.5 Y88.865 E129.15233
G0 F11100 X68.589 Y88.388
G1 F1500 X115.469 Y135.268 E131.35742
G0 F11100 X116.035 Y135.268
G1 F1500 X69.155 Y88.388 E133.56252
G0 F11100 X69.721 Y88.388
G1 F1500 X116.6 Y135.268 E135.76758
G0 F11100 X117.166 Y135.268
G1 F1500 X70.286 Y88.388 E137.97268
G0 F11100 X70.852 Y88.388
G1 F1500 X117.732 Y135.268 E140.17777
G0 F11100 X118.298 Y135.268
G1 F1500 X71.418 Y88.388 E142.38286
G0 F11100 X71.983 Y88.388
G1 F1500 X118.863 Y135.268 E144.58795
G0 F11100 X119.429 Y135.268
G1 F1500 X72.549 Y88.388 E146.79304
G0 F11100 X73.115 Y88.388
G1 F1500 X119.995 Y135.268 E148.99813
G0 F11100 X120.56 Y135.268
G1 F1500 X73.681 Y88.388 E151.2032
G0 F11100 X74.246 Y88.388
G1 F1500 X121.126 Y135.268 E153.40829
G0 F11100 X121.692 Y135.268
G1 F1500 X74.812 Y88.388 E155.61338
G0 F11100 X75.378 Y88.388
G1 F1500 X122.257 Y135.268 E157.81845
G0 F11100 X122.823 Y135.268
G1 F1500 X75.943 Y88.388 E160.02354
G0 F11100 X76.509 Y88.388
G1 F1500 X123.389 Y135.268 E162.22863
G0 F11100 X123.954 Y135.268
G1 F1500 X77.075 Y88.388 E164.4337
G0 F11100 X77.64 Y88.388
G1 F1500 X124.52 Y135.268 E166.63879
G0 F11100 X125.086 Y135.268
G1 F1500 X78.206 Y88.388 E168.84389
G0 F11100 X78.772 Y88.388
G1 F1500 X125.651 Y135.268 E171.04895
G0 F11100 X126.217 Y135.268
G1 F1500 X79.337 Y88.388 E173.25404
G0 F11100 X79.903 Y88.388
G1 F1500 X126.783 Y135.268 E175.45914
G0 F11100 X127.349 Y135.268
G1 F1500 X80.469 Y88.388 E177.66423
G0 F11100 X81.034 Y88.388
G1 F1500 X127.914 Y135.268 E179.86932
G0 F11100 X128.48 Y135.268
G1 F1500 X81.6 Y88.388 E182.07441
G0 F11100 X82.166 Y88.388
G1 F1500 X129.046 Y135.268 E184.2795
G0 F11100 X129.611 Y135.268
G1 F1500 X82.731 Y88.388 E186.48459
G0 F11100 X83.297 Y88.388
G1 F1500 X130.177 Y135.268 E188.68969
G0 F11100 X130.743 Y135.268
G1 F1500 X83.863 Y88.388 E190.89478
G0 F11100 X84.429 Y88.388
G1 F1500 X131.308 Y135.268 E193.09984
G0 F11100 X131.874 Y135.268
G1 F1500 X84.994 Y88.388 E195.30494
G0 F11100 X85.56 Y88.388
G1 F1500 X132.44 Y135.268 E197.51003
G0 F11100 X133.005 Y135.268
G1 F1500 X86.126 Y88.388 E199.7151
G0 F11100 X86.691 Y88.388
G1 F1500 X133.571 Y135.268 E201.92019
G0 F11100 X134.137 Y135.268
G1 F1500 X87.257 Y88.388 E204.12528
G0 F11100 X87.823 Y88.388
G1 F1500 X134.702 Y135.268 E206.33035
G0 F11100 X135.268 Y135.268
G1 F1500 X88.388 Y88.388 E208.53544
G0 F11100 X88.954 Y88.388
G1 F1500 X135.834 Y135.268 E210.74053
G0 F11100 X136.399 Y135.268
G1 F1500 X89.52 Y88.388 E212.9456
G0 F11100 X90.085 Y88.388
G1 F1500 X136.965 Y135.268 E215.15069
G0 F11100 X137.531 Y135.268
G1 F1500 X90.651 Y88.388 E217.35578
G0 F11100 X91.217 Y88.388
G1 F1500 X138.097 Y135.268 E219.56087
G0 F11100 X138.662 Y135.268
G1 F1500 X91.782 Y88.388 E221.76596
G0 F11100 X92.348 Y88.388
G1 F1500 X139.228 Y135.268 E223.97105
G0 F11100 X139.794 Y135.268
G1 F1500 X92.914 Y88.388 E226.17615
G0 F11100 X93.48 Y88.388
G1 F1500 X140.359 Y135.268 E228.38121
G0 F11100 X140.925 Y135.268
G1 F1500 X94.045 Y88.388 E230.58631
G0 F11100 X94.611 Y88.388
G1 F1500 X141.491 Y135.268 E232.7914
G0 F11100 X142.056 Y135.268
G1 F1500 X95.177 Y88.388 E234.99646
G0 F11100 X95.742 Y88.388
G1 F1500 X142.622 Y135.268 E237.20156
G0 F11100 X143.188 Y135.268
G1 F1500 X96.308 Y88.388 E239.40665
G0 F11100 X96.874 Y88.388
G1 F1500 X143.753 Y135.268 E241.61172
G0 F11100 X144.319 Y135.268
G1 F1500 X97.439 Y88.388 E243.81681
G0 F11100 X98.005 Y88.388
G1 F1500 X144.885 Y135.268 E246.0219
G0 F11100 X145.45 Y135.268
G1 F1500 X98.571 Y88.388 E248.22697
G0 F11100 X99.136 Y88.388
G1 F1500 X146.016 Y135.268 E250.43206
G0 F11100 X146.582 Y135.268
G1 F1500 X99.702 Y88.388 E252.63715
G0 F11100 X100.268 Y88.388
G1 F1500 X147.148 Y135.268 E254.84224
G0 F11100 X147.713 Y135.268
G1 F1500 X100.833 Y88.388 E257.04733
G0 F11100 X101.399 Y88.388
G1 F1500 X148.279 Y135.268 E259.25242
G0 F11100 X148.845 Y135.268
G1 F1500 X101.965 Y88.388 E261.45752
G0 F11100 X102.53 Y88.388
G1 F1500 X149.41 Y135.268 E263.66261
G0 F11100 X149.976 Y135.268
G1 F1500 X103.096 Y88.388 E265.8677
G0 F11100 X103.662 Y88.388
G1 F1500 X150.542 Y135.268 E268.07279
G0 F11100 X151.107 Y135.268
G1 F1500 X104.228 Y88.388 E270.27786
G0 F11100 X104.793 Y88.388
G1 F1500 X151.673 Y135.268 E272.48295
G0 F11100 X152.239 Y135.268
G1 F1500 X105.359 Y88.388 E274.68804
G0 F11100 X105.925 Y88.388
G1 F1500 X152.804 Y135.268 E276.89311
G0 F11100 X153.37 Y135.268
G1 F1500 X106.49 Y88.388 E279.0982
G0 F11100 X107.056 Y88.388
G1 F1500 X153.936 Y135.268 E281.30329
G0 F11100 X154.501 Y135.268
G1 F1500 X107.622 Y88.388 E283.50836
G0 F11100 X108.187 Y88.388
G1 F1500 X155.067 Y135.268 E285.71345
G0 F11100 X155.633 Y135.268
G1 F1500 X108.753 Y88.388 E287.91854
G0 F11100 X109.319 Y88.388
G1 F1500 X156.198 Y135.268 E290.12361
G0 F11100 X156.764 Y135.268
G1 F1500 X109.884 Y88.388 E292.3287
G0 F11100 X110.45 Y88.388
G1 F1500 X157.33 Y135.268 E294.53379
G0 F11100 X157.896 Y135.268
G1 F1500 X111.016 Y88.388 E296.73888
G0 F11100 X111.581 Y88.388
G1 F1500 X158.461 Y135.268 E298.94398
G0 F11100 X159.027 Y135.268
G1 F1500 X112.147 Y88.388 E301.14907
G0 F11100 X112.713 Y88.388
G1 F1500 X159.593 Y135.268 E303.35416
G0 F11100 X160.158 Y135.268
G1 F1500 X113.279 Y88.388 E305.55923
G0 F11100 X113.844 Y88.388
G1 F1500 X160.724 Y135.268 E307.76432
G0 F11100 X161.29 Y135.268
G1 F1500 X114.41 Y88.388 E309.96941
G0 F11100 X114.976 Y88.388
G1 F1500 X161.855 Y135.268 E312.17448
G0 F11100 X162.421 Y135.268
G1 F1500 X115.541 Y88.388 E314.37957
G0 F11100 X116.107 Y88.388
G1 F1500 X162.987 Y135.268 E316.58466
G0 F11100 X163.38 Y135.096
G1 F1500 X116.673 Y88.388 E318.78164
G0 F11100 X117.238 Y88.388
G1 F1500 X163.38 Y134.53 E320.95202
G0 F11100 X163.38 Y133.964
G1 F1500 X117.804 Y88.388 E323.09577
G0 F11100 X118.37 Y88.388
G1 F1500 X163.38 Y133.399 E325.21293
G0 F11100 X163.38 Y132.833
G1 F1500 X118.935 Y88.388 E327.30348
G0 F11100 X119.501 Y88.388
G1 F1500 X163.38 Y132.267 E329.36742
G0 F11100 X163.38 Y131.701
G1 F1500 X120.067 Y88.388 E331.40473
G0 F11100 X120.632 Y88.388
G1 F1500 X163.38 Y131.136 E333.41546
G0 F11100 X163.38 Y130.57
G1 F1500 X121.198 Y88.388 E335.39958
G0 F11100 X121.764 Y88.388
G1 F1500 X163.38 Y130.004 E337.35706
G0 F11100 X163.38 Y129.439
G1 F1500 X122.329 Y88.388 E339.28798
G0 F11100 X122.895 Y88.388
G1 F1500 X163.38 Y128.873 E341.19227
G0 F11100 X163.38 Y128.307
G1 F1500 X123.461 Y88.388 E343.06994
G0 F11100 X124.027 Y88.388
G1 F1500 X163.38 Y127.742 E344.921
G0 F11100 X163.38 Y127.176
G1 F1500 X124.592 Y88.388 E346.74547
G0 F11100 X125.158 Y88.388
G1 F1500 X163.38 Y126.61 E348.54332
G0 F11100 X163.38 Y126.045
G1 F1500 X125.724 Y88.388 E350.31456
G0 F11100 X126.289 Y88.388
G1 F1500 X163.38 Y125.479 E352.05921
G0 F11100 X163.38 Y124.913
G1 F1500 X126.855 Y88.388 E353.77724
G0 F11100 X127.421 Y88.388
G1 F1500 X163.38 Y124.348 E355.46866
G0 F11100 X163.38 Y123.782
G1 F1500 X127.986 Y88.388 E357.13348
G0 F11100 X128.552 Y88.388
G1 F1500 X163.38 Y123.216 E358.77169
G0 F11100 X163.38 Y122.65
G1 F1500 X129.118 Y88.388 E360.38327
G0 F11100 X129.683 Y88.388
G1 F1500 X163.38 Y122.085 E361.96827
G0 F11100 X163.38 Y121.519
G1 F1500 X130.249 Y88.388 E363.52665
G0 F11100 X130.815 Y88.388
G1 F1500 X163.38 Y120.953 E365.05841
G0 F11100 X163.38 Y120.388
G1 F1500 X131.38 Y88.388 E366.56359
G0 F11100 X131.946 Y88.388
G1 F1500 X163.38 Y119.822 E368.04215
G0 F11100 X163.38 Y119.256
G1 F1500 X132.512 Y88.388 E369.49409
G0 F11100 X133.077 Y88.388
G1 F1500 X163.38 Y118.691 E370.91945
G0 F11100 X163.38 Y118.125
G1 F1500 X133.643 Y88.388 E372.31818
G0 F11100 X134.209 Y88.388
G1 F1500 X163.38 Y117.559 E373.6903
G0 F11100 X163.38 Y116.994
G1 F1500 X134.775 Y88.388 E375.03581
G0 F11100 X135.34 Y88.388
G1 F1500 X163.38 Y116.428 E376.35473
G0 F11100 X163.38 Y115.862
G1 F1500 X135.906 Y88.388 E377.64702
G0 F11100 X136.472 Y88.388
G1 F1500 X163.38 Y115.297 E378.91271
G0 F11100 X163.38 Y114.731
G1 F1500 X137.037 Y88.388 E380.15181
G0 F11100 X137.603 Y88.388
G1 F1500 X163.38 Y114.165 E381.36428
G0 F11100 X163.38 Y113.6
G1 F1500 X138.169 Y88.388 E382.55015
G0 F11100 X138.734 Y88.388
G1 F1500 X163.38 Y113.034 E383.70942
G0 F11100 X163.38 Y112.468
G1 F1500 X139.3 Y88.388 E384.84207
G0 F11100 X139.866 Y88.388
G1 F1500 X163.38 Y111.902 E385.9481
G0 F11100 X163.38 Y111.337
G1 F1500 X140.431 Y88.388 E387.02755
G0 F11100 X140.997 Y88.388
G1 F1500 X163.38 Y110.771 E388.08038
G0 F11100 X163.38 Y110.205
G1 F1500 X141.563 Y88.388 E389.10658
G0 F11100 X142.128 Y88.388
G1 F1500 X163.38 Y109.64 E390.10621
G0 F11100 X163.38 Y109.074
G1 F1500 X142.694 Y88.388 E391.07922
G0 F11100 X143.26 Y88.388
G1 F1500 X163.38 Y108.508 E392.0256
G0 F11100 X163.38 Y107.943
G1 F1500 X143.826 Y88.388 E392.94538
G0 F11100 X144.391 Y88.388
G1 F1500 X163.38 Y107.377 E393.83857
G0 F11100 X163.38 Y106.811
G1 F1500 X144.957 Y88.388 E394.70513
G0 F11100 X145.523 Y88.388
G1 F1500 X163.38 Y106.246 E395.54509
G0 F11100 X163.38 Y105.68
G1 F1500 X146.088 Y88.388 E396.35845
G0 F11100 X146.654 Y88.388
G1 F1500 X163.38 Y105.114 E397.14519
G0 F11100 X163.38 Y104.549
G1 F1500 X147.22 Y88.388 E397.90533
G0 F11100 X147.785 Y88.388
G1 F1500 X163.38 Y103.983 E398.63888
G0 F11100 X163.38 Y103.417
G1 F1500 X148.351 Y88.388 E399.34579
G0 F11100 X148.917 Y88.388
G1 F1500 X163.38 Y102.852 E400.02611
G0 F11100 X163.38 Y102.286
G1 F1500 X149.482 Y88.388 E400.67983
