;FLAVOR:Marlin
;TIME:7300
;Filament used: 6.85293m
;Layer height: 0.2
;MINX:51.02
;MINY:74.02
;MINZ:0.2
;MAXX:168.98
;MAXY:145.98
;MAXZ:14.8
;TARGET_MACHINE.NAME:Creality Ender-3 V3 SE
;Generated with Cura_SteamEngine 5.9.0
M82 ;absolute extrusion mode
M220 S100 ;Reset Feedrate
M221 S100 ;Reset Flowrate

G28 ;Home

M420 S1; Use saved mesh leveling data

G92 E0 ;Reset Extruder
G1 Z2.0 F3000 ;Move Z Axis up
G1 X-3 Y20 Z0.28 F5000.0 ;Move to start position
M190 S65 ; Set bed temperature and wait
M109 S205.0 ; Set hotend temperature and wait
G1 X-3 Y100.0 Z0.28 F1500.0 E15 ;Draw the first line
G1 X-2 Y100.0 Z0.28 F5000.0 ;Move to side a little
G1 X-2 Y20 Z0.28 F1500.0 E30 ;Draw the second line
G92 E0 ;Reset Extruder
G1 E-1.0000 F1800 ;Retract a bit
G1 Z2.0 F3000 ;Move Z Axis up
G1 E0.0000 F1800 

G92 E0
G92 E0
G1 F2400 E-0.8
;LAYER_COUNT:74
;LAYER:0
M107
M204 S500
M205 X8 Y8
G0 F3000 X77.452 Y111.734 Z0.2
;TYPE:SKIRT
G1 F2400 E0
G1 F900 X67.677 Y106.753 E0.47436
G1 X60.9 Y105.672 E0.77109
G1 X58.44 Y105.151 E0.87982
G1 X57.348 Y104.774 E0.92977
G1 X54.833 Y103.066 E1.06122
G1 X53.896 Y102.253 E1.11486
G1 X52.122 Y99.537 E1.25512
G1 X51.653 Y98.548 E1.30245
G1 X51.02 Y95.329 E1.4443
G1 X51.025 Y84.367 E1.91828
G1 X51.659 Y81.375 E2.05052
G1 X52.02 Y80.343 E2.09779
G1 X53.725 Y77.833 E2.22899
G1 X54.546 Y76.888 E2.28312
G1 X57.214 Y75.148 E2.42084
G1 X58.234 Y74.653 E2.46986
G1 X61.463 Y74.02 E2.61214
G1 X158.559 Y74.02 E6.81039
G1 X161.602 Y74.654 E6.94479
G1 X162.644 Y75.011 E6.99241
G1 X165.167 Y76.725 E7.1243
G1 X166.112 Y77.546 E7.17842
G1 X167.852 Y80.214 E7.31615
G1 X168.347 Y81.234 E7.36517
G1 X168.98 Y84.463 E7.50744
G1 X168.975 Y95.423 E7.98133
G1 X168.421 Y98.129 E8.10076
G1 X167.988 Y99.439 E8.16042
G1 X166.276 Y101.959 E8.29214
G1 X165.464 Y102.894 E8.34569
G1 X162.907 Y104.577 E8.47805
G1 X161.798 Y105.133 E8.53169
G1 X158.932 Y105.703 E8.65804
G1 X152.33 Y106.746 E8.94704
G1 X142.548 Y111.734 E9.4218
G1 X134.734 Y119.548 E9.89962
G1 X129.753 Y129.323 E10.37398
G1 X128.672 Y136.1 E10.67071
G1 X128.151 Y138.56 E10.77943
G1 X127.774 Y139.652 E10.82938
G1 X126.066 Y142.167 E10.96083
G1 X125.253 Y143.104 E11.01447
G1 X122.537 Y144.878 E11.15474
G1 X121.548 Y145.347 E11.20207
G1 X118.329 Y145.98 E11.34391
G1 X101.577 Y145.975 E12.06824
G1 X98.871 Y145.421 E12.18767
G1 X97.561 Y144.988 E12.24733
G1 X95.041 Y143.276 E12.37905
G1 X94.106 Y142.464 E12.4326
G1 X92.423 Y139.907 E12.56496
G1 X91.867 Y138.798 E12.6186
G1 X91.297 Y135.932 E12.74494
G1 X90.254 Y129.33 E13.03394
G1 X85.266 Y119.548 E13.50871
G1 X77.452 Y111.734 E13.98652
G0 F3000 X77.763 Y111.309
G1 F900 X67.837 Y106.251 E14.46821
G1 X61.008 Y105.163 E14.76721
G1 X58.548 Y104.642 E14.87594
G1 X57.581 Y104.304 E14.92023
G1 X55.174 Y102.673 E15.04595
G1 X54.291 Y101.907 E15.09649
G1 X52.592 Y99.314 E15.23053
G1 X52.15 Y98.382 E15.27513
G1 X51.54 Y95.28 E15.41182
G1 X51.545 Y84.422 E15.8813
G1 X52.15 Y81.547 E16.00834
G1 X52.488 Y80.58 E16.05263
G1 X54.118 Y78.174 E16.17828
G1 X54.891 Y77.284 E16.22925
G1 X57.498 Y75.584 E16.36382
G1 X58.402 Y75.15 E16.40718
G1 X61.512 Y74.54 E16.54422
G1 X158.507 Y74.54 E20.7381
G1 X161.433 Y75.146 E20.8673
G1 X162.411 Y75.481 E20.912
G1 X164.826 Y77.118 E21.03815
G1 X165.716 Y77.891 E21.08912
G1 X167.416 Y80.498 E21.22369
G1 X167.85 Y81.402 E21.26705
G1 X168.46 Y84.512 E21.40408
G1 X168.455 Y95.368 E21.87348
G1 X167.927 Y97.966 E21.98811
G1 X167.516 Y99.208 E22.04467
G1 X165.883 Y101.618 E22.17054
G1 X165.117 Y102.5 E22.22105
G1 X162.674 Y104.112 E22.34761
G1 X161.627 Y104.637 E22.39825
G1 X158.851 Y105.189 E22.52063
G1 X152.169 Y106.245 E22.81313
G1 X142.237 Y111.309 E23.29517
G1 X134.309 Y119.237 E23.77996
G1 X129.251 Y129.163 E24.26165
G1 X128.163 Y135.992 E24.56064
G1 X127.642 Y138.452 E24.66937
G1 X127.304 Y139.419 E24.71366
G1 X125.673 Y141.826 E24.83938
G1 X124.907 Y142.709 E24.88992
G1 X122.314 Y144.408 E25.02396
G1 X121.382 Y144.85 E25.06856
G1 X118.28 Y145.46 E25.20526
G1 X101.632 Y145.455 E25.92508
G1 X99.034 Y144.927 E26.03971
G1 X97.792 Y144.516 E26.09628
G1 X95.382 Y142.883 E26.22215
G1 X94.5 Y142.117 E26.27266
G1 X92.888 Y139.674 E26.39922
G1 X92.363 Y138.627 E26.44986
G1 X91.811 Y135.851 E26.57224
G1 X90.755 Y129.169 E26.86474
G1 X85.691 Y119.237 E27.34678
G1 X77.763 Y111.309 E27.83156
G0 F3000 X78.074 Y110.884
G1 F900 X67.997 Y105.75 E28.32056
G1 X61.09 Y104.649 E28.62298
G1 X58.72 Y104.151 E28.72769
G1 X57.816 Y103.835 E28.7691
G1 X55.515 Y102.28 E28.88918
G1 X54.686 Y101.561 E28.93663
G1 X53.027 Y99.029 E29.06751
G1 X52.647 Y98.217 E29.10628
G1 X52.06 Y95.231 E29.23786
G1 X52.065 Y84.476 E29.70288
G1 X52.641 Y81.719 E29.82467
G1 X52.957 Y80.815 E29.86607
G1 X54.511 Y78.515 E29.98609
G1 X55.237 Y77.679 E30.03397
G1 X57.723 Y76.053 E30.16241
G1 X58.569 Y75.647 E30.20298
G1 X61.561 Y75.06 E30.33482
G1 X158.455 Y75.06 E34.52433
G1 X161.264 Y75.638 E34.64834
G1 X162.177 Y75.951 E34.69007
G1 X164.485 Y77.511 E34.81052
G1 X165.321 Y78.237 E34.85839
G1 X166.947 Y80.723 E34.98683
G1 X167.353 Y81.569 E35.02741
G1 X167.94 Y84.561 E35.15924
G1 X167.935 Y95.313 E35.62414
G1 X167.417 Y97.862 E35.73661
G1 X167.045 Y98.976 E35.78739
G1 X165.49 Y101.277 E35.90747
G1 X164.771 Y102.105 E35.95488
G1 X162.441 Y103.647 E36.07569
G1 X161.456 Y104.141 E36.12334
G1 X158.77 Y104.675 E36.24175
G1 X152.008 Y105.744 E36.53776
G1 X141.926 Y110.884 E37.02707
G1 X133.884 Y118.926 E37.51882
G1 X128.75 Y129.003 E38.00782
G1 X127.649 Y135.91 E38.31024
G1 X127.151 Y138.28 E38.41495
G1 X126.835 Y139.184 E38.45635
G1 X125.28 Y141.485 E38.57643
G1 X124.561 Y142.314 E38.62388
G1 X122.029 Y143.973 E38.75477
G1 X121.217 Y144.353 E38.79353
G1 X118.231 Y144.94 E38.92511
G1 X101.687 Y144.935 E39.64044
G1 X99.138 Y144.417 E39.75291
G1 X98.024 Y144.045 E39.80369
G1 X95.723 Y142.49 E39.92377
G1 X94.895 Y141.771 E39.97119
G1 X93.353 Y139.441 E40.092
G1 X92.859 Y138.456 E40.13964
G1 X92.325 Y135.77 E40.25805
G1 X91.256 Y129.008 E40.55406
G1 X86.116 Y118.926 E41.04337
G1 X78.074 Y110.884 E41.53512
G0 F3000 X78.385 Y110.459
G1 F900 X68.157 Y105.248 E42.03145
G1 X61.172 Y104.135 E42.33728
G1 X58.892 Y103.66 E42.43798
G1 X58.051 Y103.366 E42.4765
G1 X55.856 Y101.887 E42.59095
G1 X55.08 Y101.214 E42.63536
G1 X53.498 Y98.808 E42.75986
G1 X53.144 Y98.052 E42.79596
G1 X52.58 Y95.182 E42.92242
G1 X52.585 Y84.529 E43.38304
G1 X53.132 Y81.891 E43.49953
G1 X53.426 Y81.05 E43.53805
G1 X54.904 Y78.856 E43.65243
G1 X55.583 Y78.074 E43.69721
G1 X57.948 Y76.522 E43.81952
G1 X58.736 Y76.144 E43.85731
G1 X61.61 Y75.58 E43.98395
G1 X158.404 Y75.58 E48.16915
G1 X161.095 Y76.13 E48.2879
G1 X161.944 Y76.421 E48.32671
G1 X164.144 Y77.904 E48.44143
G1 X164.926 Y78.583 E48.48621
G1 X166.478 Y80.948 E48.60852
G1 X166.856 Y81.736 E48.64631
G1 X167.42 Y84.61 E48.77294
G1 X167.415 Y95.258 E49.23334
G1 X166.907 Y97.758 E49.34365
G1 X166.574 Y98.744 E49.38865
G1 X165.097 Y100.936 E49.50293
G1 X164.423 Y101.713 E49.54741
G1 X162.208 Y103.182 E49.66233
G1 X161.285 Y103.645 E49.70698
G1 X158.689 Y104.161 E49.82142
G1 X151.847 Y105.243 E50.12093
G1 X141.615 Y110.459 E50.61751
G1 X133.459 Y118.615 E51.11624
G1 X128.248 Y128.843 E51.61257
G1 X127.135 Y135.828 E51.91839
G1 X126.66 Y138.108 E52.01909
G1 X126.366 Y138.949 E52.05761
G1 X124.887 Y141.144 E52.17206
G1 X124.214 Y141.92 E52.21647
G1 X121.808 Y143.502 E52.34098
G1 X121.052 Y143.856 E52.37707
G1 X118.182 Y144.42 E52.50354
G1 X101.742 Y144.415 E53.21437
G1 X99.242 Y143.907 E53.32468
G1 X98.256 Y143.574 E53.36968
G1 X96.064 Y142.097 E53.48396
G1 X95.287 Y141.423 E53.52844
G1 X93.818 Y139.208 E53.64336
G1 X93.355 Y138.285 E53.68801
G1 X92.839 Y135.689 E53.80245
G1 X91.757 Y128.847 E54.10196
G1 X86.541 Y118.615 E54.59854
G1 X78.385 Y110.459 E55.09726
G0 F3000 X78.696 Y110.034
G1 F900 X68.317 Y104.746 E55.60092
G1 X61.254 Y103.621 E55.91016
G1 X59.064 Y103.169 E56.00685
G1 X58.286 Y102.897 E56.04249
G1 X56.197 Y101.494 E56.15129
G1 X55.474 Y100.867 E56.19267
G1 X53.969 Y98.587 E56.31079
G1 X53.641 Y97.887 E56.34422
G1 X53.1 Y95.133 E56.46557
G1 X53.105 Y84.581 E56.92182
G1 X53.623 Y82.063 E57.03298
G1 X53.895 Y81.285 E57.06861
G1 X55.297 Y79.197 E57.17736
G1 X55.93 Y78.468 E57.2191
G1 X58.173 Y76.991 E57.33522
G1 X58.903 Y76.641 E57.37023
G1 X61.659 Y76.1 E57.49167
G1 X158.35 Y76.1 E61.67241
G1 X160.926 Y76.622 E61.78605
G1 X161.71 Y76.891 E61.82189
G1 X163.803 Y78.297 E61.93091
G1 X164.532 Y78.93 E61.97266
G1 X166.009 Y81.173 E62.08878
G1 X166.359 Y81.903 E62.12378
G1 X166.9 Y84.659 E62.24522
G1 X166.895 Y95.203 E62.70113
G1 X166.397 Y97.654 E62.80927
G1 X166.104 Y98.51 E62.84839
G1 X164.704 Y100.595 E62.95698
G1 X164.076 Y101.319 E62.99842
G1 X161.975 Y102.717 E63.10753
G1 X161.114 Y103.149 E63.14919
G1 X158.608 Y103.647 E63.25966
G1 X151.686 Y104.742 E63.56268
G1 X141.304 Y110.034 E64.06653
G1 X133.034 Y118.304 E64.57222
G1 X127.746 Y128.683 E65.07588
G1 X126.621 Y135.746 E65.38512
G1 X126.169 Y137.936 E65.48181
G1 X125.897 Y138.714 E65.51744
G1 X124.494 Y140.803 E65.62625
G1 X123.867 Y141.526 E65.66763
G1 X121.587 Y143.031 E65.78575
G1 X120.887 Y143.359 E65.81918
G1 X118.133 Y143.9 E65.94053
G1 X101.797 Y143.895 E66.64687
G1 X99.346 Y143.397 E66.75501
G1 X98.49 Y143.104 E66.79413
G1 X96.405 Y141.704 E66.90272
G1 X95.681 Y141.076 E66.94416
G1 X94.283 Y138.975 E67.05328
G1 X93.851 Y138.114 E67.09493
G1 X93.353 Y135.608 E67.2054
G1 X92.258 Y128.686 E67.50842
G1 X86.966 Y118.304 E68.01227
G1 X78.696 Y110.034 E68.51796
G0 F3000 X79.007 Y109.609
G1 F900 X68.477 Y104.244 E69.02895
G1 X61.336 Y103.107 E69.3416
G1 X59.236 Y102.678 E69.43428
G1 X58.521 Y102.428 E69.46703
G1 X56.487 Y101.062 E69.57297
G1 X55.867 Y100.519 E69.6086
G1 X54.44 Y98.366 E69.72029
G1 X54.138 Y97.722 E69.75104
G1 X53.62 Y95.084 E69.86728
G1 X53.625 Y84.637 E70.31899
G1 X54.114 Y82.235 E70.42498
G1 X54.364 Y81.52 E70.45773
G1 X55.729 Y79.487 E70.56361
G1 X56.275 Y78.864 E70.59943
G1 X58.398 Y77.46 E70.70948
G1 X59.07 Y77.138 E70.7417
G1 X61.708 Y76.62 E70.85794
G1 X158.297 Y76.62 E75.03427
G1 X160.757 Y77.114 E75.14276
G1 X161.476 Y77.361 E75.17563
G1 X163.513 Y78.729 E75.28173
G1 X164.136 Y79.275 E75.31755
G1 X165.54 Y81.398 E75.4276
G1 X165.862 Y82.07 E75.45982
G1 X166.38 Y84.708 E75.57606
G1 X166.375 Y95.149 E76.02751
G1 X165.905 Y97.485 E76.13054
G1 X165.634 Y98.276 E76.16669
G1 X164.272 Y100.305 E76.27235
G1 X163.729 Y100.925 E76.30799
G1 X161.687 Y102.284 E76.41405
G1 X160.943 Y102.653 E76.44996
G1 X158.527 Y103.133 E76.55646
G1 X151.525 Y104.241 E76.86298
G1 X140.993 Y109.609 E77.37411
G1 X132.609 Y117.993 E77.88677
G1 X127.244 Y128.523 E78.39776
G1 X126.107 Y135.664 E78.71041
G1 X125.678 Y137.764 E78.80309
G1 X125.428 Y138.479 E78.83584
G1 X124.062 Y140.513 E78.94178
G1 X123.519 Y141.133 E78.97741
G1 X121.366 Y142.56 E79.08909
G1 X120.722 Y142.862 E79.11985
G1 X118.084 Y143.38 E79.23609
G1 X101.851 Y143.375 E79.93797
G1 X99.515 Y142.905 E80.041
G1 X98.724 Y142.634 E80.07716
G1 X96.695 Y141.272 E80.18282
G1 X96.075 Y140.729 E80.21845
G1 X94.716 Y138.687 E80.32451
G1 X94.347 Y137.943 E80.36042
G1 X93.867 Y135.527 E80.46693
G1 X92.759 Y128.525 E80.77345
G1 X87.391 Y117.993 E81.28457
G1 X79.007 Y109.609 E81.79723
G0 F3000 X79.318 Y109.184
G1 F900 X68.637 Y103.742 E82.31555
G1 X61.439 Y102.597 E82.63069
G1 X59.408 Y102.187 E82.72028
G1 X58.756 Y101.959 E82.75015
G1 X56.777 Y100.63 E82.85322
G1 X56.262 Y100.174 E82.88296
G1 X54.911 Y98.145 E82.98836
G1 X54.635 Y97.557 E83.01644
G1 X54.14 Y95.035 E83.12757
G1 X54.145 Y84.691 E83.57483
G1 X54.605 Y82.407 E83.67557
G1 X54.833 Y81.755 E83.70543
G1 X56.161 Y79.777 E83.80844
G1 X56.619 Y79.26 E83.83831
G1 X58.685 Y77.894 E83.9454
G1 X59.237 Y77.635 E83.97176
G1 X61.757 Y77.14 E84.08281
G1 X158.246 Y77.14 E88.25481
G1 X160.588 Y77.606 E88.35806
G1 X161.242 Y77.831 E88.38797
G1 X163.223 Y79.161 E88.49114
G1 X163.74 Y79.619 E88.521
G1 X165.106 Y81.685 E88.62809
G1 X165.365 Y82.237 E88.65445
G1 X165.86 Y84.757 E88.7655
G1 X165.855 Y95.096 E89.21254
G1 X165.395 Y97.382 E89.31336
G1 X165.165 Y98.041 E89.34354
G1 X163.84 Y100.015 E89.44634
G1 X163.384 Y100.53 E89.47608
G1 X161.399 Y101.851 E89.57918
G1 X160.775 Y102.156 E89.60921
G1 X158.446 Y102.619 E89.71188
G1 X151.364 Y103.74 E90.0219
G1 X140.682 Y109.184 E90.5403
G1 X132.184 Y117.682 E91.05993
G1 X126.742 Y128.363 E91.57825
G1 X125.597 Y135.561 E91.89339
G1 X125.187 Y137.592 E91.98298
G1 X124.959 Y138.244 E92.01284
G1 X123.63 Y140.223 E92.11592
G1 X123.174 Y140.738 E92.14566
G1 X121.145 Y142.089 E92.25106
G1 X120.557 Y142.365 E92.27914
G1 X118.035 Y142.86 E92.39027
G1 X101.904 Y142.855 E93.08775
G1 X99.618 Y142.395 E93.18857
G1 X98.959 Y142.165 E93.21875
G1 X96.985 Y140.84 E93.32155
G1 X96.47 Y140.384 E93.35129
G1 X95.149 Y138.399 E93.45438
G1 X94.844 Y137.775 E93.48441
G1 X94.381 Y135.446 E93.58709
G1 X93.26 Y128.364 E93.89711
G1 X87.816 Y117.682 E94.41551
G1 X79.318 Y109.184 E94.93514
G0 F3000 X79.629 Y108.759
G1 F900 X68.797 Y103.24 E95.46079
G1 X61.541 Y102.087 E95.77846
G1 X59.58 Y101.696 E95.86492
G1 X58.989 Y101.489 E95.89199
G1 X57.121 Y100.24 E95.98915
G1 X56.656 Y99.829 E96.01599
G1 X55.382 Y97.924 E96.11508
G1 X55.132 Y97.392 E96.14049
G1 X54.66 Y94.986 E96.24651
G1 X54.665 Y84.743 E96.6894
G1 X55.096 Y82.579 E96.7848
G1 X55.303 Y81.988 E96.81188
G1 X56.55 Y80.122 E96.90892
G1 X56.963 Y79.656 E96.93584
G1 X58.906 Y78.365 E97.03671
G1 X59.402 Y78.132 E97.0604
G1 X61.806 Y77.66 E97.16633
G1 X158.195 Y77.66 E101.33402
G1 X160.487 Y78.116 E101.43506
G1 X161.009 Y78.301 E101.45901
G1 X162.878 Y79.55 E101.5562
G1 X163.344 Y79.963 E101.58313
G1 X164.635 Y81.906 E101.68399
G1 X164.868 Y82.402 E101.70769
G1 X165.34 Y84.806 E101.81361
G1 X165.335 Y95.045 E102.25633
G1 X164.904 Y97.211 E102.35182
G1 X164.696 Y97.807 E102.37911
G1 X163.451 Y99.67 E102.476
G1 X163.039 Y100.135 E102.50286
G1 X161.171 Y101.384 E102.60002
G1 X160.608 Y101.659 E102.62711
G1 X158.365 Y102.105 E102.726
G1 X151.203 Y103.239 E103.03952
G1 X140.371 Y108.759 E103.56519
G1 X131.759 Y117.371 E104.0918
G1 X126.24 Y128.203 E104.61744
G1 X125.087 Y135.459 E104.93511
G1 X124.696 Y137.42 E105.02157
G1 X124.489 Y138.011 E105.04865
G1 X123.24 Y139.879 E105.14581
G1 X122.829 Y140.344 E105.17264
G1 X120.924 Y141.618 E105.27173
G1 X120.392 Y141.868 E105.29715
G1 X117.986 Y142.34 E105.40316
G1 X101.955 Y142.335 E106.09631
G1 X99.789 Y141.904 E106.1918
G1 X99.193 Y141.696 E106.2191
G1 X97.33 Y140.451 E106.31598
G1 X96.865 Y140.039 E106.34284
G1 X95.616 Y138.171 E106.44
G1 X95.341 Y137.608 E106.4671
G1 X94.895 Y135.365 E106.56598
G1 X93.761 Y128.203 E106.87951
G1 X88.241 Y117.371 E107.40517
G1 X79.629 Y108.759 E107.93178
G0 F3000 X79.94 Y108.334
G1 F900 X68.957 Y102.738 E108.46475
G1 X61.643 Y101.577 E108.78496
G1 X59.682 Y101.186 E108.87141
G1 X59.222 Y101.02 E108.89256
G1 X57.41 Y99.808 E108.98682
G1 X57.051 Y99.484 E109.00773
G1 X55.814 Y97.635 E109.10392
G1 X55.63 Y97.23 E109.12315
G1 X55.18 Y94.937 E109.22419
G1 X55.185 Y84.795 E109.66271
G1 X55.606 Y82.681 E109.75591
G1 X55.772 Y82.221 E109.77705
G1 X56.982 Y80.411 E109.87119
G1 X57.306 Y80.052 E109.8921
G1 X59.194 Y78.798 E109.9901
G1 X59.564 Y78.63 E110.00767
G1 X61.855 Y78.18 E110.10862
G1 X158.145 Y78.18 E114.27203
G1 X160.313 Y78.606 E114.36756
G1 X160.775 Y78.77 E114.38876
G1 X162.589 Y79.982 E114.48309
G1 X162.948 Y80.306 E114.504
G1 X164.202 Y82.194 E114.602
G1 X164.37 Y82.564 E114.61957
G1 X164.82 Y84.855 E114.72052
G1 X164.815 Y94.994 E115.15891
G1 X164.394 Y97.11 E115.25219
G1 X164.227 Y97.573 E115.27348
G1 X163.019 Y99.381 E115.36749
G1 X162.695 Y99.74 E115.3884
G1 X160.882 Y100.952 E115.4827
G1 X160.441 Y101.162 E115.50382
G1 X158.284 Y101.591 E115.59891
G1 X151.042 Y102.738 E115.91594
G1 X140.06 Y108.334 E116.44888
G1 X131.334 Y117.06 E116.98246
G1 X125.738 Y128.043 E117.51543
G1 X124.577 Y135.357 E117.83563
G1 X124.186 Y137.318 E117.92209
G1 X124.02 Y137.778 E117.94324
G1 X122.808 Y139.59 E118.03749
G1 X122.484 Y139.949 E118.0584
G1 X120.635 Y141.186 E118.15459
G1 X120.23 Y141.37 E118.17383
G1 X117.937 Y141.82 E118.27486
G1 X102.006 Y141.815 E118.96369
G1 X99.89 Y141.394 E119.05698
G1 X99.427 Y141.227 E119.07826
