;FLAVOR:Marlin
;TIME:5209
;Filament used: 4.89904m
;Layer height: 0.2
;MINX:89.134
;MINY:91.184
;MINZ:0.2
;MAXX:131.294
;MAXY:133.846
;MAXZ:19.6
;TARGET_MACHINE.NAME:Creality Ender-3 V3 SE
;Generated with Cura_SteamEngine 5.9.0
M82 ;absolute extrusion mode
M220 S100 ;Reset Feedrate
M221 S100 ;Reset Flowrate

G28 ;Home

M420 S1; Use saved mesh leveling data

G92 E0 ;Reset Extruder
G1 Z2.0 F3000 ;Move Z Axis up
G1 X-3 Y20 Z0.28 F5000.0 ;Move to start position
M190 S65 ; Set bed temperature and wait
M109 S205.0 ; Set hotend temperature and wait
G1 X-3 Y100.0 Z0.28 F1500.0 E15 ;Draw the first line
G1 X-2 Y100.0 Z0.28 F5000.0 ;Move to side a little
G1 X-2 Y20 Z0.28 F1500.0 E30 ;Draw the second line
G92 E0 ;Reset Extruder
G1 E-1.0000 F1800 ;Retract a bit
G1 Z2.0 F3000 ;Move Z Axis up
G1 E0.0000 F1800 

G92 E0
G92 E0
G1 F2400 E-0.8
;LAYER_COUNT:98
;LAYER:0
M107
M204 S500
M205 X8 Y8
G0 F3000 X110.438 Y133.846 Z0.2
;TYPE:SKIRT
G1 F2400 E0
G1 F900 X108.135 Y133.807 E0.09959
G1 X105.719 Y133.483 E0.20499
G1 X103.281 Y132.843 E0.31398
G1 X101.209 Y132.037 E0.41011
G1 X100.217 Y131.371 E0.46177
G1 X99.537 Y130.792 E0.50038
G1 X98.773 Y129.694 E0.55822
G1 X98.311 Y128.831 E0.60055
G1 X98.114 Y128.04 E0.63579
G1 X97.856 Y127.851 E0.64962
G1 X97.145 Y127.277 E0.68913
G1 X96.639 Y127.286 E0.71101
G1 X95.238 Y126.956 E0.77325
G1 X94.18 Y126.454 E0.82388
G1 X93.219 Y125.776 E0.87473
G1 X92.274 Y124.586 E0.94044
G1 X91.239 Y122.949 E1.02418
G1 X89.929 Y120.145 E1.158
G1 X89.263 Y118.095 E1.2512
G1 X89.134 Y116.601 E1.31604
G1 X89.157 Y116.028 E1.34083
G1 X89.556 Y114.458 E1.41087
G1 X90.249 Y113.242 E1.47139
G1 X90.411 Y113.046 E1.48238
G1 X90.408 Y111.767 E1.53769
G1 X89.847 Y110.893 E1.58259
G1 X89.494 Y110.159 E1.61781
G1 X89.151 Y108.609 E1.68645
G1 X89.218 Y107.075 E1.75284
G1 X89.996 Y104.711 E1.86045
G1 X91.265 Y102.023 E1.98897
G1 X92.845 Y99.519 E2.11699
G1 X93.925 Y98.408 E2.18399
G1 X94.162 Y98.224 E2.19696
G1 X95.343 Y97.645 E2.25383
G1 X96.374 Y97.282 E2.30109
G1 X97.859 Y97.17 E2.36548
G1 X98.116 Y96.972 E2.37951
G1 X98.384 Y96.119 E2.41817
G1 X98.787 Y95.223 E2.46065
G1 X99.77 Y93.976 E2.52931
G1 X101.023 Y93.05 E2.59667
G1 X103.501 Y92.104 E2.71136
G1 X106.2 Y91.442 E2.83152
G1 X108.207 Y91.184 E2.91901
G1 X109.432 Y91.289 E2.97217
G1 X109.767 Y91.372 E2.98709
G1 X110.385 Y91.374 E3.01382
G1 X111.695 Y91.653 E3.07173
G1 X112.216 Y91.833 E3.09556
G1 X113.456 Y92.596 E3.15851
G1 X114.259 Y93.342 E3.20591
G1 X114.386 Y93.502 E3.21474
G1 X114.617 Y93.392 E3.2258
G1 X115.756 Y92.986 E3.27808
G1 X117.476 Y92.854 E3.35267
G1 X119.094 Y93.2 E3.42421
G1 X121.198 Y94.357 E3.52803
G1 X123.755 Y96.209 E3.66455
G1 X125.249 Y97.607 E3.75302
G1 X126.136 Y98.879 E3.82007
G1 X126.275 Y99.201 E3.83523
G1 X126.737 Y100.861 E3.90973
G1 X126.716 Y101.4 E3.93306
G1 X126.814 Y101.871 E3.95386
G1 X126.752 Y102.636 E3.98704
G1 X126.841 Y102.785 E3.99455
G1 X127.32 Y103.783 E4.04241
G1 X127.531 Y103.869 E4.05227
G1 X128.338 Y104.3 E4.09182
G1 X129.411 Y105.273 E4.15445
G1 X130.31 Y106.48 E4.21953
G1 X130.724 Y107.801 E4.27938
G1 X131.154 Y110.151 E4.38268
G1 X131.294 Y112.859 E4.49993
G1 X131.119 Y115.168 E4.60005
G1 X130.711 Y117.375 E4.69709
G1 X130.045 Y118.951 E4.77107
G1 X128.841 Y120.286 E4.8488
G1 X127.968 Y120.851 E4.89376
G1 X127.355 Y121.154 E4.92333
G1 X126.976 Y121.945 E4.96125
G1 X126.999 Y122.145 E4.96996
G1 X126.979 Y122.992 E5.00659
G1 X126.931 Y123.359 E5.0226
G1 X126.892 Y124.273 E5.06215
G1 X126.547 Y125.399 E5.11307
G1 X126.097 Y126.42 E5.16132
G1 X125.089 Y127.562 E5.22718
G1 X123.392 Y129.113 E5.32658
G1 X121.494 Y130.477 E5.42764
G1 X119.286 Y131.712 E5.53703
G1 X117.613 Y132.181 E5.61216
G1 X115.947 Y132.139 E5.68421
G1 X114.598 Y131.707 E5.74546
G1 X114.404 Y131.612 E5.7548
G1 X114.201 Y131.877 E5.76923
G1 X113.638 Y132.461 E5.80431
G1 X112.392 Y133.251 E5.8681
G1 X111.724 Y133.568 E5.90007
G1 X110.438 Y133.846 E5.95696
G0 F3000 X110.388 Y133.325
G1 F900 X108.144 Y133.287 E6.054
G1 X105.85 Y132.98 E6.15407
G1 X103.47 Y132.358 E6.26043
G1 X101.45 Y131.572 E6.35415
G1 X100.507 Y130.939 E6.40326
G1 X99.925 Y130.44 E6.43641
G1 X99.232 Y129.449 E6.4887
G1 X98.801 Y128.643 E6.52822
G1 X98.574 Y127.732 E6.56881
G1 X98.183 Y127.447 E6.58973
G1 X97.324 Y126.753 E6.63748
G1 X96.694 Y126.765 E6.66473
G1 X95.413 Y126.463 E6.72163
G1 X94.443 Y126.003 E6.76805
G1 X93.58 Y125.394 E6.81372
G1 X92.714 Y124.308 E6.87378
G1 X91.679 Y122.671 E6.95752
G1 X90.424 Y119.984 E7.08575
G1 X89.776 Y117.989 E7.17644
G1 X89.654 Y116.622 E7.23579
G1 X89.675 Y116.101 E7.25833
G1 X90.042 Y114.656 E7.32279
G1 X90.701 Y113.5 E7.38033
G1 X90.931 Y113.248 E7.39508
G1 X90.928 Y111.613 E7.46578
G1 X90.285 Y110.612 E7.51722
G1 X89.989 Y109.988 E7.54708
G1 X89.674 Y108.565 E7.6101
G1 X89.735 Y107.168 E7.67056
G1 X90.49 Y104.874 E7.77498
G1 X91.705 Y102.3 E7.89805
G1 X93.256 Y99.842 E8.02372
G1 X94.298 Y98.77 E8.08836
G1 X94.44 Y98.666 E8.09597
G1 X95.516 Y98.136 E8.14783
G1 X96.482 Y97.796 E8.19211
G1 X97.764 Y97.699 E8.2477
G1 X98.006 Y97.717 E8.25819
G1 X98.339 Y97.452 E8.2766
G1 X98.561 Y97.293 E8.2884
G1 X98.858 Y96.333 E8.33185
G1 X99.236 Y95.494 E8.37164
G1 X100.135 Y94.353 E8.43445
G1 X101.273 Y93.512 E8.49563
G1 X103.687 Y92.59 E8.60736
G1 X106.266 Y91.958 E8.72217
G1 X108.22 Y91.707 E8.80736
G1 X109.388 Y91.807 E8.85804
G1 X109.698 Y91.892 E8.87194
G1 X110.328 Y91.894 E8.89918
G1 X111.587 Y92.162 E8.95484
G1 X111.993 Y92.306 E8.97346
G1 X113.139 Y93.011 E9.03164
G1 X113.905 Y93.723 E9.07686
G1 X114.104 Y94.003 E9.09171
G1 X114.4 Y94.076 E9.10489
G1 X114.791 Y93.882 E9.12377
G1 X115.867 Y93.499 E9.17315
G1 X117.437 Y93.378 E9.24124
G1 X118.91 Y93.693 E9.30637
G1 X120.947 Y94.813 E9.40688
G1 X123.4 Y96.589 E9.53782
G1 X124.854 Y97.95 E9.62393
G1 X125.678 Y99.131 E9.6862
G1 X125.797 Y99.407 E9.69919
G1 X126.214 Y100.92 E9.76705
G1 X126.193 Y101.442 E9.78964
G1 X126.29 Y101.905 E9.8101
G1 X126.22 Y102.762 E9.84727
G1 X126.395 Y103.053 E9.86196
G1 X126.94 Y104.192 E9.91655
G1 X127.286 Y104.328 E9.93263
G1 X128.039 Y104.73 E9.96953
G1 X129.025 Y105.624 E10.02708
G1 X129.839 Y106.718 E10.08604
G1 X130.212 Y107.895 E10.13943
G1 X130.642 Y110.245 E10.24272
G1 X130.775 Y112.82 E10.35421
G1 X130.6 Y115.129 E10.45433
G1 X130.211 Y117.223 E10.54642
G1 X129.599 Y118.669 E10.61432
G1 X128.502 Y119.886 E10.68516
G1 X127.686 Y120.414 E10.72718
G1 X126.964 Y120.767 E10.76193
G1 X126.439 Y121.862 E10.81444
G1 X126.479 Y122.134 E10.82633
G1 X126.463 Y122.925 E10.86054
G1 X126.412 Y123.316 E10.87758
G1 X126.375 Y124.185 E10.91519
G1 X126.071 Y125.189 E10.96055
G1 X125.653 Y126.137 E11.00535
G1 X124.738 Y127.178 E11.06527
G1 X123.041 Y128.729 E11.16468
G1 X121.24 Y130.023 E11.26057
G1 X119.086 Y131.228 E11.36728
G1 X117.548 Y131.659 E11.43635
G1 X116.034 Y131.621 E11.50183
G1 X114.757 Y131.212 E11.55981
G1 X114.307 Y130.968 E11.58194
G1 X114.22 Y130.991 E11.58583
G1 X113.827 Y131.516 E11.61419
G1 X113.308 Y132.054 E11.64651
G1 X112.113 Y132.812 E11.7077
G1 X111.555 Y133.073 E11.73433
G1 X110.388 Y133.325 E11.78596
G0 F3000 X110.338 Y132.804
G1 F900 X108.153 Y132.767 E11.88044
G1 X105.981 Y132.477 E11.97519
G1 X103.659 Y131.873 E12.07893
G1 X101.691 Y131.107 E12.17024
G1 X100.797 Y130.507 E12.2168
G1 X100.313 Y130.088 E12.24448
G1 X99.691 Y129.204 E12.29121
G1 X99.291 Y128.455 E12.32793
G1 X99.033 Y127.422 E12.37396
G1 X98.51 Y127.042 E12.40192
G1 X97.793 Y126.463 E12.44176
G1 X97.541 Y126.229 E12.45663
G1 X96.749 Y126.244 E12.49088
G1 X95.585 Y125.969 E12.5426
G1 X94.708 Y125.554 E12.58455
G1 X93.94 Y125.011 E12.62522
G1 X93.154 Y124.03 E12.67957
G1 X92.119 Y122.393 E12.76331
G1 X90.919 Y119.823 E12.88595
G1 X90.289 Y117.883 E12.97414
G1 X90.174 Y116.643 E13.02799
G1 X90.193 Y116.174 E13.04829
G1 X90.528 Y114.854 E13.10717
G1 X91.153 Y113.758 E13.16172
G1 X91.465 Y113.452 E13.18062
G1 X91.448 Y113.189 E13.19201
G1 X91.447 Y111.806 E13.25181
G1 X91.472 Y111.457 E13.26694
G1 X91.356 Y111.323 E13.2746
G1 X90.755 Y110.389 E13.32263
G1 X90.484 Y109.818 E13.34995
G1 X90.197 Y108.521 E13.40739
G1 X90.252 Y107.261 E13.46192
G1 X90.984 Y105.037 E13.56316
G1 X92.145 Y102.578 E13.68074
G1 X93.669 Y100.163 E13.80421
G1 X94.671 Y99.132 E13.86637
G1 X95.689 Y98.627 E13.91551
G1 X96.59 Y98.31 E13.95681
G1 X97.803 Y98.218 E14.00941
G1 X98.161 Y98.259 E14.02499
G1 X98.663 Y97.859 E14.05274
G1 X99.007 Y97.612 E14.07105
G1 X99.332 Y96.547 E14.1192
G1 X99.683 Y95.768 E14.15614
G1 X100.502 Y94.728 E14.21338
G1 X101.523 Y93.974 E14.26826
G1 X103.873 Y93.076 E14.37703
G1 X106.332 Y92.474 E14.48649
G1 X108.233 Y92.23 E14.56936
G1 X109.294 Y92.321 E14.61541
G1 X109.626 Y92.412 E14.63029
G1 X110.271 Y92.414 E14.65818
G1 X111.479 Y92.671 E14.71158
G1 X111.766 Y92.777 E14.72481
G1 X112.824 Y93.428 E14.77852
G1 X113.51 Y94.066 E14.81903
G1 X113.792 Y94.462 E14.84005
G1 X114.462 Y94.627 E14.86989
G1 X115.023 Y94.348 E14.89698
G1 X115.976 Y94.012 E14.94067
G1 X117.398 Y93.902 E15.00234
G1 X118.726 Y94.186 E15.06106
G1 X120.696 Y95.269 E15.15826
G1 X123.094 Y97.01 E15.28639
G1 X124.461 Y98.295 E15.36751
G1 X125.222 Y99.386 E15.42502
G1 X125.296 Y99.545 E15.43261
G1 X125.691 Y100.978 E15.49688
G1 X125.671 Y101.485 E15.51882
G1 X125.766 Y101.939 E15.53887
G1 X125.688 Y102.891 E15.58017
G1 X125.926 Y103.277 E15.59978
G1 X126.561 Y104.604 E15.66339
G1 X127.041 Y104.787 E15.6856
G1 X127.74 Y105.16 E15.71986
G1 X128.636 Y105.973 E15.77217
G1 X129.371 Y106.96 E15.82538
G1 X129.7 Y107.989 E15.87209
G1 X130.13 Y110.339 E15.97539
G1 X130.256 Y112.781 E16.08111
G1 X130.081 Y115.09 E16.18124
G1 X129.71 Y117.071 E16.26838
G1 X129.153 Y118.387 E16.33017
G1 X128.163 Y119.486 E16.39413
G1 X127.404 Y119.977 E16.43321
G1 X126.574 Y120.378 E16.47307
G1 X125.895 Y121.792 E16.54089
G1 X125.959 Y122.123 E16.55547
G1 X125.943 Y122.914 E16.58968
G1 X125.893 Y123.274 E16.60539
G1 X125.858 Y124.1 E16.64114
G1 X125.595 Y124.979 E16.68081
G1 X125.208 Y125.856 E16.72226
G1 X124.387 Y126.794 E16.77616
G1 X122.69 Y128.345 E16.87556
G1 X120.986 Y129.569 E16.96628
G1 X118.886 Y130.744 E17.07032
G1 X117.483 Y131.137 E17.13332
G1 X116.121 Y131.103 E17.19223
G1 X114.964 Y130.732 E17.24477
G1 X114.375 Y130.414 E17.27371
G1 X113.914 Y130.532 E17.29428
G1 X113.411 Y131.204 E17.33058
G1 X112.977 Y131.648 E17.35742
G1 X111.893 Y132.341 E17.41305
G1 X111.388 Y132.577 E17.43715
G1 X110.338 Y132.804 E17.4836
G0 F3000 X111.222 Y132.081
G1 F900 X110.288 Y132.283 E17.52492
G1 X108.162 Y132.247 E17.61686
G1 X106.111 Y131.974 E17.70632
G1 X103.848 Y131.388 E17.8074
G1 X101.932 Y130.642 E17.8963
G1 X101.087 Y130.075 E17.9403
G1 X100.701 Y129.736 E17.96251
G1 X100.15 Y128.959 E18.0037
G1 X99.779 Y128.264 E18.03776
G1 X99.491 Y127.113 E18.08906
G1 X98.837 Y126.637 E18.12404
G1 X98.12 Y126.058 E18.16389
G1 X97.742 Y125.705 E18.18625
G1 X96.804 Y125.723 E18.22681
G1 X95.757 Y125.475 E18.27334
G1 X94.973 Y125.104 E18.31084
G1 X94.299 Y124.628 E18.34652
G1 X93.594 Y123.752 E18.39514
G1 X92.559 Y122.115 E18.47888
G1 X91.414 Y119.662 E18.59593
G1 X90.802 Y117.777 E18.68162
G1 X90.694 Y116.664 E18.72997
G1 X90.711 Y116.247 E18.74801
G1 X91.015 Y115.05 E18.80141
G1 X91.569 Y114.078 E18.84979
G1 X92 Y113.655 E18.8759
G1 X91.967 Y113.155 E18.89757
G1 X91.966 Y111.843 E18.95429
G1 X92.007 Y111.261 E18.97952
G1 X91.792 Y111.04 E18.99285
G1 X91.225 Y110.166 E19.0379
G1 X90.98 Y109.649 E19.06264
G1 X90.72 Y108.476 E19.11458
G1 X90.769 Y107.354 E19.16314
G1 X91.478 Y105.2 E19.26119
G1 X92.585 Y102.856 E19.37328
G1 X94.082 Y100.484 E19.49456
G1 X94.981 Y99.559 E19.55033
G1 X95.861 Y99.118 E19.59289
G1 X96.7 Y98.823 E19.63134
G1 X97.789 Y98.74 E19.67857
G1 X98.316 Y98.8 E19.7015
G1 X98.987 Y98.266 E19.73858
G1 X99.489 Y97.907 E19.76526
G1 X99.514 Y97.721 E19.77338
G1 X99.829 Y96.7 E19.81958
G1 X100.131 Y96.039 E19.851
G1 X100.867 Y95.105 E19.90242
G1 X101.773 Y94.436 E19.95111
G1 X104.059 Y93.562 E20.05693
G1 X106.398 Y92.99 E20.16105
G1 X108.246 Y92.753 E20.24161
G1 X109.25 Y92.839 E20.28518
G1 X109.546 Y92.932 E20.29859
G1 X110.214 Y92.934 E20.32747
G1 X111.371 Y93.18 E20.37862
G1 X111.536 Y93.246 E20.3863
G1 X112.509 Y93.845 E20.43571
G1 X113.118 Y94.412 E20.47169
G1 X113.484 Y94.925 E20.49893
G1 X113.942 Y95.029 E20.51924
G1 X114.521 Y95.179 E20.5451
G1 X115.255 Y94.814 E20.58055
G1 X116.086 Y94.525 E20.61859
G1 X117.363 Y94.426 E20.67397
G1 X118.541 Y94.678 E20.72606
G1 X120.446 Y95.725 E20.82004
G1 X122.738 Y97.389 E20.94251
G1 X124.065 Y98.636 E21.02125
G1 X124.795 Y99.683 E21.07643
G1 X125.168 Y101.036 E21.13712
G1 X125.149 Y101.527 E21.15836
G1 X125.242 Y101.972 E21.17802
G1 X125.156 Y103.02 E21.22349
G1 X125.483 Y103.55 E21.25041
G1 X126.182 Y105.016 E21.32064
G1 X126.855 Y105.273 E21.35179
G1 X127.438 Y105.588 E21.38044
G1 X128.25 Y106.324 E21.42782
G1 X128.901 Y107.199 E21.47498
G1 X129.188 Y108.083 E21.51517
G1 X129.618 Y110.433 E21.61846
G1 X129.737 Y112.742 E21.71843
G1 X129.562 Y115.051 E21.81855
G1 X129.209 Y116.919 E21.90075
G1 X128.707 Y118.105 E21.95644
G1 X127.824 Y119.086 E22.01351
G1 X127.122 Y119.54 E22.04965
G1 X126.323 Y119.922 E22.08795
G1 X126.195 Y119.965 E22.09379
G1 X125.421 Y121.578 E22.17114
G1 X125.347 Y121.695 E22.17713
G1 X125.438 Y122.169 E22.198
G1 X125.428 Y122.843 E22.22714
G1 X125.374 Y123.233 E22.24417
G1 X125.341 Y124.014 E22.27797
G1 X125.119 Y124.769 E22.31199
G1 X124.763 Y125.575 E22.35009
G1 X124.036 Y126.41 E22.39796
G1 X122.339 Y127.961 E22.49737
G1 X120.732 Y129.115 E22.58291
G1 X118.686 Y130.26 E22.68429
G1 X117.418 Y130.615 E22.74122
G1 X116.208 Y130.585 E22.79355
G1 X115.171 Y130.252 E22.84065
G1 X114.443 Y129.86 E22.8764
G1 X113.606 Y130.074 E22.91375
G1 X113.039 Y130.841 E22.95499
G1 X112.647 Y131.242 E22.97924
G1 X111.613 Y131.903 E23.0323
G1 X111.222 Y132.081 E23.05088
G0 F3000 X111.054 Y131.585
G1 F900 X110.238 Y131.762 E23.08698
G1 X108.171 Y131.727 E23.17637
G1 X106.241 Y131.47 E23.26055
G1 X104.037 Y130.903 E23.35895
G1 X102.172 Y130.177 E23.44549
G1 X101.43 Y129.684 E23.48401
G1 X101.091 Y129.386 E23.50352
G1 X100.609 Y128.714 E23.53928
G1 X100.267 Y128.073 E23.57069
G1 X100.02 Y127.088 E23.6146
G1 X100.007 Y126.845 E23.62512
G1 X99.164 Y126.232 E23.67019
G1 X98.447 Y125.653 E23.71004
G1 X97.897 Y125.138 E23.74262
G1 X97.543 Y125.189 E23.75808
G1 X96.86 Y125.202 E23.78762
G1 X95.929 Y124.981 E23.82899
G1 X95.238 Y124.654 E23.86205
G1 X94.657 Y124.244 E23.89279
G1 X94.034 Y123.474 E23.93562
G1 X92.999 Y121.837 E24.01936
G1 X91.909 Y119.501 E24.13082
G1 X91.313 Y117.666 E24.21424
G1 X91.214 Y116.685 E24.25687
G1 X91.229 Y116.321 E24.27263
G1 X91.502 Y115.246 E24.32058
G1 X91.985 Y114.398 E24.36278
G1 X92.534 Y113.859 E24.39605
G1 X92.486 Y113.121 E24.42802
G1 X92.485 Y111.88 E24.48168
G1 X92.543 Y111.066 E24.51697
G1 X92.201 Y110.715 E24.53816
G1 X91.695 Y109.943 E24.57807
G1 X91.475 Y109.479 E24.60027
G1 X91.243 Y108.431 E24.64668
G1 X91.286 Y107.447 E24.68927
G1 X91.972 Y105.363 E24.78413
G1 X93.025 Y103.134 E24.89072
G1 X94.495 Y100.805 E25.00981
G1 X95.292 Y99.985 E25.05925
G1 X96.094 Y99.583 E25.09804
G1 X96.808 Y99.336 E25.13071
G1 X97.775 Y99.262 E25.17264
G1 X98.471 Y99.342 E25.20293
G1 X99.29 Y98.689 E25.24822
G1 X100 Y98.181 E25.28597
G1 X100.011 Y97.874 E25.29925
G1 X100.326 Y96.853 E25.34545
G1 X100.576 Y96.316 E25.37106
G1 X101.234 Y95.48 E25.41706
G1 X102.023 Y94.897 E25.45948
G1 X104.245 Y94.048 E25.56233
G1 X106.464 Y93.506 E25.6611
G1 X108.259 Y93.276 E25.73934
G1 X109.148 Y93.352 E25.77792
G1 X109.466 Y93.452 E25.79234
G1 X110.157 Y93.454 E25.82222
G1 X111.263 Y93.689 E25.8711
G1 X112.197 Y94.264 E25.91853
G1 X112.724 Y94.755 E25.94967
G1 X113.176 Y95.388 E25.9833
G1 X113.811 Y95.532 E26.01146
G1 X114.624 Y95.743 E26.04777
G1 X114.786 Y95.624 E26.05646
G1 X115.484 Y95.281 E26.09009
G1 X116.194 Y95.038 E26.12254
G1 X117.328 Y94.95 E26.17172
G1 X118.356 Y95.17 E26.21717
G1 X120.196 Y96.181 E26.30795
G1 X122.382 Y97.768 E26.42475
G1 X123.669 Y98.977 E26.5011
G1 X124.318 Y99.908 E26.55017
G1 X124.645 Y101.094 E26.60337
G1 X124.626 Y101.57 E26.62396
G1 X124.718 Y102.006 E26.64323
G1 X124.645 Y102.934 E26.68348
G1 X124.603 Y103.114 E26.69147
G1 X125.04 Y103.823 E26.72748
