;FLAVOR:Marlin
;TIME:1048
;Filament used: 0.492581m
;Layer height: 0.2
;MINX:92.42
;MINY:92.42
;MINZ:0.2
;MAXX:127.58
;MAXY:127.58
;MAXZ:14
;TARGET_MACHINE.NAME:Creality Ender-3 V3 SE
;Generated with Cura_SteamEngine 5.9.0
M82 ;absolute extrusion mode
M220 S100 ;Reset Feedrate
M221 S100 ;Reset Flowrate

G28 ;Home

M420 S1; Use saved mesh leveling data

G92 E0 ;Reset Extruder
G1 Z2.0 F3000 ;Move Z Axis up
G1 X-3 Y20 Z0.28 F5000.0 ;Move to start position
M190 S65 ; Set bed temperature and wait
M109 S205.0 ; Set hotend temperature and wait
G1 X-3 Y100.0 Z0.28 F1500.0 E15 ;Draw the first line
G1 X-2 Y100.0 Z0.28 F5000.0 ;Move to side a little
G1 X-2 Y20 Z0.28 F1500.0 E30 ;Draw the second line
G92 E0 ;Reset Extruder
G1 E-1.0000 F1800 ;Retract a bit
G1 Z2.0 F3000 ;Move Z Axis up
G1 E0.0000 F1800 

G92 E0
G92 E0
G1 F2400 E-0.8
;LAYER_COUNT:70
;LAYER:0
M107
M204 S500
M205 X8 Y8
G0 F3000 X111.972 Y127.466 Z0.2
;TYPE:SKIRT
G1 F2400 E0
G1 F900 X110.877 Y127.557 E0.04751
G1 X109.783 Y127.58 E0.09482
G1 X108.909 Y127.548 E0.13264
G1 X107.598 Y127.419 E0.1896
G1 X106.862 Y127.302 E0.22182
G1 X105.42 Y126.973 E0.28577
G1 X104.676 Y126.754 E0.3193
G1 X103.497 Y126.329 E0.37349
G1 X102.43 Y125.866 E0.42379
G1 X101.562 Y125.425 E0.46588
G1 X100.599 Y124.856 E0.51425
G1 X99.805 Y124.319 E0.55569
G1 X98.692 Y123.458 E0.61653
G1 X97.85 Y122.71 E0.66523
G1 X97.3 Y122.16 E0.69886
G1 X96.496 Y121.253 E0.75127
G1 X95.705 Y120.231 E0.80715
G1 X95.105 Y119.345 E0.85342
G1 X94.626 Y118.534 E0.89414
G1 X94.063 Y117.427 E0.94784
G1 X93.69 Y116.564 E0.98849
G1 X93.309 Y115.503 E1.03724
G1 X92.935 Y114.221 E1.09498
G1 X92.736 Y113.329 E1.13449
G1 X92.542 Y112.08 E1.18915
G1 X92.463 Y111.24 E1.22563
G1 X92.42 Y109.779 E1.28882
G1 X92.466 Y108.693 E1.33582
G1 X92.548 Y107.856 E1.37219
G1 X92.709 Y106.821 E1.41748
G1 X93.018 Y105.456 E1.47799
G1 X93.299 Y104.511 E1.52062
G1 X93.592 Y103.693 E1.55819
G1 X94.136 Y102.435 E1.61745
G1 X94.667 Y101.393 E1.66802
G1 X95.072 Y100.708 E1.70242
G1 X95.77 Y99.679 E1.75619
G1 X96.441 Y98.81 E1.80366
G1 X97.081 Y98.077 E1.84573
G1 X98.066 Y97.093 E1.90593
G1 X98.759 Y96.485 E1.94579
G1 X99.827 Y95.657 E2.00422
G1 X100.444 Y95.239 E2.03645
G1 X101.585 Y94.564 E2.09377
G1 X102.427 Y94.136 E2.13461
G1 X103.665 Y93.602 E2.19291
G1 X104.646 Y93.257 E2.23787
G1 X105.753 Y92.942 E2.28763
G1 X106.683 Y92.735 E2.32883
G1 X108.028 Y92.534 E2.38763
G1 X109.123 Y92.443 E2.43514
G1 X110.217 Y92.42 E2.48245
G1 X111.091 Y92.452 E2.52027
G1 X112.402 Y92.581 E2.57723
G1 X113.138 Y92.698 E2.60945
G1 X114.58 Y93.027 E2.6734
G1 X115.324 Y93.246 E2.70694
G1 X116.503 Y93.671 E2.76112
G1 X117.57 Y94.134 E2.81142
G1 X118.438 Y94.575 E2.85351
G1 X119.374 Y95.127 E2.9005
G1 X120.249 Y95.719 E2.94618
G1 X121.254 Y96.496 E3.0011
G1 X122.149 Y97.289 E3.05281
G1 X122.699 Y97.839 E3.08644
G1 X123.653 Y98.924 E3.14891
G1 X124.12 Y99.526 E3.18185
G1 X124.91 Y100.691 E3.24271
G1 X125.501 Y101.697 E3.29316
G1 X125.839 Y102.362 E3.32541
G1 X126.365 Y103.581 E3.38282
G1 X126.661 Y104.398 E3.42039
G1 X127.075 Y105.82 E3.48443
G1 X127.294 Y106.827 E3.52899
G1 X127.442 Y107.779 E3.57064
G1 X127.537 Y108.747 E3.6127
G1 X127.58 Y110.221 E3.67646
G1 X127.534 Y111.307 E3.72346
G1 X127.452 Y112.144 E3.75982
G1 X127.291 Y113.179 E3.80511
G1 X126.982 Y114.544 E3.86563
G1 X126.701 Y115.489 E3.90825
G1 X126.408 Y116.307 E3.94582
G1 X125.864 Y117.565 E4.00509
G1 X125.333 Y118.607 E4.05565
G1 X124.928 Y119.292 E4.09006
G1 X124.23 Y120.321 E4.14382
G1 X123.559 Y121.19 E4.19129
G1 X122.919 Y121.923 E4.23337
G1 X121.934 Y122.907 E4.29357
G1 X121.241 Y123.515 E4.33343
G1 X120.173 Y124.343 E4.39186
G1 X119.556 Y124.761 E4.42408
G1 X118.415 Y125.436 E4.48141
G1 X117.573 Y125.864 E4.52225
G1 X116.335 Y126.398 E4.58054
G1 X115.354 Y126.743 E4.62551
G1 X114.247 Y127.058 E4.67527
G1 X113.317 Y127.265 E4.71647
G1 X111.972 Y127.466 E4.77527
G0 F3000 X111.929 Y126.948
G1 F900 X110.866 Y127.037 E4.82139
G1 X109.802 Y127.06 E4.86741
G1 X108.928 Y127.028 E4.90522
G1 X107.68 Y126.905 E4.95944
G1 X106.944 Y126.788 E4.99167
G1 X105.567 Y126.474 E5.05273
G1 X104.823 Y126.255 E5.08627
G1 X103.704 Y125.852 E5.13769
G1 X102.666 Y125.402 E5.18661
G1 X101.798 Y124.961 E5.22871
G1 X100.89 Y124.425 E5.2743
G1 X100.096 Y123.888 E5.31574
G1 X99.037 Y123.069 E5.37363
G1 X98.218 Y122.342 E5.42098
G1 X97.668 Y121.792 E5.45461
G1 X96.907 Y120.934 E5.5042
G1 X96.136 Y119.939 E5.55863
G1 X95.536 Y119.053 E5.60489
G1 X95.09 Y118.298 E5.64281
G1 X94.527 Y117.191 E5.69651
G1 X94.168 Y116.358 E5.73573
G1 X93.798 Y115.327 E5.78309
G1 X93.443 Y114.108 E5.83799
G1 X93.244 Y113.216 E5.8775
G1 X93.06 Y112.031 E5.92935
G1 X92.981 Y111.191 E5.96583
G1 X92.94 Y109.801 E6.02596
G1 X92.984 Y108.744 E6.0717
G1 X93.066 Y107.907 E6.10807
G1 X93.216 Y106.936 E6.15055
G1 X93.517 Y105.604 E6.2096
G1 X93.789 Y104.686 E6.25099
G1 X94.082 Y103.868 E6.28856
G1 X94.613 Y102.642 E6.34633
G1 X95.115 Y101.658 E6.39409
G1 X95.52 Y100.973 E6.4285
G1 X96.182 Y99.997 E6.47949
G1 X96.853 Y99.128 E6.52697
G1 X97.449 Y98.445 E6.56616
G1 X98.434 Y97.461 E6.62636
G1 X99.102 Y96.876 E6.66475
G1 X100.119 Y96.088 E6.72038
G1 X100.736 Y95.67 E6.75261
G1 X101.821 Y95.028 E6.80712
G1 X102.663 Y94.6 E6.84796
G1 X103.871 Y94.08 E6.90482
G1 X104.788 Y93.757 E6.94686
G1 X105.866 Y93.45 E6.99532
G1 X106.796 Y93.243 E7.03652
G1 X108.071 Y93.052 E7.09226
G1 X109.134 Y92.963 E7.13839
G1 X110.198 Y92.94 E7.1844
G1 X111.072 Y92.972 E7.22222
G1 X112.32 Y93.095 E7.27644
G1 X113.056 Y93.212 E7.30866
G1 X114.433 Y93.526 E7.36973
G1 X115.177 Y93.745 E7.40326
G1 X116.296 Y94.148 E7.45469
G1 X117.334 Y94.598 E7.50361
G1 X118.202 Y95.039 E7.5457
G1 X119.083 Y95.558 E7.58992
G1 X119.958 Y96.15 E7.63559
G1 X120.909 Y96.885 E7.68756
G1 X121.781 Y97.657 E7.73792
G1 X122.331 Y98.207 E7.77155
G1 X123.242 Y99.243 E7.8312
G1 X123.709 Y99.845 E7.86414
G1 X124.462 Y100.955 E7.92214
G1 X125.037 Y101.933 E7.97119
G1 X125.375 Y102.598 E8.00345
G1 X125.876 Y103.758 E8.05808
G1 X126.172 Y104.575 E8.09566
G1 X126.567 Y105.931 E8.15672
G1 X126.78 Y106.907 E8.19992
G1 X126.924 Y107.83 E8.24031
G1 X127.019 Y108.798 E8.28236
G1 X127.06 Y110.199 E8.34297
G1 X127.016 Y111.256 E8.38871
G1 X126.934 Y112.093 E8.42507
G1 X126.784 Y113.064 E8.46756
G1 X126.483 Y114.396 E8.5266
G1 X126.211 Y115.314 E8.568
G1 X125.918 Y116.132 E8.60557
G1 X125.387 Y117.358 E8.66334
G1 X124.885 Y118.342 E8.7111
G1 X124.48 Y119.027 E8.74551
G1 X123.818 Y120.003 E8.7965
G1 X123.147 Y120.872 E8.84397
G1 X122.551 Y121.555 E8.88317
G1 X121.566 Y122.539 E8.94337
G1 X120.898 Y123.124 E8.98176
G1 X119.881 Y123.912 E9.03739
G1 X119.264 Y124.33 E9.06961
G1 X118.179 Y124.972 E9.12412
G1 X117.337 Y125.4 E9.16496
G1 X116.129 Y125.92 E9.22183
G1 X115.212 Y126.243 E9.26387
G1 X114.134 Y126.55 E9.31233
G1 X113.204 Y126.757 E9.35352
G1 X111.929 Y126.948 E9.40927
G0 F3000 X111.885 Y126.43
G1 F900 X110.854 Y126.517 E9.45401
G1 X109.821 Y126.54 E9.49868
G1 X108.947 Y126.508 E9.5365
G1 X107.762 Y126.391 E9.58798
G1 X107.026 Y126.274 E9.62021
G1 X105.714 Y125.975 E9.67839
G1 X104.97 Y125.756 E9.71192
G1 X103.881 Y125.363 E9.76198
G1 X102.902 Y124.938 E9.80813
G1 X102.034 Y124.497 E9.85023
G1 X101.181 Y123.994 E9.89304
G1 X100.387 Y123.457 E9.93449
G1 X99.382 Y122.68 E9.98942
G1 X98.586 Y121.974 E10.03542
G1 X98.036 Y121.424 E10.06905
G1 X97.296 Y120.589 E10.11729
G1 X96.567 Y119.647 E10.1688
G1 X95.967 Y118.761 E10.21506
G1 X95.554 Y118.062 E10.25017
G1 X94.991 Y116.955 E10.30387
G1 X94.657 Y116.182 E10.34028
G1 X94.297 Y115.181 E10.38627
G1 X93.951 Y113.995 E10.43969
G1 X93.752 Y113.103 E10.47921
G1 X93.578 Y111.982 E10.52826
G1 X93.499 Y111.142 E10.56474
G1 X93.46 Y109.822 E10.62184
G1 X93.502 Y108.795 E10.66628
G1 X93.584 Y107.958 E10.70264
G1 X93.73 Y107.016 E10.74386
G1 X94.024 Y105.719 E10.80136
G1 X94.279 Y104.861 E10.84006
G1 X94.572 Y104.043 E10.87763
G1 X95.076 Y102.878 E10.93252
G1 X95.563 Y101.923 E10.97887
G1 X95.968 Y101.238 E11.01328
G1 X96.594 Y100.315 E11.0615
G1 X97.265 Y99.446 E11.10897
G1 X97.841 Y98.787 E11.14681
G1 X98.777 Y97.852 E11.20402
G1 X99.445 Y97.267 E11.24241
G1 X100.411 Y96.519 E11.29524
G1 X101.028 Y96.101 E11.32746
G1 X102.057 Y95.492 E11.37916
G1 X102.899 Y95.064 E11.42
G1 X104.044 Y94.57 E11.47392
G1 X104.931 Y94.257 E11.51459
G1 X105.979 Y93.958 E11.56171
G1 X106.909 Y93.751 E11.60291
G1 X108.115 Y93.57 E11.65564
G1 X109.146 Y93.483 E11.70037
G1 X110.179 Y93.46 E11.74505
G1 X111.053 Y93.492 E11.78287
G1 X112.238 Y93.609 E11.83435
G1 X112.974 Y93.726 E11.86657
G1 X114.286 Y94.025 E11.92476
G1 X115.03 Y94.244 E11.95829
G1 X116.119 Y94.637 E12.00835
G1 X117.098 Y95.062 E12.0545
G1 X117.966 Y95.503 E12.09659
G1 X118.792 Y95.989 E12.13803
G1 X119.667 Y96.581 E12.18371
G1 X120.565 Y97.275 E12.23278
G1 X121.413 Y98.025 E12.28173
G1 X121.963 Y98.575 E12.31536
G1 X122.831 Y99.562 E12.37219
G1 X123.298 Y100.164 E12.40514
G1 X124.014 Y101.219 E12.46027
G1 X124.573 Y102.169 E12.50793
G1 X124.911 Y102.834 E12.54018
G1 X125.398 Y103.964 E12.59339
G1 X125.683 Y104.752 E12.62962
G1 X126.059 Y106.042 E12.68771
G1 X126.266 Y106.988 E12.72959
G1 X126.406 Y107.881 E12.76867
G1 X126.501 Y108.849 E12.81073
G1 X126.54 Y110.178 E12.86821
G1 X126.498 Y111.205 E12.91266
G1 X126.416 Y112.042 E12.94902
G1 X126.27 Y112.984 E12.99024
G1 X125.976 Y114.281 E13.04774
G1 X125.721 Y115.139 E13.08644
G1 X125.428 Y115.957 E13.12401
G1 X124.924 Y117.122 E13.17889
G1 X124.437 Y118.077 E13.22525
G1 X124.032 Y118.762 E13.25965
G1 X123.406 Y119.685 E13.30788
G1 X122.735 Y120.554 E13.35535
G1 X122.159 Y121.213 E13.39319
G1 X121.223 Y122.148 E13.4504
G1 X120.555 Y122.733 E13.48879
G1 X119.589 Y123.481 E13.54161
G1 X118.972 Y123.899 E13.57384
G1 X117.943 Y124.508 E13.62554
G1 X117.101 Y124.936 E13.66638
G1 X115.956 Y125.43 E13.7203
G1 X115.069 Y125.743 E13.76097
G1 X114.021 Y126.042 E13.80809
G1 X113.091 Y126.249 E13.84928
G1 X111.885 Y126.43 E13.90201
G0 F3000 X111.841 Y125.912
G1 F900 X110.842 Y125.997 E13.94536
G1 X109.84 Y126.02 E13.9887
G1 X108.966 Y125.988 E14.02652
G1 X107.844 Y125.877 E14.07527
G1 X107.108 Y125.76 E14.10749
G1 X105.861 Y125.476 E14.16279
G1 X105.117 Y125.257 E14.19632
G1 X104.088 Y124.886 E14.24362
G1 X103.138 Y124.474 E14.28839
G1 X102.27 Y124.033 E14.33049
G1 X101.472 Y123.563 E14.37053
G1 X100.678 Y123.026 E14.41198
G1 X99.727 Y122.291 E14.46395
G1 X98.954 Y121.606 E14.5086
G1 X98.404 Y121.056 E14.54224
G1 X97.685 Y120.244 E14.58913
G1 X96.998 Y119.355 E14.63771
G1 X96.398 Y118.469 E14.68398
G1 X96.018 Y117.826 E14.71627
G1 X95.455 Y116.719 E14.76997
G1 X95.135 Y115.976 E14.80495
G1 X94.786 Y115.005 E14.84956
G1 X94.459 Y113.882 E14.90014
G1 X94.26 Y112.99 E14.93965
G1 X94.096 Y111.933 E14.9859
G1 X94.017 Y111.093 E15.02238
G1 X93.98 Y109.843 E15.07645
G1 X94.02 Y108.846 E15.1196
G1 X94.102 Y108.009 E15.15596
G1 X94.244 Y107.096 E15.19591
G1 X94.523 Y105.867 E15.2504
G1 X94.769 Y105.036 E15.28788
G1 X95.062 Y104.218 E15.32544
G1 X95.539 Y103.114 E15.37744
G1 X96.011 Y102.188 E15.42238
G1 X96.416 Y101.503 E15.45679
G1 X97.006 Y100.633 E15.50224
G1 X97.677 Y99.764 E15.54971
G1 X98.232 Y99.13 E15.58615
G1 X99.12 Y98.243 E15.64042
G1 X99.764 Y97.678 E15.67746
G1 X100.703 Y96.95 E15.72883
G1 X101.32 Y96.532 E15.76106
G1 X102.293 Y95.956 E15.80995
G1 X103.135 Y95.528 E15.85079
G1 X104.25 Y95.048 E15.90327
G1 X105.074 Y94.757 E15.94106
G1 X106.092 Y94.466 E15.98684
G1 X107.022 Y94.259 E16.02803
G1 X108.159 Y94.088 E16.07775
G1 X109.158 Y94.003 E16.1211
G1 X110.16 Y93.98 E16.16444
G1 X111.034 Y94.012 E16.20225
G1 X112.156 Y94.123 E16.251
G1 X112.892 Y94.24 E16.28322
G1 X114.139 Y94.524 E16.33852
G1 X114.883 Y94.743 E16.37206
G1 X115.912 Y95.114 E16.41935
G1 X116.862 Y95.526 E16.46413
G1 X117.73 Y95.967 E16.50622
G1 X118.528 Y96.437 E16.54627
G1 X119.375 Y97.011 E16.59051
G1 X120.221 Y97.665 E16.63674
G1 X121.045 Y98.393 E16.68428
G1 X121.595 Y98.943 E16.71791
G1 X122.42 Y99.881 E16.77193
G1 X122.887 Y100.483 E16.80487
G1 X123.566 Y101.483 E16.85713
G1 X124.109 Y102.405 E16.9034
G1 X124.447 Y103.07 E16.93565
G1 X124.909 Y104.141 E16.98609
G1 X125.194 Y104.929 E17.02232
G1 X125.551 Y106.153 E17.07745
G1 X125.752 Y107.069 E17.118
G1 X125.888 Y107.932 E17.15577
G1 X125.983 Y108.9 E17.19783
G1 X126.02 Y110.157 E17.2522
G1 X125.98 Y111.154 E17.29534
G1 X125.898 Y111.991 E17.33171
G1 X125.756 Y112.904 E17.37166
G1 X125.477 Y114.133 E17.42615
G1 X125.231 Y114.964 E17.46362
G1 X124.938 Y115.782 E17.50119
G1 X124.461 Y116.886 E17.55319
G1 X123.989 Y117.812 E17.59813
G1 X123.584 Y118.497 E17.63254
G1 X122.994 Y119.367 E17.67799
G1 X122.323 Y120.236 E17.72546
G1 X121.768 Y120.87 E17.76189
G1 X120.88 Y121.757 E17.81616
G1 X120.236 Y122.322 E17.85321
G1 X119.297 Y123.05 E17.90458
G1 X118.68 Y123.468 E17.9368
G1 X117.707 Y124.044 E17.98569
G1 X116.865 Y124.472 E18.02653
G1 X115.75 Y124.952 E18.07902
G1 X114.926 Y125.243 E18.11681
G1 X113.908 Y125.534 E18.16259
G1 X112.978 Y125.741 E18.20378
G1 X111.841 Y125.912 E18.2535
G0 F3000 X111.797 Y125.394
G1 F900 X110.83 Y125.477 E18.29546
G1 X109.859 Y125.5 E18.33746
G1 X108.985 Y125.468 E18.37527
G1 X107.926 Y125.363 E18.42129
G1 X107.19 Y125.246 E18.45351
G1 X106.008 Y124.977 E18.50592
G1 X105.264 Y124.758 E18.53946
G1 X104.295 Y124.409 E18.58399
G1 X103.374 Y124.01 E18.62739
G1 X102.506 Y123.569 E18.66948
G1 X101.736 Y123.115 E18.70813
G1 X100.97 Y122.596 E18.74814
G1 X100.072 Y121.902 E18.79721
G1 X99.322 Y121.238 E18.84052
G1 X98.772 Y120.688 E18.87416
G1 X98.074 Y119.899 E18.9197
G1 X97.428 Y119.063 E18.96539
G1 X96.846 Y118.204 E19.01025
G1 X96.466 Y117.561 E19.04254
G1 X95.933 Y116.513 E19.09338
G1 X95.613 Y115.77 E19.12836
G1 X95.285 Y114.859 E19.17023
G1 X94.967 Y113.769 E19.21932
G1 X94.768 Y112.877 E19.25884
G1 X94.614 Y111.884 E19.30229
G1 X94.535 Y111.044 E19.33877
G1 X94.5 Y109.863 E19.38985
G1 X94.538 Y108.897 E19.43165
G1 X94.62 Y108.06 E19.46802
G1 X94.751 Y107.211 E19.50516
G1 X95.022 Y106.014 E19.55823
G1 X95.259 Y105.211 E19.59443
G1 X95.552 Y104.393 E19.632
G1 X96.016 Y103.321 E19.6825
G1 X96.459 Y102.453 E19.72464
G1 X96.864 Y101.768 E19.75905
G1 X97.418 Y100.951 E19.80173
G1 X98.089 Y100.082 E19.8492
G1 X98.623 Y99.473 E19.88422
G1 X99.463 Y98.634 E19.93555
G1 X100.107 Y98.069 E19.9726
G1 X100.995 Y97.381 E20.02117
G1 X101.612 Y96.963 E20.05339
G1 X102.529 Y96.42 E20.09947
G1 X103.371 Y95.992 E20.14031
G1 X104.423 Y95.538 E20.18985
G1 X105.217 Y95.257 E20.22627
G1 X106.205 Y94.974 E20.27071
G1 X107.135 Y94.767 E20.3119
G1 X108.203 Y94.606 E20.3586
G1 X109.17 Y94.523 E20.40057
G1 X110.141 Y94.5 E20.44257
G1 X111.015 Y94.532 E20.48038
G1 X112.074 Y94.637 E20.52639
G1 X112.81 Y94.754 E20.55862
G1 X113.992 Y95.023 E20.61103
G1 X114.736 Y95.242 E20.64457
G1 X115.705 Y95.591 E20.6891
G1 X116.626 Y95.99 E20.7325
G1 X117.494 Y96.431 E20.77459
G1 X118.264 Y96.885 E20.81324
G1 X119.083 Y97.441 E20.85604
G1 X119.877 Y98.055 E20.89944
G1 X120.677 Y98.761 E20.94558
G1 X121.227 Y99.311 E20.97921
G1 X122.009 Y100.2 E21.0304
G1 X122.476 Y100.802 E21.06335
G1 X123.136 Y101.775 E21.11418
G1 X123.645 Y102.641 E21.15761
G1 X123.983 Y103.306 E21.18987
G1 X124.42 Y104.318 E21.23753
G1 X124.705 Y105.106 E21.27376
G1 X125.043 Y106.265 E21.32596
G1 X125.238 Y107.15 E21.36515
G1 X125.37 Y107.983 E21.40161
G1 X125.465 Y108.951 E21.44367
G1 X125.5 Y110.137 E21.49497
G1 X125.462 Y111.103 E21.53677
G1 X125.38 Y111.94 E21.57314
G1 X125.249 Y112.789 E21.61028
G1 X124.978 Y113.986 E21.66335
G1 X124.741 Y114.789 E21.69955
G1 X124.448 Y115.607 E21.73712
G1 X123.984 Y116.679 E21.78762
G1 X123.541 Y117.547 E21.82976
G1 X123.136 Y118.232 E21.86417
G1 X122.582 Y119.049 E21.90685
G1 X121.911 Y119.918 E21.95432
G1 X121.377 Y120.527 E21.98934
G1 X120.537 Y121.366 E22.04067
G1 X119.893 Y121.931 E22.07772
G1 X119.005 Y122.619 E22.12629
G1 X118.388 Y123.037 E22.15851
G1 X117.471 Y123.58 E22.20459
G1 X116.629 Y124.008 E22.24543
G1 X115.577 Y124.462 E22.29497
G1 X114.783 Y124.743 E22.33139
G1 X113.795 Y125.026 E22.37583
G1 X112.865 Y125.233 E22.41702
G1 X111.797 Y125.394 E22.46372
G0 F3000 X111.752 Y124.876
G1 F900 X110.817 Y124.957 E22.5043
G1 X109.878 Y124.98 E22.54492
