;FLAVOR:Marlin
;TIME:19338
;Filament used: 20.2947m
;Layer height: 0.2
;MINX:48.02
;MINY:73.02
;MINZ:0.2
;MAXX:171.98
;MAXY:146.98
;MAXZ:34.8
;TARGET_MACHINE.NAME:Creality Ender-3 V3 SE
;Generated with Cura_SteamEngine 5.9.0
M82 ;absolute extrusion mode
M220 S100 ;Reset Feedrate
M221 S100 ;Reset Flowrate

G28 ;Home

M420 S1; Use saved mesh leveling data

G92 E0 ;Reset Extruder
G1 Z2.0 F3000 ;Move Z Axis up
G1 X-3 Y20 Z0.28 F5000.0 ;Move to start position
M190 S65 ; Set bed temperature and wait
M109 S205.0 ; Set hotend temperature and wait
G1 X-3 Y100.0 Z0.28 F1500.0 E15 ;Draw the first line
G1 X-2 Y100.0 Z0.28 F5000.0 ;Move to side a little
G1 X-2 Y20 Z0.28 F1500.0 E30 ;Draw the second line
G92 E0 ;Reset Extruder
G1 E-1.0000 F1800 ;Retract a bit
G1 Z2.0 F3000 ;Move Z Axis up
G1 E0.0000 F1800 

G92 E0
G92 E0
G1 F2400 E-0.8
;LAYER_COUNT:174
;LAYER:0
M107
M204 S500
M205 X8 Y8
G0 F3000 X49.371 Y75.157 Z0.2
;TYPE:SKIRT
G1 F2400 E0
G1 F900 X50.487 Y74.108 E0.06622
G1 X51.777 Y73.448 E0.12888
G1 X52.47 Y73.188 E0.16088
G1 X53.734 Y73.036 E0.21593
G1 X69.003 Y73.02 E0.87613
G1 X70.274 Y73.296 E0.93237
G1 X70.93 Y73.522 E0.96237
G1 X71.42 Y73.833 E0.98746
G1 X72.123 Y73.472 E1.02163
G1 X72.869 Y73.189 E1.05613
G1 X74.005 Y73.044 E1.10565
G1 X166.551 Y73.02 E5.10717
G1 X167.839 Y73.301 E5.16417
G1 X168.466 Y73.517 E5.19284
G1 X169.843 Y74.371 E5.2629
G1 X170.892 Y75.487 E5.32913
G1 X171.552 Y76.777 E5.39178
G1 X171.811 Y77.469 E5.42373
G1 X171.956 Y78.604 E5.4732
G1 X171.98 Y141.551 E8.19492
G1 X171.699 Y142.839 E8.25192
G1 X171.483 Y143.466 E8.28059
G1 X170.629 Y144.843 E8.35065
G1 X169.513 Y145.892 E8.41688
G1 X168.223 Y146.552 E8.47953
G1 X167.531 Y146.811 E8.51148
G1 X166.396 Y146.956 E8.56095
G1 X53.449 Y146.98 E13.44457
G1 X52.161 Y146.699 E13.50157
G1 X51.534 Y146.483 E13.53025
G1 X50.157 Y145.629 E13.60031
G1 X49.108 Y144.513 E13.66653
G1 X48.448 Y143.223 E13.72919
G1 X48.189 Y142.531 E13.76113
G1 X48.044 Y141.396 E13.81061
G1 X48.02 Y78.449 E16.53232
G1 X48.301 Y77.161 E16.58932
G1 X48.517 Y76.534 E16.618
G1 X49.371 Y75.157 E16.68806
G1 F2400 E15.88806
G0 F3000 X50.79 Y74.537
G1 F2400 E16.68806
G1 F900 X51.96 Y73.935 E16.74495
G1 X52.596 Y73.696 E16.77433
G1 X53.735 Y73.556 E16.82395
G1 X68.945 Y73.54 E17.4816
G1 X70.105 Y73.788 E17.53289
G1 X70.703 Y73.994 E17.56024
G1 X71.393 Y74.432 E17.59557
G1 X72.361 Y73.935 E17.64262
G1 X72.996 Y73.697 E17.67194
G1 X74.071 Y73.56 E17.7188
G1 X166.496 Y73.54 E21.71509
G1 X167.67 Y73.793 E21.76702
G1 X168.242 Y73.99 E21.79317
G1 X169.511 Y74.777 E21.85774
G1 X170.463 Y75.79 E21.91784
G1 X171.065 Y76.96 E21.97474
G1 X171.303 Y77.595 E22.00406
G1 X171.44 Y78.67 E22.05092
G1 X171.46 Y141.496 E24.7674
G1 X171.207 Y142.67 E24.81932
G1 X171.01 Y143.242 E24.84548
G1 X170.223 Y144.511 E24.91005
G1 X169.21 Y145.463 E24.97015
G1 X168.04 Y146.065 E25.02705
G1 X167.405 Y146.303 E25.05637
G1 X166.33 Y146.44 E25.10322
G1 X53.504 Y146.46 E29.98161
G1 X52.33 Y146.207 E30.03354
G1 X51.758 Y146.01 E30.0597
G1 X50.489 Y145.223 E30.12426
G1 X49.537 Y144.21 E30.18437
G1 X48.935 Y143.04 E30.24126
G1 X48.697 Y142.405 E30.27058
G1 X48.56 Y141.33 E30.31744
G1 X48.54 Y78.504 E33.03392
G1 X48.793 Y77.33 E33.08585
G1 X48.99 Y76.758 E33.11201
G1 X49.777 Y75.489 E33.17657
G1 X50.79 Y74.537 E33.23668
G0 F3000 X52.143 Y74.422
G1 F900 X52.721 Y74.205 E33.26337
G1 X53.736 Y74.076 E33.30761
G1 X68.89 Y74.06 E33.96285
G1 X69.936 Y74.28 E34.00906
G1 X70.476 Y74.466 E34.03376
G1 X71.411 Y75.06 E34.08165
G1 X71.621 Y74.9 E34.09307
G1 X72.544 Y74.422 E34.13801
G1 X73.122 Y74.205 E34.16471
G1 X74.137 Y74.076 E34.20895
G1 X166.442 Y74.06 E38.20005
G1 X167.56 Y74.301 E38.2495
G1 X168.016 Y74.462 E38.27041
G1 X169.179 Y75.183 E38.32957
G1 X170.034 Y76.092 E38.38353
G1 X170.578 Y77.143 E38.4347
G1 X170.795 Y77.721 E38.46139
G1 X170.924 Y78.736 E38.50563
G1 X170.94 Y141.442 E41.21693
G1 X170.699 Y142.56 E41.26638
G1 X170.538 Y143.016 E41.28729
G1 X169.817 Y144.179 E41.34645
G1 X168.908 Y145.034 E41.40041
G1 X167.857 Y145.578 E41.45158
G1 X167.279 Y145.795 E41.47828
G1 X166.264 Y145.924 E41.52252
G1 X53.558 Y145.94 E46.39572
G1 X52.44 Y145.699 E46.44517
G1 X51.984 Y145.538 E46.46608
G1 X50.821 Y144.817 E46.52524
G1 X49.966 Y143.908 E46.5792
G1 X49.422 Y142.857 E46.63037
G1 X49.205 Y142.279 E46.65707
G1 X49.076 Y141.264 E46.70131
G1 X49.06 Y78.558 E49.4126
G1 X49.301 Y77.44 E49.46205
G1 X49.462 Y76.984 E49.48296
G1 X50.183 Y75.821 E49.54212
G1 X51.092 Y74.966 E49.59608
G1 X52.143 Y74.422 E49.64725
G0 F3000 X52.845 Y74.714
G1 F900 X53.802 Y74.592 E49.68897
G1 X68.836 Y74.58 E50.33901
G1 X69.829 Y74.789 E50.38288
G1 X70.246 Y74.936 E50.402
G1 X71.251 Y75.58 E50.45361
G1 X71.599 Y75.58 E50.46866
G1 X71.86 Y75.362 E50.48336
G1 X72.783 Y74.884 E50.52831
G1 X73.246 Y74.714 E50.54963
G1 X74.203 Y74.592 E50.59135
G1 X166.388 Y74.58 E54.57726
G1 X167.45 Y74.809 E54.62423
G1 X167.787 Y74.932 E54.63974
G1 X168.847 Y75.589 E54.69367
G1 X169.605 Y76.395 E54.74151
G1 X170.116 Y77.382 E54.78956
G1 X170.286 Y77.845 E54.81089
G1 X170.408 Y78.802 E54.8526
G1 X170.42 Y141.388 E57.55871
G1 X170.191 Y142.45 E57.60568
G1 X170.068 Y142.787 E57.62119
G1 X169.411 Y143.847 E57.67511
G1 X168.605 Y144.605 E57.72296
G1 X167.618 Y145.116 E57.77101
G1 X167.155 Y145.286 E57.79234
G1 X166.198 Y145.408 E57.83405
G1 X53.612 Y145.42 E62.70206
G1 X52.55 Y145.191 E62.74904
G1 X52.213 Y145.068 E62.76455
G1 X51.153 Y144.411 E62.81847
G1 X50.395 Y143.605 E62.86631
G1 X49.884 Y142.618 E62.91437
G1 X49.714 Y142.155 E62.9357
G1 X49.592 Y141.198 E62.97741
G1 X49.58 Y78.612 E65.68351
G1 X49.809 Y77.55 E65.73049
G1 X49.932 Y77.213 E65.746
G1 X50.589 Y76.153 E65.79992
G1 X51.395 Y75.395 E65.84776
G1 X52.382 Y74.884 E65.89582
G1 X52.845 Y74.714 E65.91714
G0 F3000 X53.868 Y75.108
G1 F900 X68.781 Y75.1 E66.56196
G1 X69.722 Y75.298 E66.60353
G1 X70.017 Y75.407 E66.61713
G1 X70.837 Y75.932 E66.65923
G1 X71.038 Y76.1 E66.67056
G1 X71.806 Y76.1 E66.70377
G1 X72.099 Y75.824 E66.72117
G1 X73.022 Y75.346 E66.76611
G1 X73.369 Y75.223 E66.78203
G1 X74.269 Y75.108 E66.82126
G1 X166.332 Y75.1 E70.8019
G1 X167.272 Y75.298 E70.84343
G1 X167.56 Y75.403 E70.85669
G1 X168.515 Y75.995 E70.90527
G1 X169.176 Y76.698 E70.94699
G1 X169.654 Y77.621 E70.99194
G1 X169.777 Y77.968 E71.00785
G1 X169.892 Y78.868 E71.04709
G1 X169.9 Y141.332 E73.74791
G1 X169.702 Y142.272 E73.78945
G1 X169.597 Y142.56 E73.80271
G1 X169.005 Y143.515 E73.85129
G1 X168.302 Y144.176 E73.89301
G1 X167.379 Y144.654 E73.93795
G1 X167.032 Y144.777 E73.95387
G1 X166.132 Y144.892 E73.9931
G1 X53.668 Y144.9 E78.85584
G1 X52.728 Y144.702 E78.89738
G1 X52.44 Y144.597 E78.91063
G1 X51.485 Y144.005 E78.95921
G1 X50.824 Y143.302 E79.00094
G1 X50.346 Y142.379 E79.04588
G1 X50.223 Y142.032 E79.0618
G1 X50.108 Y141.132 E79.10103
G1 X50.1 Y78.668 E81.80186
G1 X50.298 Y77.728 E81.84339
G1 X50.403 Y77.44 E81.85665
G1 X50.995 Y76.485 E81.90523
G1 X51.698 Y75.824 E81.94695
G1 X52.621 Y75.346 E81.9919
G1 X52.968 Y75.223 E82.00781
G1 X53.868 Y75.108 E82.04705
G0 F3000 X53.934 Y75.624
G1 F900 X68.726 Y75.62 E82.68662
G1 X69.615 Y75.807 E82.7259
G1 X69.785 Y75.876 E82.73384
G1 X70.557 Y76.37 E82.77347
G1 X70.842 Y76.62 E82.78986
G1 X72.012 Y76.62 E82.84045
G1 X72.403 Y76.252 E82.86366
G1 X73.196 Y75.836 E82.90238
G1 X73.489 Y75.732 E82.91583
G1 X74.335 Y75.624 E82.9527
G1 X166.277 Y75.62 E86.92811
G1 X167.165 Y75.807 E86.96734
G1 X167.332 Y75.874 E86.97512
G1 X168.183 Y76.401 E87.0184
G1 X168.748 Y77.002 E87.05407
G1 X169.164 Y77.795 E87.09279
G1 X169.268 Y78.088 E87.10623
G1 X169.376 Y78.934 E87.14311
G1 X169.38 Y141.277 E89.83871
G1 X169.193 Y142.165 E89.87794
G1 X169.126 Y142.332 E89.88572
G1 X168.599 Y143.183 E89.929
G1 X167.998 Y143.748 E89.96467
G1 X167.205 Y144.164 E90.00339
G1 X166.912 Y144.268 E90.01683
G1 X166.066 Y144.376 E90.05371
G1 X53.723 Y144.38 E94.91122
G1 X52.835 Y144.193 E94.95045
G1 X52.668 Y144.126 E94.95823
G1 X51.817 Y143.599 E95.00151
G1 X51.252 Y142.998 E95.03718
G1 X50.836 Y142.205 E95.0759
G1 X50.732 Y141.912 E95.08934
G1 X50.624 Y141.066 E95.12622
G1 X50.62 Y78.723 E97.82182
G1 X50.807 Y77.835 E97.86105
G1 X50.874 Y77.668 E97.86883
G1 X51.401 Y76.817 E97.91211
G1 X52.002 Y76.252 E97.94778
G1 X52.795 Y75.836 E97.9865
G1 X53.088 Y75.732 E97.99994
G1 X53.934 Y75.624 E98.03682
G0 F3000 X54 Y76.14
G1 F900 X68.671 Y76.14 E98.67117
G1 X69.508 Y76.316 E98.70815
G1 X70.217 Y76.763 E98.74439
G1 X70.477 Y76.988 E98.75926
G1 X70.604 Y77.14 E98.76782
G1 X72.068 Y77.14 E98.83112
G1 X72.199 Y77.158 E98.83684
G1 X72.708 Y76.679 E98.86706
G1 X73.438 Y76.296 E98.9027
G1 X73.611 Y76.241 E98.91055
G1 X74.401 Y76.14 E98.94499
G1 X166.222 Y76.14 E102.91516
G1 X167.058 Y76.316 E102.9521
G1 X167.851 Y76.807 E102.99243
G1 X168.321 Y77.307 E103.0221
G1 X168.704 Y78.037 E103.05774
G1 X168.759 Y78.21 E103.06559
G1 X168.86 Y79 E103.10003
G1 X168.86 Y141.222 E105.7904
G1 X168.684 Y142.058 E105.82734
G1 X168.193 Y142.851 E105.86766
G1 X167.693 Y143.321 E105.89733
G1 X166.963 Y143.704 E105.93298
G1 X166.79 Y143.759 E105.94083
G1 X166 Y143.86 E105.97526
G1 X53.778 Y143.86 E110.82754
G1 X52.942 Y143.684 E110.86448
G1 X52.149 Y143.193 E110.90481
G1 X51.679 Y142.693 E110.93448
G1 X51.296 Y141.963 E110.97012
G1 X51.241 Y141.79 E110.97797
G1 X51.14 Y141 E111.01241
G1 X51.14 Y78.778 E113.70277
G1 X51.316 Y77.942 E113.73971
G1 X51.807 Y77.149 E113.78004
G1 X52.307 Y76.679 E113.80971
G1 X53.037 Y76.296 E113.84536
G1 X53.21 Y76.241 E113.8532
G1 X54 Y76.14 E113.88764
G0 F3000 X54 Y76.66
G1 F900 X68.616 Y76.66 E114.51961
G1 X69.311 Y76.806 E114.55032
G1 X69.877 Y77.156 E114.57909
G1 X70.137 Y77.381 E114.59396
G1 X70.34 Y77.66 E114.60888
G1 X72.068 Y77.66 E114.68359
G1 X72.452 Y77.741 E114.70056
G1 X72.662 Y77.436 E114.71657
G1 X73.013 Y77.106 E114.7374
G1 X73.68 Y76.756 E114.76997
G1 X74.401 Y76.66 E114.80142
G1 X166.167 Y76.66 E118.76922
G1 X166.863 Y76.807 E118.79997
G1 X167.518 Y77.212 E118.83327
G1 X167.894 Y77.612 E118.85701
G1 X168.244 Y78.279 E118.88958
G1 X168.34 Y79 E118.92103
G1 X168.34 Y141.167 E121.60901
G1 X168.193 Y141.863 E121.63977
G1 X167.788 Y142.518 E121.67307
G1 X167.388 Y142.894 E121.69681
G1 X166.721 Y143.244 E121.72938
G1 X166 Y143.34 E121.76083
G1 X53.833 Y143.34 E126.61072
G1 X53.137 Y143.193 E126.64148
G1 X52.482 Y142.788 E126.67478
G1 X52.106 Y142.388 E126.69851
G1 X51.756 Y141.721 E126.73108
G1 X51.66 Y141 E126.76253
G1 X51.66 Y78.833 E129.45052
G1 X51.807 Y78.137 E129.48128
G1 X52.212 Y77.482 E129.51458
G1 X52.612 Y77.106 E129.53831
G1 X53.279 Y76.756 E129.57088
G1 X54 Y76.66 E129.60233
G0 F3000 X54 Y77.18
G1 F900 X68.561 Y77.18 E130.23192
G1 X69.117 Y77.297 E130.25649
G1 X69.604 Y77.598 E130.28124
G1 X69.75 Y77.733 E130.28984
G1 X70.075 Y78.18 E130.31374
G1 X72.012 Y78.18 E130.39749
G1 X72.483 Y78.28 E130.41831
G1 X72.676 Y78.368 E130.42748
G1 X73.018 Y77.815 E130.4556
G1 X73.318 Y77.533 E130.4734
G1 X73.839 Y77.259 E130.49885
G1 X74.401 Y77.18 E130.52339
G1 X166.111 Y77.18 E134.48876
G1 X166.669 Y77.298 E134.51342
G1 X167.185 Y77.617 E134.53965
G1 X167.467 Y77.917 E134.55746
G1 X167.741 Y78.438 E134.58291
G1 X167.82 Y79 E134.60745
G1 X167.82 Y141.111 E137.29301
G1 X167.702 Y141.669 E137.31767
G1 X167.383 Y142.185 E137.3439
G1 X167.083 Y142.467 E137.36171
G1 X166.562 Y142.741 E137.38716
G1 X166 Y142.82 E137.4117
G1 X53.889 Y142.82 E142.25917
G1 X53.331 Y142.702 E142.28383
G1 X52.815 Y142.383 E142.31006
G1 X52.533 Y142.083 E142.32787
G1 X52.259 Y141.562 E142.35332
G1 X52.18 Y141 E142.37786
G1 X52.18 Y78.889 E145.06342
G1 X52.298 Y78.331 E145.08808
G1 X52.617 Y77.815 E145.11431
G1 X52.917 Y77.533 E145.13212
G1 X53.438 Y77.259 E145.15757
G1 X54 Y77.18 E145.18211
G0 F3000 X54 Y77.7
G1 F900 X53.6 Y77.761 E145.1996
G1 X53.222 Y77.96 E145.21807
G1 X53.023 Y78.147 E145.22988
G1 X52.788 Y78.527 E145.2492
G1 X52.7 Y78.944 E145.26763
G1 X52.7 Y141 E147.95082
G1 X52.761 Y141.4 E147.96831
G1 X52.96 Y141.778 E147.98678
G1 X53.147 Y141.977 E147.99859
G1 X53.527 Y142.212 E148.01791
G1 X53.944 Y142.3 E148.03633
G1 X166 Y142.3 E152.88143
G1 X166.4 Y142.239 E152.89893
G1 X166.778 Y142.04 E152.9174
G1 X166.977 Y141.853 E152.9292
G1 X167.212 Y141.473 E152.94852
G1 X167.3 Y141.056 E152.96695
G1 X167.3 Y79 E155.65014
G1 X167.239 Y78.6 E155.66763
G1 X167.04 Y78.222 E155.6861
G1 X166.853 Y78.023 E155.69791
G1 X166.473 Y77.788 E155.71723
G1 X166.056 Y77.7 E155.73566
G1 X74.401 Y77.7 E159.69865
G1 X74.001 Y77.761 E159.71615
G1 X73.623 Y77.96 E159.73462
G1 X73.424 Y78.147 E159.74643
G1 X73.189 Y78.527 E159.76574
G1 X73.101 Y78.944 E159.78417
G1 X73.101 Y79.53 E159.80951
G1 X72.942 Y79.225 E159.82438
G1 X72.756 Y79.025 E159.83619
G1 X72.375 Y78.789 E159.85557
G1 X71.956 Y78.7 E159.87409
G1 X69.74 Y78.7 E159.96991
G1 X69.649 Y78.474 E159.98044
G1 X69.331 Y78.04 E160.0037
G1 X68.923 Y77.788 E160.02444
G1 X68.506 Y77.7 E160.04287
G1 X54 Y77.7 E160.67008
G1 F2400 E159.87008
G0 F3000 X69.103 Y78.947
G0 X72.553 Y79.347
G0 X73.88 Y81.734
G1 F2400 E160.67008
G1 F900 X73.72 Y81.681 E160.67737
G1 X73.72 Y118.18 E162.25552
G1 X73.88 Y118.18 E162.26243
G1 X73.88 Y81.734 E163.83829
G0 F3000 X74.4 Y81.312
G1 F900 X73.928 Y81.212 E163.85915
G1 X73.518 Y80.959 E163.87999
G1 X73.2 Y80.524 E163.90328
G1 X73.2 Y118.7 E165.55395
G1 X74.4 Y118.7 E165.60583
G1 X74.4 Y81.312 E167.22242
G0 F3000 X75.44 Y80.26
G1 F900 X74.401 Y80.26 E167.26734
G1 X74.264 Y80.221 E167.2735
G1 X74.141 Y80.085 E167.28143
G1 X74.141 Y79 E167.32835
G1 X74.18 Y78.863 E167.3345
G1 X74.286 Y78.767 E167.34069
G1 X74.401 Y78.74 E167.3458
G1 X166 Y78.74 E171.30637
G1 X166.137 Y78.779 E171.31253
G1 X166.233 Y78.885 E171.31871
G1 X166.26 Y79 E171.32382
G1 X166.26 Y141 E174.00459
G1 X166.221 Y141.137 E174.01074
G1 X166.115 Y141.233 E174.01693
G1 X166 Y141.26 E174.02204
G1 X54 Y141.26 E178.86471
G1 X53.863 Y141.221 E178.87087
G1 X53.767 Y141.115 E178.87705
G1 X53.74 Y141 E178.88216
G1 X53.74 Y79 E181.56293
G1 X53.779 Y78.863 E181.56909
G1 X53.885 Y78.767 E181.57527
G1 X54 Y78.74 E181.58038
G1 X68.45 Y78.74 E182.20517
G1 X68.587 Y78.779 E182.21133
G1 X68.71 Y78.915 E182.21926
G1 X68.71 Y80 E182.26617
G1 X68.671 Y80.137 E182.27233
G1 X68.535 Y80.26 E182.28026
G1 X68.01 Y80.26 E182.30296
G1 X68.011 Y88.653 E182.66586
G1 X68.419 Y88.861 E182.68566
G1 X68.633 Y89.075 E182.69874
G1 X68.709 Y89.259 E182.70735
G1 X68.709 Y90.063 E182.74212
G1 X68.67 Y90.2 E182.74827
G1 X68.245 Y90.448 E182.76955
G1 X68.009 Y90.351 E182.78058
G1 X67.881 Y90.495 E182.78891
G1 X67.714 Y90.789 E182.80353
G1 X67.603 Y91.124 E182.81879
G1 X67.561 Y91.466 E182.83369
G1 X67.59 Y91.813 E182.84875
G1 X67.687 Y92.147 E182.86379
G1 X67.847 Y92.454 E182.87875
G1 X68.003 Y92.646 E182.88945
G1 X68.27 Y92.554 E182.90166
G1 X68.708 Y92.832 E182.92409
G1 X68.708 Y93.742 E182.96344
G1 X68.632 Y93.926 E182.97205
G1 X68.421 Y94.137 E182.98495
G1 X68.01 Y94.347 E183.0049
G1 X68.01 Y119.74 E184.10285
G1 X68.45 Y119.74 E184.12188
G1 X68.587 Y119.779 E184.12804
G1 X68.71 Y119.915 E184.13596
G1 X68.71 Y120.54 E184.16299
G1 X72.44 Y120.54 E184.32427
G1 X72.44 Y120 E184.34762
G1 X72.479 Y119.863 E184.35377
G1 X72.615 Y119.74 E184.3617
G1 X75.44 Y119.74 E184.48385
G1 X75.44 Y80.26 E186.19089
G1 F2400 E185.39089
G0 F3000 X72.16 Y80
G1 F2400 E186.19089
G1 F900 X72.16 Y120 E187.92042
G1 X72.121 Y120.137 E187.92658
G1 X71.985 Y120.26 E187.93451
G1 X69.25 Y120.26 E188.05276
G1 X69.113 Y120.221 E188.05892
G1 X69.017 Y120.115 E188.06511
G1 X68.99 Y120 E188.07021
G1 X68.988 Y92.633 E189.25351
G1 X69.101 Y92.347 E189.26681
G1 X69.236 Y91.498 E189.30398
G1 X69.101 Y90.652 E189.34102
G1 X68.989 Y90.368 E189.35422
G1 X68.99 Y80 E189.80252
G1 X69.029 Y79.863 E189.80868
G1 X69.165 Y79.74 E189.8166
G1 X71.9 Y79.74 E189.93486
G1 X72.037 Y79.779 E189.94102
G1 X72.133 Y79.885 E189.9472
G1 X72.16 Y80 E189.95231
G1 F2400 E189.15231
G0 F3000 X73.652 Y80.261
G1 F2400 E189.95231
G1 F900 X73.621 Y80.085 E189.96004
G1 X73.621 Y79 E190.00695
G1 X73.68 Y78.721 E190.01928
G1 X73.866 Y78.42 E190.03458
G1 X74.167 Y78.261 E190.0493
G1 X74.401 Y78.22 E190.05957
G1 X166 Y78.22 E194.02014
G1 X166.279 Y78.279 E194.03248
G1 X166.58 Y78.465 E194.04777
