;FLAVOR:Marlin
;TIME:1051
;Filament used: 0.764988m
;Layer height: 0.2
;MINX:103.441
;MINY:89.982
;MINZ:0.28
;MAXX:122.863
;MAXY:108.404
;MAXZ:12.28
;TARGET_MACHINE.NAME:Creality Ender-3 V3 SE
;Generated with Cura_SteamEngine 5.9.0
M82 ;absolute extrusion mode
M220 S100 ;Reset Feedrate
M221 S100 ;Reset Flowrate

G28 ;Home

M420 S1; Use saved mesh leveling data

G92 E0 ;Reset Extruder
G1 Z2.0 F3000 ;Move Z Axis up
G1 X-3 Y20 Z0.28 F5000.0 ;Move to start position
M190 S60 ; Set bed temperature and wait
M109 S215.0 ; Set hotend temperature and wait
G1 X-3 Y100.0 Z0.28 F1500.0 E15 ;Draw the first line
G1 X-2 Y100.0 Z0.28 F5000.0 ;Move to side a little
G1 X-2 Y20 Z0.28 F1500.0 E30 ;Draw the second line
G92 E0 ;Reset Extruder
G1 E-1.0000 F1800 ;Retract a bit
G1 Z2.0 F3000 ;Move Z Axis up
G1 E0.0000 F1800 

G92 E0
G92 E0
G1 F2400 E-0.9
;LAYER_COUNT:55
;LAYER:0
M107
M205 X8 Y8
G1 F300 Z1.48
G0 F6000 X107.323 Y93.783 Z1.48
;TYPE:SKIRT
G1 F300 Z0.28
G1 F2400 E0
G1 F1200 X107.29 Y93.816 E0.00217
G1 X107.243 Y93.882 E0.00595
G1 X107.243 Y93.783 E0.01056
G1 X107.323 Y93.783 E0.01428
G0 F6000 X106.932 Y95.088
G1 F1200 X106.843 Y95.265 E0.02351
G1 X106.843 Y93.382 E0.11119
G1 X108.398 Y93.383 E0.18359
G1 X108.333 Y93.425 E0.1872
G1 X107.919 Y93.742 E0.21148
G1 X107.558 Y94.118 E0.23575
G1 X107.277 Y94.517 E0.25847
G1 X106.932 Y95.088 E0.28954
G0 F6000 X106.912 Y96.201
G1 F1200 X106.842 Y96.846 E0.31975
G1 X106.842 Y97.274 E0.33968
G1 X106.841 Y97.294 E0.34061
G1 X106.842 Y99.756 E0.45525
G1 X106.84 Y99.796 E0.45712
G1 X106.842 Y101.523 E0.53753
G1 X106.883 Y102.011 E0.56034
G1 X107.002 Y102.486 E0.58314
G1 X107.221 Y102.98 E0.6083
G1 X107.514 Y103.506 E0.63633
G1 X107.786 Y103.913 E0.65913
G1 X108.291 Y104.413 E0.69222
G1 X108.73 Y104.755 E0.71813
G1 X109.14 Y105.023 E0.74094
G1 X109.776 Y105.28 E0.77288
G1 X110.178 Y105.391 E0.7923
G1 X110.232 Y105.401 E0.79486
G1 X106.441 Y105.4 E0.97138
G1 X106.443 Y92.982 E1.54962
G1 X110.232 Y92.983 E1.72605
G1 X110.186 Y92.991 E1.72822
G1 X109.712 Y93.112 E1.751
G1 X109.264 Y93.309 E1.77379
G1 X109.052 Y93.434 E1.78525
G1 X108.551 Y93.76 E1.81308
G1 X108.164 Y94.06 E1.83588
G1 X107.83 Y94.419 E1.85872
G1 X107.619 Y94.724 E1.87599
G1 X107.274 Y95.295 E1.90705
G1 X107.056 Y95.733 E1.92983
G1 X106.912 Y96.201 E1.95263
G0 F6000 X107.242 Y97.282
G1 F1200 X107.241 Y97.294 E1.95319
G1 X107.242 Y99.772 E2.06858
G1 X107.24 Y99.796 E2.0697
G1 X107.242 Y101.523 E2.15012
G1 X107.282 Y101.977 E2.17134
G1 X107.402 Y102.417 E2.19258
G1 X107.571 Y102.785 E2.21143
G1 X107.864 Y103.311 E2.23947
G1 X108.119 Y103.688 E2.26066
G1 X108.537 Y104.097 E2.28789
G1 X108.976 Y104.439 E2.31381
G1 X109.359 Y104.687 E2.33505
G1 X109.882 Y104.894 E2.36124
G1 X110.284 Y105.005 E2.38066
G1 X110.732 Y105.088 E2.40188
G1 X110.974 Y105.099 E2.41316
G1 X115.25 Y105.103 E2.61227
G1 X115.748 Y105.055 E2.63556
G1 X116.16 Y104.975 E2.65511
G1 X116.598 Y104.85 E2.67632
G1 X117.007 Y104.649 E2.69754
G1 X117.245 Y104.487 E2.71094
G1 X117.813 Y104.052 E2.74426
G1 X118.149 Y103.745 E2.76545
G1 X118.426 Y103.383 E2.78667
G1 X118.654 Y102.934 E2.81012
G1 X118.879 Y102.358 E2.83892
G1 X119.007 Y101.921 E2.86012
G1 X119.057 Y101.412 E2.88393
G1 X119.057 Y101.165 E2.89544
G1 X119.063 Y101.093 E2.8988
G1 X119.063 Y100.483 E2.9272
G1 X119.067 Y99.808 E2.95864
G1 X119.063 Y99.759 E2.96093
G1 X119.062 Y98.593 E3.01522
G1 X119.062 Y96.942 E3.0921
G1 X119.022 Y96.488 E3.11332
G1 X118.861 Y95.94 E3.13991
G1 X118.674 Y95.492 E3.16252
G1 X118.463 Y95.089 E3.1837
G1 X118.184 Y94.728 E3.20495
G1 X117.814 Y94.328 E3.23032
G1 X117.476 Y94.022 E3.25155
G1 X117.09 Y93.78 E3.27276
G1 X116.814 Y93.658 E3.28681
G1 X116.254 Y93.449 E3.31465
G1 X115.815 Y93.328 E3.33585
G1 X115.346 Y93.285 E3.35778
G1 X111.078 Y93.283 E3.55652
G1 X110.642 Y93.32 E3.57689
G1 X110.253 Y93.386 E3.59526
G1 X109.812 Y93.501 E3.61649
G1 X109.27 Y93.77 E3.64466
G1 X108.769 Y94.096 E3.67249
G1 X108.41 Y94.377 E3.69372
G1 X108.106 Y94.716 E3.71492
G1 X107.962 Y94.93 E3.72694
G1 X107.617 Y95.501 E3.758
G1 X107.416 Y95.911 E3.77926
G1 X107.29 Y96.348 E3.80044
G1 X107.242 Y96.846 E3.82374
G1 X107.242 Y97.282 E3.84404
G0 F6000 X107.642 Y97.286
G1 F1200 X107.641 Y97.294 E3.84441
G1 X107.642 Y99.779 E3.96013
G1 X107.64 Y99.796 E3.96092
G1 X107.642 Y101.523 E4.04134
G1 X107.682 Y101.94 E4.06085
G1 X107.801 Y102.342 E4.08037
G1 X107.92 Y102.591 E4.09322
G1 X108.213 Y103.117 E4.12125
G1 X108.451 Y103.462 E4.14077
G1 X108.783 Y103.782 E4.16224
G1 X109.222 Y104.124 E4.18815
G1 X109.576 Y104.348 E4.20766
G1 X109.988 Y104.509 E4.22826
G1 X110.39 Y104.62 E4.24768
G1 X110.974 Y104.699 E4.27512
G1 X115.25 Y104.703 E4.47423
G1 X115.671 Y104.663 E4.49392
G1 X116.083 Y104.583 E4.51346
G1 X116.485 Y104.464 E4.53298
G1 X117.002 Y104.17 E4.56068
G1 X117.57 Y103.735 E4.59399
G1 X117.877 Y103.449 E4.61353
G1 X118.124 Y103.111 E4.63302
G1 X118.281 Y102.788 E4.64974
G1 X118.506 Y102.212 E4.67854
G1 X118.621 Y101.809 E4.69805
G1 X118.657 Y101.412 E4.71661
G1 X118.657 Y101.143 E4.72914
G1 X118.663 Y101.093 E4.73149
G1 X118.663 Y100.481 E4.75998
G1 X118.667 Y99.806 E4.79141
G1 X118.663 Y99.761 E4.79352
G1 X118.662 Y98.593 E4.8479
G1 X118.662 Y96.942 E4.92478
G1 X118.622 Y96.525 E4.94429
G1 X118.492 Y96.095 E4.96521
G1 X118.305 Y95.647 E4.98781
G1 X118.108 Y95.277 E5.00733
G1 X117.89 Y95 E5.02374
G1 X117.52 Y94.6 E5.04912
G1 X117.207 Y94.321 E5.06864
G1 X116.674 Y94.033 E5.09685
G1 X116.114 Y93.824 E5.12468
G1 X115.709 Y93.715 E5.14421
G1 X115.346 Y93.685 E5.16117
G1 X111.078 Y93.683 E5.35991
G1 X110.709 Y93.714 E5.37715
G1 X110.32 Y93.78 E5.39552
G1 X109.915 Y93.889 E5.41505
G1 X109.488 Y94.105 E5.43734
G1 X108.987 Y94.431 E5.46517
G1 X108.659 Y94.692 E5.48469
G1 X108.304 Y95.137 E5.51119
G1 X107.959 Y95.708 E5.54226
G1 X107.777 Y96.086 E5.56179
G1 X107.671 Y96.491 E5.58129
G1 X107.642 Y96.846 E5.59787
G1 X107.642 Y97.286 E5.61836
G0 F6000 X108.042 Y97.287
G1 F1200 X108.041 Y97.294 E5.61869
G1 X108.042 Y99.782 E5.73454
G1 X108.04 Y99.795 E5.73515
G1 X108.042 Y101.522 E5.81557
G1 X108.082 Y101.899 E5.83322
G1 X108.27 Y102.396 E5.85797
G1 X108.563 Y102.922 E5.886
G1 X108.781 Y103.232 E5.90365
G1 X109.029 Y103.466 E5.91953
G1 X109.468 Y103.808 E5.94544
G1 X109.79 Y104.008 E5.96309
G1 X110.095 Y104.123 E5.97827
G1 X110.497 Y104.234 E5.99769
G1 X110.974 Y104.299 E6.0201
G1 X115.25 Y104.303 E6.21921
G1 X115.595 Y104.27 E6.23535
G1 X116.007 Y104.19 E6.25489
G1 X116.369 Y104.079 E6.27252
G1 X116.758 Y103.852 E6.2935
G1 X117.326 Y103.417 E6.32681
G1 X117.601 Y103.156 E6.34446
G1 X117.816 Y102.844 E6.36211
G1 X117.909 Y102.643 E6.37242
G1 X118.134 Y102.067 E6.40121
G1 X118.234 Y101.701 E6.41888
G1 X118.257 Y101.412 E6.43238
G1 X118.257 Y101.132 E6.44542
G1 X118.263 Y101.093 E6.44726
G1 X118.263 Y100.479 E6.47585
G1 X118.267 Y99.804 E6.50728
G1 X118.263 Y99.764 E6.50915
G1 X118.262 Y98.593 E6.56368
G1 X118.262 Y96.942 E6.64055
G1 X118.222 Y96.565 E6.65821
G1 X118.123 Y96.249 E6.67363
G1 X117.936 Y95.801 E6.69623
G1 X117.754 Y95.468 E6.7139
G1 X117.596 Y95.272 E6.72563
G1 X117.226 Y94.872 E6.751
G1 X116.941 Y94.622 E6.76865
G1 X116.534 Y94.408 E6.79006
G1 X115.974 Y94.199 E6.8179
G1 X115.607 Y94.104 E6.83555
G1 X115.346 Y94.085 E6.84773
G1 X111.078 Y94.083 E7.04647
G1 X110.776 Y94.108 E7.06058
G1 X110.387 Y94.174 E7.07895
G1 X110.022 Y94.277 E7.09661
G1 X109.706 Y94.44 E7.11317
G1 X109.205 Y94.766 E7.141
G1 X108.911 Y95.005 E7.15864
G1 X108.646 Y95.344 E7.17868
G1 X108.301 Y95.915 E7.20974
G1 X108.141 Y96.258 E7.22737
G1 X108.055 Y96.628 E7.24506
G1 X108.042 Y96.846 E7.25522
G1 X108.042 Y97.287 E7.27576
G0 F6000 X108.442 Y97.279
G1 F1200 X108.441 Y97.294 E7.27646
G1 X108.442 Y99.766 E7.39157
G1 X108.44 Y99.795 E7.39292
G1 X108.442 Y101.522 E7.47334
G1 X108.482 Y101.853 E7.48886
G1 X108.619 Y102.201 E7.50628
G1 X108.912 Y102.727 E7.53431
G1 X109.108 Y102.998 E7.54989
G1 X109.275 Y103.15 E7.5604
G1 X109.714 Y103.492 E7.58631
G1 X110 Y103.665 E7.60188
G1 X110.201 Y103.738 E7.61183
G1 X110.603 Y103.849 E7.63125
G1 X110.975 Y103.899 E7.64873
G1 X115.251 Y103.903 E7.84784
G1 X115.519 Y103.877 E7.86038
G1 X115.931 Y103.797 E7.87992
G1 X116.249 Y103.695 E7.89547
G1 X116.515 Y103.534 E7.90995
G1 X117.083 Y103.099 E7.94326
G1 X117.322 Y102.866 E7.95881
G1 X117.536 Y102.497 E7.97867
G1 X117.761 Y101.921 E8.00746
G1 X117.845 Y101.598 E8.023
G1 X117.857 Y101.412 E8.03168
G1 X117.857 Y101.18 E8.04248
G1 X117.863 Y101.093 E8.04655
G1 X117.863 Y100.476 E8.07528
G1 X117.867 Y99.801 E8.10671
G1 X117.863 Y99.766 E8.10835
G1 X117.862 Y98.593 E8.16297
G1 X117.862 Y96.942 E8.23984
G1 X117.822 Y96.61 E8.25542
G1 X117.754 Y96.403 E8.26556
G1 X117.567 Y95.955 E8.28817
G1 X117.303 Y95.543 E8.31095
G1 X116.933 Y95.143 E8.33632
G1 X116.678 Y94.927 E8.35188
G1 X116.395 Y94.782 E8.36669
G1 X115.835 Y94.573 E8.39452
G1 X115.346 Y94.485 E8.41766
G1 X111.078 Y94.483 E8.6164
G1 X110.843 Y94.503 E8.62738
G1 X110.454 Y94.569 E8.64575
G1 X110.133 Y94.664 E8.66134
G1 X109.924 Y94.776 E8.67238
G1 X109.423 Y95.102 E8.70021
G1 X109.167 Y95.316 E8.71575
G1 X108.989 Y95.551 E8.72948
G1 X108.644 Y96.122 E8.76054
G1 X108.506 Y96.427 E8.77613
G1 X108.442 Y96.846 E8.79587
G1 X108.442 Y97.279 E8.81603
G0 F6000 X108.842 Y97.28
G1 F1200 X108.841 Y97.293 E8.81664
G1 X108.842 Y99.768 E8.93188
G1 X108.84 Y99.794 E8.9331
G1 X108.842 Y101.521 E9.01351
G1 X108.882 Y101.8 E9.02664
G1 X108.968 Y102.007 E9.03707
G1 X109.261 Y102.533 E9.06511
G1 X109.52 Y102.835 E9.08364
G1 X109.959 Y103.177 E9.10955
G1 X110.308 Y103.352 E9.12773
G1 X110.71 Y103.463 E9.14715
G1 X110.975 Y103.499 E9.1596
G1 X115.251 Y103.503 E9.35871
G1 X115.443 Y103.485 E9.36769
G1 X115.855 Y103.405 E9.38723
G1 X116.121 Y103.312 E9.40035
G1 X116.272 Y103.217 E9.40866
G1 X116.84 Y102.782 E9.44197
G1 X117.038 Y102.58 E9.45514
G1 X117.163 Y102.352 E9.46725
G1 X117.388 Y101.776 E9.49605
G1 X117.457 Y101.412 E9.5133
G1 X117.457 Y101.171 E9.52452
G1 X117.463 Y101.093 E9.52816
G1 X117.463 Y100.474 E9.55699
G1 X117.467 Y99.799 E9.58842
G1 X117.463 Y99.769 E9.58983
G1 X117.462 Y98.592 E9.64463
G1 X117.462 Y96.941 E9.72151
G1 X117.385 Y96.557 E9.73975
G1 X117.198 Y96.109 E9.76235
G1 X117.009 Y95.815 E9.77863
G1 X116.639 Y95.415 E9.804
G1 X116.42 Y95.237 E9.81714
G1 X116.255 Y95.157 E9.82568
G1 X115.695 Y94.948 E9.85351
G1 X115.345 Y94.885 E9.87007
G1 X111.077 Y94.883 E10.06881
G1 X110.91 Y94.897 E10.07661
G1 X110.521 Y94.963 E10.09498
G1 X110.143 Y95.111 E10.11388
G1 X109.642 Y95.437 E10.14172
G1 X109.429 Y95.623 E10.15488
G1 X109.331 Y95.758 E10.16265
G1 X108.986 Y96.329 E10.19372
G1 X108.876 Y96.589 E10.20686
G1 X108.842 Y96.846 E10.21893
G1 X108.842 Y97.28 E10.23914
G0 F6000 X109.242 Y97.289
G1 F1200 X109.242 Y99.786 E10.35541
G1 X109.24 Y99.794 E10.3558
G1 X109.242 Y101.521 E10.43621
G1 X109.318 Y101.812 E10.45022
G1 X109.611 Y102.338 E10.47825
G1 X109.766 Y102.519 E10.48935
G1 X110.205 Y102.861 E10.51526
G1 X110.414 Y102.966 E10.52615
G1 X110.816 Y103.077 E10.54557
G1 X110.975 Y103.099 E10.55305
G1 X115.251 Y103.103 E10.75216
G1 X115.366 Y103.092 E10.75754
G1 X115.778 Y103.012 E10.77708
G1 X116.029 Y102.899 E10.7899
G1 X116.597 Y102.464 E10.82321
G1 X116.791 Y102.206 E10.83824
G1 X117.016 Y101.63 E10.86703
G1 X117.057 Y101.412 E10.87736
G1 X117.057 Y101.118 E10.89105
G1 X117.063 Y101.093 E10.89225
G1 X117.063 Y100.472 E10.92117
G1 X117.067 Y99.797 E10.9526
G1 X117.063 Y99.774 E10.95369
G1 X117.062 Y98.593 E11.00868
G1 X117.062 Y96.942 E11.08556
G1 X117.016 Y96.711 E11.09652
G1 X116.829 Y96.263 E11.11913
G1 X116.715 Y96.087 E11.12889
G1 X116.345 Y95.687 E11.15426
G1 X116.115 Y95.532 E11.16718
G1 X115.555 Y95.323 E11.19501
G1 X115.345 Y95.285 E11.20495
G1 X111.077 Y95.283 E11.40369
G1 X110.977 Y95.291 E11.40836
G1 X110.588 Y95.357 E11.42673
G1 X110.361 Y95.446 E11.43808
G1 X109.86 Y95.772 E11.46592
G1 X109.673 Y95.965 E11.47843
G1 X109.328 Y96.536 E11.50949
G1 X109.242 Y96.846 E11.52447
G1 X109.242 Y97.289 E11.5451
G0 F6000 X109.642 Y97.291
G1 F1200 X109.642 Y99.789 E11.66142
G1 X109.642 Y101.52 E11.74202
G1 X109.667 Y101.617 E11.74669
G1 X109.96 Y102.143 E11.77472
G1 X110.012 Y102.204 E11.77845
G1 X110.451 Y102.546 E11.80437
G1 X110.521 Y102.581 E11.80801
G1 X110.923 Y102.692 E11.82743
G1 X110.976 Y102.699 E11.82992
G1 X115.252 Y102.703 E12.02903
G1 X115.29 Y102.699 E12.03081
G1 X115.702 Y102.619 E12.05035
G1 X115.786 Y102.582 E12.05462
G1 X116.354 Y102.147 E12.08794
G1 X116.418 Y102.061 E12.09293
G1 X116.643 Y101.485 E12.12172
G1 X116.657 Y101.412 E12.12519
G1 X116.657 Y101.105 E12.13948
G1 X116.663 Y101.093 E12.14011
G1 X116.663 Y100.469 E12.16916
G1 X116.667 Y99.794 E12.20059
G1 X116.663 Y99.781 E12.20123
G1 X116.662 Y98.593 E12.25654
G1 X116.662 Y96.942 E12.33342
G1 X116.647 Y96.865 E12.33707
G1 X116.46 Y96.417 E12.35968
G1 X116.422 Y96.358 E12.36295
G1 X116.052 Y95.958 E12.38832
G1 X115.975 Y95.907 E12.39262
G1 X115.415 Y95.698 E12.42045
G1 X115.345 Y95.685 E12.42377
G1 X111.077 Y95.683 E12.6225
G1 X111.044 Y95.686 E12.62405
G1 X110.655 Y95.752 E12.64242
G1 X110.579 Y95.781 E12.64621
G1 X110.078 Y96.107 E12.67404
G1 X110.016 Y96.172 E12.67822
G1 X109.671 Y96.743 E12.70929
G1 X109.642 Y96.846 E12.71427
G1 X109.642 Y97.291 E12.73499
G1 F2400 E11.83499
G1 F300 Z1.48
G0 F6000 X106.043 Y92.582 Z1.48
G1 F300 Z0.28
G1 F2400 E12.73499
G1 F1200 X120.263 Y92.586 E13.39713
G1 X120.259 Y105.804 E14.01262
G1 X106.041 Y105.8 E14.67467
G1 X106.043 Y92.582 E15.29015
G0 F6000 X105.643 Y92.182
G1 F1200 X120.663 Y92.186 E15.98955
G1 X120.659 Y106.204 E16.64229
G1 X105.641 Y106.2 E17.34159
G1 X105.643 Y92.182 E17.99432
G0 F6000 X105.243 Y91.782
G1 F1200 X121.063 Y91.786 E18.73097
G1 X121.059 Y106.604 E19.42096
G1 X105.241 Y106.6 E20.15751
G1 X105.243 Y91.782 E20.8475
G0 F6000 X105.15 Y91.382
G1 F1200 X121.162 Y91.386 E21.59308
G1 X121.364 Y91.47 E21.60327
G1 X121.389 Y91.494 E21.60488
G1 X121.442 Y91.59 E21.60999
G1 X121.463 Y91.688 E21.61466
G1 X121.459 Y106.729 E22.31503
G1 X121.446 Y106.781 E22.31752
G1 X121.324 Y106.943 E22.32697
G1 X121.251 Y106.983 E22.33084
G1 X121.157 Y107.004 E22.33533
G1 X105.142 Y107 E23.08105
G1 X104.941 Y106.917 E23.09118
G1 X104.919 Y106.895 E23.09263
G1 X104.862 Y106.793 E23.09807
G1 X104.841 Y106.697 E23.10265
G1 X104.843 Y91.669 E23.80241
G1 X104.858 Y91.604 E23.80552
G1 X104.916 Y91.494 E23.81131
G1 X104.953 Y91.458 E23.81371
G1 X105.05 Y91.404 E23.81888
G1 X105.15 Y91.382 E23.82365
G0 F6000 X105.106 Y90.982
G1 F1200 X121.24 Y90.986 E24.57492
G1 X121.592 Y91.132 E24.59266
G1 X121.712 Y91.251 E24.60053
G1 X121.82 Y91.448 E24.61099
G1 X121.863 Y91.644 E24.62034
G1 X121.859 Y106.781 E25.32518
G1 X121.815 Y106.956 E25.33358
G1 X121.592 Y107.251 E25.3508
G1 X121.396 Y107.36 E25.36124
G1 X121.197 Y107.404 E25.37073
G1 X105.064 Y107.4 E26.12195
G1 X104.713 Y107.255 E26.13964
G1 X104.596 Y107.138 E26.14734
G1 X104.484 Y106.935 E26.15814
G1 X104.441 Y106.742 E26.16734
G1 X104.443 Y91.626 E26.87121
G1 X104.48 Y91.461 E26.87908
G1 X104.59 Y91.254 E26.89
G1 X104.712 Y91.135 E26.89793
G1 X104.907 Y91.025 E26.90836
G1 X105.106 Y90.982 E26.91784
G0 F6000 X104.266 Y91.012
G1 F1200 X104.468 Y90.813 E26.93104
G1 X104.766 Y90.647 E26.94693
G1 X105.061 Y90.582 E26.96099
G1 X121.321 Y90.586 E27.71813
G1 X121.816 Y90.791 E27.74307
G1 X122.034 Y91.008 E27.7574
G1 X122.199 Y91.306 E27.77326
G1 X122.263 Y91.602 E27.78736
G1 X122.259 Y106.828 E28.49634
G1 X122.181 Y107.134 E28.51105
G1 X121.86 Y107.56 E28.53589
G1 X121.538 Y107.739 E28.55304
G1 X121.242 Y107.804 E28.56715
G1 X104.983 Y107.8 E29.32424
G1 X104.486 Y107.594 E29.34929
G1 X104.273 Y107.381 E29.36332
G1 X104.106 Y107.08 E29.37935
G1 X104.041 Y106.783 E29.3935
G1 X104.043 Y91.578 E30.10151
G1 X104.1 Y91.323 E30.11368
G1 X104.266 Y91.012 E30.13009
G0 F6000 X103.722 Y91.182
G1 F1200 X103.943 Y90.769 E30.1519
G1 X104.225 Y90.491 E30.17034
G1 X104.624 Y90.268 E30.19163
G1 X105.017 Y90.182 E30.21036
G1 X121.399 Y90.186 E30.97318
G1 X122.044 Y90.453 E31.00568
G1 X122.357 Y90.765 E31.02626
G1 X122.578 Y91.164 E31.0475
G1 X122.663 Y91.557 E31.06622
G1 X122.659 Y106.88 E31.77972
G1 X122.55 Y107.309 E31.80033
G1 X122.128 Y107.87 E31.83302
