;FLAVOR:Marlin
;TIME:3631
;Filament used: 5.07687m
;Layer height: 0.28
;MINX:20.192
;MINY:82.944
;MINZ:0.28
;MAXX:200.342
;MAXY:117.052
;MAXZ:11.44
;TARGET_MACHINE.NAME:Creality Ender-3 V3 SE
;Generated with Cura_SteamEngine 5.9.0
M82 ;absolute extrusion mode
M220 S100 ;Reset Feedrate
M221 S100 ;Reset Flowrate

G28 ;Home

M420 S1; Use saved mesh leveling data

G92 E0 ;Reset Extruder
G1 Z2.0 F3000 ;Move Z Axis up
G1 X-3 Y20 Z0.28 F5000.0 ;Move to start position
M190 S65.0 ; Set bed temperature and wait
M109 S215.0 ; Set hotend temperature and wait
G1 X-3 Y100.0 Z0.28 F1500.0 E15 ;Draw the first line
G1 X-2 Y100.0 Z0.28 F5000.0 ;Move to side a little
G1 X-2 Y20 Z0.28 F1500.0 E30 ;Draw the second line
G92 E0 ;Reset Extruder
G1 E-1.0000 F1800 ;Retract a bit
G1 Z2.0 F3000 ;Move Z Axis up
G1 E0.0000 F1800 

G92 E0
G92 E0
G1 F2400 E-1
;LAYER_COUNT:38
;LAYER:0
M107
M205 X4 Y4
G1 F300 Z1.08
G0 F7500 X46.105 Y91.091 Z1.08
;TYPE:SKIRT
G1 F300 Z0.28
G1 F2400 E0
G1 F1500 X46.104 Y88.508 E0.12028
G1 X196.741 Y88.508 E7.13457
G1 X196.742 Y90.373 E7.22141
G1 X195.009 Y90.788 E7.30438
G1 X194.768 Y90.798 E7.31562
G1 X194.506 Y90.821 E7.32786
G1 X194.279 Y90.847 E7.3385
G1 X193.983 Y90.891 E7.35244
G1 X193.497 Y90.997 E7.3756
G1 X193.168 Y91.091 E7.39153
G1 X46.105 Y91.091 E14.2394
G0 F7500 X45.705 Y91.491
G1 F1500 X45.704 Y88.108 E14.39693
G1 X197.141 Y88.108 E21.44847
G1 X197.142 Y90.688 E21.5686
G1 X195.027 Y91.195 E21.66988
G1 X194.803 Y91.196 E21.68031
G1 X194.541 Y91.219 E21.69255
G1 X194.338 Y91.243 E21.70207
G1 X194.042 Y91.287 E21.71601
G1 X193.607 Y91.381 E21.73673
G1 X193.222 Y91.491 E21.75537
G1 X45.705 Y91.491 E28.62438
G0 F7500 X45.305 Y91.891
G1 F1500 X45.304 Y87.708 E28.81916
G1 X197.541 Y87.708 E35.90795
G1 X197.542 Y91.004 E36.06143
G1 X195.05 Y91.601 E36.18075
G1 X194.838 Y91.594 E36.19063
G1 X194.576 Y91.617 E36.20288
G1 X194.397 Y91.639 E36.21127
G1 X194.101 Y91.683 E36.22521
G1 X193.717 Y91.766 E36.2435
G1 X193.308 Y91.883 E36.26331
G1 X193.287 Y91.891 E36.26436
G1 X45.305 Y91.891 E43.15502
G0 F7500 X44.905 Y92.291
G1 F1500 X44.904 Y87.308 E43.38705
G1 X197.941 Y87.308 E50.51309
G1 X197.942 Y91.319 E50.69986
G1 X195.149 Y91.988 E50.83359
G1 X194.873 Y91.993 E50.84645
G1 X194.611 Y92.016 E50.85869
G1 X194.456 Y92.034 E50.86596
G1 X194.16 Y92.078 E50.87989
G1 X193.827 Y92.15 E50.89576
G1 X193.418 Y92.267 E50.91557
G1 X193.355 Y92.291 E50.91871
G1 X44.905 Y92.291 E57.83116
G0 F7500 X44.505 Y92.691
G1 F1500 X44.504 Y86.908 E58.10044
G1 X198.341 Y86.908 E65.26374
G1 X198.342 Y91.634 E65.4838
G1 X195.167 Y92.395 E65.63583
G1 X194.908 Y92.391 E65.64789
G1 X194.646 Y92.414 E65.66013
G1 X194.515 Y92.43 E65.66628
G1 X194.219 Y92.474 E65.68021
G1 X193.937 Y92.535 E65.69365
G1 X193.528 Y92.652 E65.71346
G1 X193.429 Y92.691 E65.71841
G1 X44.505 Y92.691 E72.65294
G0 F7500 X44.105 Y93.091
G1 F1500 X44.104 Y86.508 E72.95947
G1 X198.741 Y86.508 E80.16002
G1 X198.742 Y91.95 E80.41342
G1 X195.184 Y92.803 E80.58379
G1 X194.943 Y92.79 E80.59503
G1 X194.681 Y92.813 E80.60727
G1 X194.573 Y92.826 E80.61234
G1 X194.277 Y92.87 E80.62627
G1 X194.047 Y92.919 E80.63722
G1 X193.638 Y93.036 E80.65703
G1 X193.502 Y93.091 E80.66386
G1 X44.105 Y93.091 E87.62041
G0 F7500 X43.705 Y93.491
G1 F1500 X43.704 Y86.108 E87.9642
G1 X198.978 Y86.108 E95.1944
G1 X199.087 Y86.163 E95.20009
G1 X199.141 Y86.27 E95.20567
G1 X199.142 Y92.265 E95.48482
G1 X195.208 Y93.208 E95.6732
G1 X194.978 Y93.188 E95.68395
G1 X194.716 Y93.211 E95.69619
G1 X194.632 Y93.221 E95.70013
G1 X194.336 Y93.265 E95.71407
G1 X194.157 Y93.304 E95.7226
G1 X193.748 Y93.421 E95.74241
G1 X193.582 Y93.491 E95.75079
G1 X43.705 Y93.491 E102.7297
G0 F7500 X43.459 Y93.891
G1 F1500 X43.43 Y93.872 E102.73131
G1 X43.305 Y93.824 E102.73754
G1 X43.304 Y85.778 E103.1122
G1 X43.453 Y85.708 E103.11987
G1 X199.075 Y85.708 E110.36628
G1 X199.385 Y85.865 E110.38246
G1 X199.541 Y86.173 E110.39853
G1 X199.542 Y92.581 E110.69692
G1 X195.235 Y93.613 E110.90315
G1 X195.013 Y93.587 E110.91355
G1 X194.751 Y93.61 E110.9258
G1 X194.691 Y93.617 E110.92861
G1 X194.395 Y93.661 E110.94255
G1 X194.267 Y93.689 E110.94865
G1 X193.858 Y93.806 E110.96846
G1 X193.667 Y93.891 E110.97819
G1 X43.459 Y93.891 E117.97251
G0 F7500 X43.318 Y94.291
G1 F1500 X43.177 Y94.202 E117.98027
G1 X42.905 Y94.12 E117.9935
G1 X42.904 Y85.483 E118.39567
G1 X43.18 Y85.399 E118.40911
G1 X43.355 Y85.308 E118.41829
G1 X199.17 Y85.308 E125.67369
G1 X199.682 Y85.568 E125.70043
G1 X199.941 Y86.078 E125.72707
G1 X199.942 Y92.896 E126.04454
G1 X195.27 Y94.016 E126.26825
G1 X195.048 Y93.985 E126.27869
G1 X194.786 Y94.008 E126.29094
G1 X194.75 Y94.013 E126.29263
G1 X194.454 Y94.057 E126.30656
G1 X194.377 Y94.073 E126.31022
G1 X193.968 Y94.19 E126.33003
G1 X193.773 Y94.287 E126.34017
G1 X193.769 Y94.291 E126.34044
G1 X43.318 Y94.291 E133.34607
G0 F7500 X43.177 Y94.691
G1 F1500 X43.166 Y94.658 E133.34769
G1 X43.062 Y94.585 E133.3536
G1 X42.505 Y94.418 E133.38068
G1 X42.504 Y85.187 E133.81051
G1 X43.063 Y85.016 E133.83773
G1 X43.165 Y84.944 E133.84355
G1 X43.177 Y84.908 E133.84531
G1 X199.266 Y84.908 E141.11347
G1 X199.979 Y85.271 E141.15073
G1 X200.341 Y85.982 E141.18788
G1 X200.342 Y93.212 E141.52454
G1 X195.224 Y94.438 E141.7696
G1 X195.083 Y94.384 E141.77663
G1 X194.821 Y94.407 E141.78887
G1 X194.809 Y94.408 E141.78943
G1 X194.513 Y94.452 E141.80337
G1 X194.487 Y94.458 E141.80461
G1 X194.078 Y94.575 E141.82442
G1 X193.975 Y94.645 E141.83022
G1 X193.962 Y94.691 E141.83244
G1 X43.177 Y94.691 E148.85363
G1 F2400 E147.85363
G1 F300 Z1.08
G0 F7500 X43.177 Y104.908 Z1.08
G1 F300 Z0.28
G1 F2400 E148.85363
G1 F1500 X199.266 Y104.908 E156.12178
G1 X199.979 Y105.271 E156.15904
G1 X200.341 Y105.982 E156.19619
G1 X200.342 Y113.212 E156.53285
G1 X195.224 Y114.438 E156.77791
G1 X195.083 Y114.384 E156.78494
G1 X194.821 Y114.407 E156.79718
G1 X194.809 Y114.408 E156.79774
G1 X194.513 Y114.452 E156.81168
G1 X194.487 Y114.458 E156.81292
G1 X194.078 Y114.575 E156.83273
G1 X193.975 Y114.645 E156.83853
G1 X193.962 Y114.691 E156.84076
G1 X43.177 Y114.691 E163.86194
G1 X43.166 Y114.658 E163.86356
G1 X43.062 Y114.585 E163.86947
G1 X42.505 Y114.418 E163.89655
G1 X42.504 Y105.187 E164.32638
G1 X43.063 Y105.016 E164.3536
G1 X43.165 Y104.944 E164.35942
G1 X43.177 Y104.908 E164.36118
G0 F7500 X43.355 Y105.308
G1 F1500 X199.17 Y105.308 E171.61658
G1 X199.682 Y105.568 E171.64332
G1 X199.941 Y106.078 E171.66996
G1 X199.942 Y112.896 E171.98743
G1 X195.27 Y114.016 E172.21114
G1 X195.048 Y113.985 E172.22158
G1 X194.786 Y114.008 E172.23383
G1 X194.75 Y114.013 E172.23552
G1 X194.454 Y114.057 E172.24945
G1 X194.377 Y114.073 E172.25312
G1 X193.968 Y114.19 E172.27292
G1 X193.773 Y114.287 E172.28307
G1 X193.769 Y114.291 E172.28333
G1 X43.318 Y114.291 E179.28896
G1 X43.177 Y114.202 E179.29672
G1 X42.905 Y114.12 E179.30995
G1 X42.904 Y105.483 E179.71213
G1 X43.18 Y105.399 E179.72556
G1 X43.355 Y105.308 E179.73474
G0 F7500 X43.453 Y105.708
G1 F1500 X199.075 Y105.708 E186.98116
G1 X199.385 Y105.865 E186.99734
G1 X199.541 Y106.173 E187.01341
G1 X199.542 Y112.581 E187.3118
G1 X195.235 Y113.613 E187.51803
G1 X195.013 Y113.587 E187.52843
G1 X194.751 Y113.61 E187.54068
G1 X194.691 Y113.617 E187.54349
G1 X194.395 Y113.661 E187.55743
G1 X194.267 Y113.689 E187.56353
G1 X193.858 Y113.806 E187.58334
G1 X193.667 Y113.891 E187.59307
G1 X43.459 Y113.891 E194.58739
G1 X43.43 Y113.872 E194.589
G1 X43.305 Y113.824 E194.59523
G1 X43.304 Y105.778 E194.96989
G1 X43.453 Y105.708 E194.97756
G0 F7500 X43.704 Y106.108
G1 F1500 X198.978 Y106.108 E202.20776
G1 X199.087 Y106.163 E202.21345
G1 X199.141 Y106.27 E202.21903
G1 X199.142 Y112.265 E202.49818
G1 X195.208 Y113.208 E202.68655
G1 X194.978 Y113.188 E202.69731
G1 X194.716 Y113.211 E202.70955
G1 X194.632 Y113.221 E202.71349
G1 X194.336 Y113.265 E202.72743
G1 X194.157 Y113.304 E202.73596
G1 X193.748 Y113.421 E202.75576
G1 X193.582 Y113.491 E202.76415
G1 X43.705 Y113.491 E209.74305
G1 X43.704 Y106.108 E210.08684
G0 F7500 X44.104 Y106.508
G1 F1500 X198.741 Y106.508 E217.28738
G1 X198.742 Y111.95 E217.54079
G1 X195.184 Y112.803 E217.71116
G1 X194.943 Y112.79 E217.72239
G1 X194.681 Y112.813 E217.73464
G1 X194.573 Y112.826 E217.73971
G1 X194.277 Y112.87 E217.75364
G1 X194.047 Y112.919 E217.76459
G1 X193.638 Y113.036 E217.7844
G1 X193.502 Y113.091 E217.79123
G1 X44.105 Y113.091 E224.74778
G1 X44.104 Y106.508 E225.05431
G0 F7500 X44.504 Y106.908
G1 F1500 X198.341 Y106.908 E232.21761
G1 X198.342 Y111.634 E232.43767
G1 X195.167 Y112.395 E232.5897
G1 X194.908 Y112.391 E232.60176
G1 X194.646 Y112.414 E232.61401
G1 X194.515 Y112.43 E232.62015
G1 X194.219 Y112.474 E232.63409
G1 X193.937 Y112.535 E232.64752
G1 X193.528 Y112.652 E232.66733
G1 X193.429 Y112.691 E232.67229
G1 X44.505 Y112.691 E239.60681
G1 X44.504 Y106.908 E239.87609
G0 F7500 X44.904 Y107.308
G1 F1500 X197.941 Y107.308 E247.00214
G1 X197.942 Y111.319 E247.1889
G1 X195.149 Y111.988 E247.32264
G1 X194.873 Y111.993 E247.33549
G1 X194.611 Y112.016 E247.34774
G1 X194.456 Y112.034 E247.355
G1 X194.16 Y112.078 E247.36894
G1 X193.827 Y112.15 E247.3848
G1 X193.418 Y112.267 E247.40461
G1 X193.355 Y112.291 E247.40775
G1 X44.905 Y112.291 E254.3202
G1 X44.904 Y107.308 E254.55223
G0 F7500 X45.304 Y107.708
G1 F1500 X197.541 Y107.708 E261.64103
G1 X197.542 Y111.004 E261.7945
G1 X195.05 Y111.601 E261.91382
G1 X194.838 Y111.594 E261.9237
G1 X194.576 Y111.617 E261.93595
G1 X194.397 Y111.639 E261.94434
G1 X194.101 Y111.683 E261.95828
G1 X193.717 Y111.766 E261.97657
G1 X193.308 Y111.883 E261.99638
G1 X193.287 Y111.891 E261.99743
G1 X45.305 Y111.891 E268.88809
G1 X45.304 Y107.708 E269.08287
G0 F7500 X45.704 Y108.108
G1 F1500 X197.141 Y108.108 E276.13441
G1 X197.142 Y110.688 E276.25454
G1 X195.027 Y111.195 E276.35582
G1 X194.803 Y111.196 E276.36625
G1 X194.541 Y111.219 E276.37849
G1 X194.338 Y111.243 E276.38801
G1 X194.042 Y111.287 E276.40195
G1 X193.607 Y111.381 E276.42267
G1 X193.222 Y111.491 E276.44131
G1 X45.705 Y111.491 E283.31032
G1 X45.704 Y108.108 E283.46785
G0 F7500 X46.104 Y108.508
G1 F1500 X196.741 Y108.508 E290.48214
G1 X196.742 Y110.373 E290.56898
G1 X195.009 Y110.788 E290.65196
G1 X194.768 Y110.798 E290.66319
G1 X194.506 Y110.821 E290.67544
G1 X194.279 Y110.847 E290.68608
G1 X193.983 Y110.891 E290.70001
G1 X193.497 Y110.997 E290.72317
G1 X193.168 Y111.091 E290.73911
G1 X46.105 Y111.091 E297.58698
G1 X46.104 Y108.508 E297.70725
G1 F2400 E296.70725
G1 F300 Z1.08
G0 F7500 X46.917 Y110.691 Z1.08
;TYPE:SUPPORT
G1 F300 Z0.28
G1 F2400 E297.70725
G1 F1500 X46.796 Y110.554 E297.71576
G1 X46.505 Y109.992 E297.74523
G1 X46.504 Y108.908 E297.79571
G1 X51.699 Y108.908 E298.03761
G1 X51.77 Y109.23 E298.05296
G1 X52.075 Y109.892 E298.0869
G1 X52.686 Y110.691 E298.13374
G1 X57.509 Y110.691 E298.35832
G1 X57.388 Y110.554 E298.36683
G1 X57.045 Y109.892 E298.40155
G1 X56.909 Y109.23 E298.43302
G1 X56.915 Y108.908 E298.44801
G1 X62.291 Y108.908 E298.69834
G1 X62.362 Y109.23 E298.71369
G1 X62.667 Y109.892 E298.74763
G1 X63.278 Y110.691 E298.79447
G1 X68.101 Y110.691 E299.01905
G1 X67.98 Y110.554 E299.02756
G1 X67.637 Y109.892 E299.06228
G1 X67.501 Y109.23 E299.09375
G1 X67.507 Y108.908 E299.10874
G1 X72.883 Y108.908 E299.35907
G1 X72.954 Y109.23 E299.37443
G1 X73.259 Y109.892 E299.40837
G1 X73.87 Y110.691 E299.4552
G1 X78.693 Y110.691 E299.67978
G1 X78.572 Y110.554 E299.68829
G1 X78.229 Y109.892 E299.72301
G1 X78.093 Y109.23 E299.75448
G1 X78.099 Y108.908 E299.76948
G1 X83.475 Y108.908 E300.0198
G1 X83.546 Y109.23 E300.03516
G1 X83.851 Y109.892 E300.0691
G1 X84.462 Y110.691 E300.11593
G1 X89.285 Y110.691 E300.34051
G1 X89.164 Y110.554 E300.34903
G1 X88.821 Y109.892 E300.38374
G1 X88.685 Y109.23 E300.41521
G1 X88.691 Y108.908 E300.43021
G1 X94.067 Y108.908 E300.68054
G1 X94.138 Y109.23 E300.69589
G1 X94.443 Y109.892 E300.72983
G1 X95.054 Y110.691 E300.77667
G1 X99.877 Y110.691 E301.00125
G1 X99.756 Y110.554 E301.00976
G1 X99.413 Y109.892 E301.04447
G1 X99.277 Y109.23 E301.07594
G1 X99.283 Y108.908 E301.09094
G1 X104.659 Y108.908 E301.34127
G1 X104.73 Y109.23 E301.35662
G1 X105.035 Y109.892 E301.39056
G1 X105.646 Y110.691 E301.4374
G1 X110.469 Y110.691 E301.66198
G1 X110.348 Y110.554 E301.67049
G1 X110.005 Y109.892 E301.70521
G1 X109.869 Y109.23 E301.73668
G1 X109.875 Y108.908 E301.75167
G1 X115.251 Y108.908 E302.002
G1 X115.322 Y109.23 E302.01736
G1 X115.627 Y109.892 E302.0513
G1 X116.238 Y110.691 E302.09813
G1 X121.061 Y110.691 E302.32271
G1 X120.94 Y110.554 E302.33122
G1 X120.597 Y109.892 E302.36594
G1 X120.461 Y109.23 E302.39741
G1 X120.467 Y108.908 E302.4124
G1 X125.843 Y108.908 E302.66273
G1 X125.914 Y109.23 E302.67809
G1 X126.219 Y109.892 E302.71203
G1 X126.83 Y110.691 E302.75886
G1 X131.653 Y110.691 E302.98344
G1 X131.532 Y110.554 E302.99195
G1 X131.189 Y109.892 E303.02667
G1 X131.053 Y109.23 E303.05814
G1 X131.059 Y108.908 E303.07314
G1 X136.435 Y108.908 E303.32347
G1 X136.506 Y109.23 E303.33882
G1 X136.811 Y109.892 E303.37276
G1 X137.422 Y110.691 E303.4196
G1 X142.245 Y110.691 E303.64418
G1 X142.124 Y110.554 E303.65269
G1 X141.781 Y109.892 E303.6874
G1 X141.645 Y109.23 E303.71887
G1 X141.651 Y108.908 E303.73387
G1 X147.027 Y108.908 E303.9842
G1 X147.098 Y109.23 E303.99955
G1 X147.403 Y109.892 E304.03349
G1 X148.014 Y110.691 E304.08033
G1 X152.837 Y110.691 E304.30491
G1 X152.716 Y110.554 E304.31342
G1 X152.373 Y109.892 E304.34814
G1 X152.237 Y109.23 E304.37961
G1 X152.243 Y108.908 E304.3946
G1 X157.619 Y108.908 E304.64493
G1 X157.69 Y109.23 E304.66028
G1 X157.995 Y109.892 E304.69422
G1 X158.606 Y110.691 E304.74106
G1 X163.429 Y110.691 E304.96564
G1 X163.308 Y110.554 E304.97415
G1 X162.965 Y109.892 E305.00887
G1 X162.829 Y109.23 E305.04034
G1 X162.835 Y108.908 E305.05533
G1 X168.211 Y108.908 E305.30566
G1 X168.282 Y109.23 E305.32102
G1 X168.587 Y109.892 E305.35496
G1 X169.198 Y110.691 E305.40179
G1 X174.021 Y110.691 E305.62637
G1 X173.9 Y110.554 E305.63488
G1 X173.557 Y109.892 E305.6696
G1 X173.421 Y109.23 E305.70107
G1 X173.427 Y108.908 E305.71607
G1 X178.803 Y108.908 E305.9664
G1 X178.874 Y109.23 E305.98175
G1 X179.179 Y109.892 E306.01569
G1 X179.79 Y110.691 E306.06253
G1 X184.613 Y110.691 E306.2871
G1 X184.492 Y110.554 E306.29562
G1 X184.149 Y109.892 E306.33033
G1 X184.013 Y109.23 E306.3618
G1 X184.019 Y108.908 E306.3768
G1 X189.395 Y108.908 E306.62713
G1 X189.466 Y109.23 E306.64248
G1 X189.771 Y109.892 E306.67642
G1 X190.382 Y110.691 E306.72326
G1 X193.111 Y110.691 E306.85033
G1 X193.652 Y110.536 E306.87654
G1 X194.346 Y110.433 E306.90921
G1 X194.992 Y110.376 E306.9394
G1 X194.741 Y109.892 E306.96479
G1 X194.605 Y109.23 E306.99626
G1 X194.611 Y108.908 E307.01126
G1 F2400 E306.01126
G1 F300 Z1.08
G0 F7500 X194.845 Y88.908 Z1.08
G1 F300 Z0.28
G1 F2400 E307.01126
G1 F1500 X195.084 Y89.37 E307.03548
G1 X195.805 Y90.185 E307.08615
G1 X195.018 Y90.374 E307.12383
G1 X194.346 Y90.433 E307.15524
G1 X193.652 Y90.536 E307.18791
G1 X193.111 Y90.691 E307.21412
G1 X191.522 Y90.691 E307.28811
G1 X190.94 Y90.032 E307.32905
G1 X190.277 Y89.37 E307.37268
G1 X189.924 Y88.908 E307.39975
G1 X184.253 Y88.908 E307.66381
G1 X184.492 Y89.37 E307.68804
G1 X185.077 Y90.032 E307.72917
G1 X185.737 Y90.691 E307.7726
G1 X180.93 Y90.691 E307.99644
G1 X180.348 Y90.032 E308.03738
G1 X179.685 Y89.37 E308.081
G1 X179.332 Y88.908 E308.10808
G1 X173.661 Y88.908 E308.37214
G1 X173.9 Y89.37 E308.39636
G1 X174.485 Y90.032 E308.4375
G1 X175.145 Y90.691 E308.48093
G1 X170.338 Y90.691 E308.70476
G1 X169.756 Y90.032 E308.7457
G1 X169.093 Y89.37 E308.78933
G1 X168.74 Y88.908 E308.8164
G1 X163.069 Y88.908 E309.08047
G1 X163.308 Y89.37 E309.10469
G1 X163.893 Y90.032 E309.14582
G1 X164.553 Y90.691 E309.18925
G1 X159.746 Y90.691 E309.41309
G1 X159.164 Y90.032 E309.45403
G1 X158.501 Y89.37 E309.49765
G1 X158.148 Y88.908 E309.52473
G1 X152.477 Y88.908 E309.78879
G1 X152.716 Y89.37 E309.81301
G1 X153.301 Y90.032 E309.85415
G1 X153.961 Y90.691 E309.89758
G1 X149.154 Y90.691 E310.12141
G1 X148.572 Y90.032 E310.16235
G1 X147.909 Y89.37 E310.20598
G1 X147.556 Y88.908 E310.23305
G1 X141.885 Y88.908 E310.49712
G1 X142.124 Y89.37 E310.52134
G1 X142.709 Y90.032 E310.56248
