;FLAVOR:Marlin
;TIME:11944
;Filament used: 16.1186m
;Layer height: 0.28
;MINX:16.817
;MINY:63.482
;MINZ:0.28
;MAXX:203.183
;MAXY:156.518
;MAXZ:16.16
;TARGET_MACHINE.NAME:Creality Ender-3 V3 SE
;Generated with Cura_SteamEngine 5.9.0
M82 ;absolute extrusion mode
M220 S100 ;Reset Feedrate
M221 S100 ;Reset Flowrate

G28 ;Home

M420 S1; Use saved mesh leveling data

G92 E0 ;Reset Extruder
G1 Z2.0 F3000 ;Move Z Axis up
G1 X-3 Y20 Z0.28 F5000.0 ;Move to start position
M190 S65.0 ; Set bed temperature and wait
M109 S215.0 ; Set hotend temperature and wait
G1 X-3 Y100.0 Z0.28 F1500.0 E15 ;Draw the first line
G1 X-2 Y100.0 Z0.28 F5000.0 ;Move to side a little
G1 X-2 Y20 Z0.28 F1500.0 E30 ;Draw the second line
G92 E0 ;Reset Extruder
G1 E-1.0000 F1800 ;Retract a bit
G1 Z2.0 F3000 ;Move Z Axis up
G1 E0.0000 F1800 

G92 E0
G92 E0
G1 F2400 E-0.9
;LAYER_COUNT:57
;LAYER:0
M107
M205 X8 Y8
G1 F300 Z0.48
G0 F6000 X37.353 Y87.068 Z0.48
;TYPE:SKIRT
G1 F300 Z0.28
G1 F2400 E0
G1 F1200 X37.291 Y87.065 E0.00289
G1 X36.971 Y87.056 E0.0178
G1 X36.866 Y87.054 E0.02269
G1 X20.417 Y87.044 E0.78862
G1 X20.418 Y83.95 E0.93269
G1 X21.995 Y83.95 E1.00612
G1 X22.047 Y83.96 E1.00859
G1 X22.354 Y83.984 E1.02293
G1 X22.952 Y84.007 E1.05079
G1 X23.211 Y84.008 E1.06285
G1 X23.613 Y83.996 E1.08158
G1 X24.067 Y83.95 E1.10283
G1 X37.141 Y83.94 E1.71161
G1 X37.345 Y83.934 E1.72111
G1 X37.353 Y83.934 E1.72149
G1 X37.353 Y87.068 E1.86742
G0 F6000 X37.753 Y87.497
G1 F1200 X37.449 Y87.473 E1.88162
G1 X37.28 Y87.464 E1.8895
G1 X36.96 Y87.455 E1.9044
G1 X36.866 Y87.454 E1.90878
G1 X20.017 Y87.444 E2.69334
G1 X20.018 Y83.55 E2.87466
G1 X22.069 Y83.55 E2.97017
G1 X22.369 Y83.584 E2.98422
G1 X22.967 Y83.607 E3.01209
G1 X23.199 Y83.608 E3.02289
G1 X23.601 Y83.596 E3.04162
G1 X24.039 Y83.55 E3.06213
G1 X37.14 Y83.54 E3.67216
G1 X37.323 Y83.535 E3.68069
G1 X37.753 Y83.512 E3.70074
G1 X37.753 Y87.497 E3.8863
G0 F6000 X38.153 Y87.934
G1 F1200 X38.006 Y87.918 E3.89318
G1 X37.418 Y87.872 E3.92065
G1 X37.268 Y87.864 E3.92764
G1 X36.948 Y87.855 E3.94255
G1 X36.866 Y87.854 E3.94637
G1 X19.617 Y87.843 E4.74955
G1 X19.618 Y83.15 E4.96808
G1 X22.156 Y83.15 E5.08626
G1 X22.385 Y83.185 E5.09705
G1 X22.983 Y83.208 E5.12491
G1 X23.188 Y83.209 E5.13446
G1 X23.59 Y83.197 E5.15318
G1 X24.009 Y83.15 E5.17282
G1 X37.14 Y83.14 E5.78425
G1 X37.301 Y83.136 E5.79175
G1 X37.87 Y83.105 E5.81829
G1 X38.153 Y83.074 E5.83154
G1 X38.153 Y87.934 E6.05784
G0 F6000 X38.553 Y88.401
G1 F1200 X38.53 Y88.396 E6.05894
G1 X38.37 Y88.368 E6.0665
G1 X38.137 Y88.335 E6.07746
G1 X37.975 Y88.317 E6.08505
G1 X37.387 Y88.271 E6.11251
G1 X37.257 Y88.264 E6.11858
G1 X36.937 Y88.255 E6.13348
G1 X36.866 Y88.254 E6.13679
G1 X19.217 Y88.243 E6.9586
G1 X19.218 Y82.75 E7.21438
G1 X22.064 Y82.75 E7.3469
G1 X22.4 Y82.785 E7.36263
G1 X22.998 Y82.808 E7.3905
G1 X23.176 Y82.809 E7.39878
G1 X23.578 Y82.797 E7.41751
G1 X23.974 Y82.75 E7.43608
G1 X37.14 Y82.74 E8.04914
G1 X37.279 Y82.736 E8.05562
G1 X37.848 Y82.705 E8.08215
G1 X38.131 Y82.674 E8.09541
G1 X38.553 Y82.604 E8.11533
G1 X38.553 Y88.401 E8.38526
G0 F6000 X38.953 Y88.892
G1 F1200 X38.944 Y88.889 E8.3857
G1 X38.449 Y88.787 E8.40924
G1 X38.314 Y88.764 E8.41561
G1 X38.081 Y88.731 E8.42657
G1 X37.944 Y88.716 E8.43299
G1 X37.356 Y88.67 E8.46045
G1 X37.246 Y88.664 E8.46558
G1 X36.926 Y88.655 E8.48049
G1 X36.865 Y88.654 E8.48333
G1 X18.817 Y88.643 E9.32372
G1 X18.818 Y82.35 E9.61675
G1 X22.161 Y82.35 E9.77241
G1 X22.415 Y82.385 E9.78435
G1 X23.013 Y82.408 E9.81222
G1 X23.164 Y82.409 E9.81925
G1 X23.566 Y82.397 E9.83798
G1 X23.944 Y82.35 E9.85571
G1 X37.14 Y82.34 E10.47017
G1 X37.258 Y82.337 E10.47567
G1 X37.827 Y82.306 E10.5022
G1 X38.066 Y82.28 E10.5134
G1 X38.859 Y82.149 E10.55082
G1 X38.953 Y82.124 E10.55535
G1 X38.953 Y88.892 E10.8705
G0 F6000 X39.353 Y89.389
G1 F1200 X39.237 Y89.367 E10.876
G1 X39.039 Y89.347 E10.88526
G1 X38.863 Y89.281 E10.89402
G1 X38.368 Y89.179 E10.91755
G1 X38.257 Y89.16 E10.92279
G1 X38.024 Y89.127 E10.93375
G1 X37.912 Y89.114 E10.939
G1 X37.324 Y89.068 E10.96647
G1 X37.235 Y89.064 E10.97061
G1 X36.915 Y89.055 E10.98552
G1 X36.865 Y89.054 E10.98785
G1 X18.417 Y89.043 E11.84687
G1 X18.418 Y81.95 E12.17715
G1 X22.224 Y81.95 E12.35437
G1 X22.431 Y81.986 E12.36415
G1 X23.029 Y82.009 E12.39202
G1 X23.152 Y82.009 E12.39775
G1 X23.554 Y81.997 E12.41647
G1 X23.902 Y81.95 E12.43282
G1 X37.139 Y81.94 E13.04919
G1 X37.236 Y81.937 E13.05371
G1 X37.805 Y81.906 E13.08025
G1 X38 Y81.885 E13.08938
G1 X38.793 Y81.754 E13.12681
G1 X39.159 Y81.653 E13.14449
G1 X39.184 Y81.64 E13.1458
G1 X39.353 Y81.618 E13.15373
G1 X39.353 Y89.389 E13.51558
G0 F6000 X39.753 Y89.897
G1 F1200 X39.716 Y89.884 E13.51741
G1 X39.496 Y89.823 E13.52804
G1 X39.162 Y89.76 E13.54387
G1 X39.023 Y89.746 E13.55037
G1 X39.013 Y89.741 E13.55089
G1 X38.783 Y89.673 E13.56206
G1 X38.288 Y89.571 E13.58559
G1 X38.201 Y89.556 E13.58971
G1 X37.968 Y89.523 E13.60066
G1 X37.881 Y89.513 E13.60474
G1 X37.293 Y89.467 E13.6322
G1 X37.223 Y89.464 E13.63547
G1 X36.903 Y89.455 E13.65037
G1 X36.865 Y89.454 E13.65214
G1 X18.066 Y89.442 E14.5275
G1 X18.062 Y89.437 E14.5278
G1 X18.017 Y89.208 E14.53867
G1 X18.018 Y81.687 E14.88888
G1 X18.048 Y81.585 E14.89383
G1 X18.071 Y81.55 E14.89578
G1 X22.274 Y81.55 E15.09149
G1 X22.446 Y81.586 E15.09967
G1 X23.044 Y81.609 E15.12754
G1 X23.14 Y81.609 E15.13201
G1 X23.542 Y81.597 E15.15073
G1 X23.86 Y81.55 E15.1657
G1 X37.139 Y81.54 E15.78403
G1 X37.214 Y81.538 E15.78752
G1 X37.783 Y81.507 E15.81406
G1 X37.935 Y81.49 E15.82118
G1 X38.728 Y81.359 E15.8586
G1 X39.049 Y81.266 E15.87417
G1 X39.069 Y81.255 E15.87523
G1 X39.311 Y81.224 E15.88659
G1 X39.753 Y81.11 E15.90784
G1 X39.753 Y89.897 E16.317
G0 F6000 X40.153 Y90.486
G1 F1200 X40.01 Y90.416 E16.32442
G1 X39.579 Y90.259 E16.34578
G1 X39.422 Y90.216 E16.35336
G1 X39.088 Y90.153 E16.36918
G1 X38.916 Y90.136 E16.37723
G1 X38.702 Y90.065 E16.38773
G1 X38.207 Y89.963 E16.41126
G1 X38.145 Y89.952 E16.4142
G1 X37.912 Y89.919 E16.42515
G1 X37.85 Y89.912 E16.42806
G1 X37.262 Y89.866 E16.45552
G1 X37.212 Y89.863 E16.45785
G1 X36.892 Y89.854 E16.47276
G1 X36.865 Y89.854 E16.47402
G1 X17.849 Y89.842 E17.35948
G1 X17.684 Y89.588 E17.37359
G1 X17.617 Y89.249 E17.38968
G1 X17.618 Y81.632 E17.74436
G1 X17.683 Y81.413 E17.75499
G1 X17.857 Y81.15 E17.76968
G1 X22.314 Y81.15 E17.97721
G1 X22.462 Y81.186 E17.98431
G1 X23.06 Y81.209 E18.01217
G1 X23.128 Y81.21 E18.01534
G1 X23.53 Y81.198 E18.03407
G1 X23.804 Y81.15 E18.04702
G1 X37.139 Y81.14 E18.66795
G1 X37.192 Y81.139 E18.67042
G1 X37.761 Y81.108 E18.69696
G1 X37.87 Y81.096 E18.70206
G1 X38.663 Y80.965 E18.73949
G1 X38.932 Y80.88 E18.75262
G1 X38.95 Y80.868 E18.75363
G1 X38.962 Y80.868 E18.75419
G1 X39.211 Y80.836 E18.76588
G1 X39.712 Y80.707 E18.78997
G1 X39.897 Y80.64 E18.79913
G1 X40.153 Y80.517 E18.81236
G1 X40.153 Y90.486 E19.27656
G0 F6000 X40.553 Y91.262
G1 F1200 X40.419 Y91.134 E19.28518
G1 X40.323 Y91.059 E19.29086
G1 X39.987 Y90.848 E19.30933
G1 X39.873 Y90.792 E19.31525
G1 X39.442 Y90.635 E19.3366
G1 X39.348 Y90.609 E19.34115
G1 X39.014 Y90.546 E19.35697
G1 X38.91 Y90.536 E19.36184
G1 X38.806 Y90.535 E19.36668
G1 X38.774 Y90.51 E19.36857
G1 X38.621 Y90.456 E19.37613
G1 X38.126 Y90.354 E19.39966
G1 X38.089 Y90.348 E19.40141
G1 X37.856 Y90.315 E19.41236
G1 X37.819 Y90.311 E19.4141
G1 X37.231 Y90.265 E19.44156
G1 X37.201 Y90.263 E19.44296
G1 X36.881 Y90.254 E19.45787
G1 X36.864 Y90.254 E19.45866
G1 X17.631 Y90.242 E20.35423
G1 X17.307 Y89.743 E20.38193
G1 X17.217 Y89.285 E20.40367
G1 X17.218 Y81.572 E20.76281
G1 X17.315 Y81.244 E20.77874
G1 X17.643 Y80.75 E20.80635
G1 X22.336 Y80.75 E21.02488
G1 X22.477 Y80.787 E21.03167
G1 X23.075 Y80.81 E21.05953
G1 X23.116 Y80.81 E21.06144
G1 X23.518 Y80.798 E21.08017
G1 X23.731 Y80.752 E21.09032
G1 X37.138 Y80.74 E21.7146
G1 X37.171 Y80.739 E21.71614
G1 X37.74 Y80.708 E21.74267
G1 X37.805 Y80.701 E21.74572
G1 X38.598 Y80.57 E21.78314
G1 X38.803 Y80.496 E21.79329
G1 X38.835 Y80.468 E21.79527
G1 X38.962 Y80.468 E21.80119
G1 X39.112 Y80.449 E21.80823
G1 X39.613 Y80.32 E21.83232
G1 X39.723 Y80.28 E21.83777
G1 X40.082 Y80.107 E21.85632
G1 X40.186 Y80.043 E21.86201
G1 X40.501 Y79.803 E21.88045
G1 X40.553 Y79.754 E21.88378
G1 X40.553 Y91.262 E22.41964
G0 F6000 X40.874 Y92.493
G1 F1200 X40.862 Y92.455 E22.42149
G1 X40.707 Y92.095 E22.43974
G1 X40.687 Y92.06 E22.44162
G1 X40.458 Y91.731 E22.46028
G1 X40.432 Y91.701 E22.46213
G1 X40.142 Y91.423 E22.48084
G1 X40.11 Y91.398 E22.48273
G1 X39.774 Y91.187 E22.50121
G1 X39.736 Y91.168 E22.50318
G1 X39.305 Y91.011 E22.52454
G1 X39.274 Y91.002 E22.52605
G1 X38.94 Y90.939 E22.54187
G1 X38.905 Y90.936 E22.54351
G1 X38.664 Y90.933 E22.55473
G1 X38.661 Y90.925 E22.55513
G1 X38.54 Y90.848 E22.56181
G1 X38.045 Y90.746 E22.58534
G1 X38.033 Y90.744 E22.58591
G1 X37.8 Y90.711 E22.59686
G1 X37.788 Y90.71 E22.59743
G1 X37.2 Y90.664 E22.62489
G1 X37.19 Y90.663 E22.62536
G1 X36.87 Y90.654 E22.64026
G1 X36.864 Y90.654 E22.64054
G1 X17.414 Y90.642 E23.54622
G1 X16.928 Y89.894 E23.58775
G1 X16.817 Y89.326 E23.6147
G1 X16.818 Y81.516 E23.97837
G1 X16.949 Y81.072 E23.99992
G1 X17.429 Y80.35 E24.04029
G1 X22.422 Y80.35 E24.27279
G1 X22.492 Y80.387 E24.27648
G1 X23.09 Y80.41 E24.30434
G1 X23.104 Y80.41 E24.30499
G1 X23.506 Y80.398 E24.32372
G1 X23.623 Y80.355 E24.32953
G1 X23.625 Y80.35 E24.32978
G1 X37.138 Y80.34 E24.959
G1 X37.149 Y80.34 E24.95951
G1 X37.718 Y80.309 E24.98604
G1 X37.74 Y80.306 E24.98708
G1 X38.533 Y80.175 E25.0245
G1 X38.643 Y80.118 E25.03027
G1 X38.663 Y80.068 E25.03278
G1 X38.962 Y80.068 E25.0467
G1 X39.012 Y80.062 E25.04905
G1 X39.513 Y79.933 E25.07314
G1 X39.55 Y79.919 E25.07498
G1 X39.909 Y79.746 E25.09354
G1 X39.943 Y79.725 E25.0954
G1 X40.258 Y79.485 E25.11384
G1 X40.288 Y79.457 E25.11575
G1 X40.555 Y79.151 E25.13466
G1 X40.577 Y79.12 E25.13643
G1 X40.774 Y78.778 E25.15481
G1 X40.792 Y78.739 E25.15681
G1 X40.925 Y78.322 E25.17719
G1 X40.933 Y78.283 E25.17904
G1 X40.953 Y78.103 E25.18747
G1 X40.953 Y92.869 E25.87504
G1 X40.874 Y92.493 E25.89293
G1 F2400 E24.99293
G1 F300 Z0.48
G0 F6000 X52.048 Y92.87 Z0.48
G1 F300 Z0.28
G1 F2400 E25.89293
G1 F1200 X52.048 Y78.139 E26.57887
G1 X52.122 Y78.497 E26.59589
G1 X52.134 Y78.534 E26.5977
G1 X52.291 Y78.903 E26.61637
G1 X52.31 Y78.938 E26.61823
G1 X52.534 Y79.263 E26.63661
G1 X52.56 Y79.294 E26.63849
G1 X52.846 Y79.571 E26.65703
G1 X52.877 Y79.595 E26.65886
G1 X53.218 Y79.814 E26.67773
G1 X53.25 Y79.831 E26.67942
G1 X53.527 Y79.944 E26.69335
G1 X53.563 Y79.955 E26.6951
G1 X54.095 Y80.064 E26.72039
G1 X54.135 Y80.068 E26.72226
G1 X65.09 Y80.067 E27.23237
G1 X65.103 Y80.067 E27.23297
G1 X65.392 Y80.048 E27.24646
G1 X65.42 Y80.044 E27.24778
G1 X65.811 Y79.963 E27.26637
G1 X65.848 Y79.951 E27.26818
G1 X66.217 Y79.794 E27.28685
G1 X66.252 Y79.775 E27.28871
G1 X66.577 Y79.551 E27.30709
G1 X66.608 Y79.525 E27.30897
G1 X66.886 Y79.238 E27.32758
G1 X66.91 Y79.207 E27.3294
G1 X67.129 Y78.865 E27.34831
G1 X67.147 Y78.831 E27.3501
G1 X67.279 Y78.497 E27.36683
G1 X67.29 Y78.459 E27.36867
G1 X67.353 Y78.119 E27.38477
G1 X67.353 Y92.862 E28.07127
G1 X67.278 Y92.503 E28.08834
G1 X67.266 Y92.466 E28.09016
G1 X67.109 Y92.097 E28.10883
G1 X67.09 Y92.062 E28.11068
G1 X66.866 Y91.737 E28.12906
G1 X66.84 Y91.706 E28.13095
G1 X66.553 Y91.428 E28.14955
G1 X66.522 Y91.404 E28.15138
G1 X66.182 Y91.186 E28.17018
G1 X66.15 Y91.169 E28.17187
G1 X65.873 Y91.056 E28.1858
G1 X65.837 Y91.045 E28.18755
G1 X65.305 Y90.936 E28.21284
G1 X65.265 Y90.932 E28.21471
G1 X54.31 Y90.933 E28.72482
G1 X54.297 Y90.933 E28.72543
G1 X54.008 Y90.952 E28.73892
G1 X53.98 Y90.956 E28.74023
G1 X53.589 Y91.037 E28.75883
G1 X53.552 Y91.049 E28.76064
G1 X53.183 Y91.206 E28.77931
G1 X53.148 Y91.225 E28.78116
G1 X52.823 Y91.449 E28.79954
G1 X52.792 Y91.475 E28.80143
G1 X52.514 Y91.762 E28.82003
G1 X52.49 Y91.793 E28.82186
G1 X52.271 Y92.135 E28.84077
G1 X52.253 Y92.169 E28.84256
G1 X52.121 Y92.501 E28.8592
G1 X52.11 Y92.538 E28.86099
G1 X52.048 Y92.87 E28.87672
G1 F2400 E27.97672
G1 F300 Z0.48
G0 F6000 X52.596 Y91.12 Z0.48
G1 F300 Z0.28
G1 F2400 E28.87672
G1 F1200 X52.505 Y91.197 E28.88227
G1 X52.448 Y91.256 E28.88609
G1 X52.448 Y79.742 E29.42223
G1 X52.568 Y79.858 E29.43
G1 X52.661 Y79.932 E29.43554
G1 X53.002 Y80.151 E29.45441
G1 X53.099 Y80.202 E29.45951
G1 X53.376 Y80.315 E29.47344
G1 X53.483 Y80.347 E29.47864
G1 X54.015 Y80.456 E29.50393
G1 X54.135 Y80.468 E29.50954
G1 X65.09 Y80.467 E30.01965
G1 X65.129 Y80.466 E30.02147
G1 X65.418 Y80.447 E30.03496
G1 X65.501 Y80.436 E30.03886
G1 X65.892 Y80.355 E30.05745
G1 X66.005 Y80.319 E30.06297
G1 X66.374 Y80.162 E30.08164
G1 X66.479 Y80.104 E30.08723
G1 X66.804 Y79.88 E30.10561
G1 X66.895 Y79.803 E30.11116
G1 X66.953 Y79.743 E30.11505
G1 X66.953 Y91.259 E30.65128
G1 X66.831 Y91.141 E30.65918
G1 X66.738 Y91.067 E30.66472
G1 X66.398 Y90.849 E30.68352
G1 X66.301 Y90.798 E30.68863
G1 X66.024 Y90.685 E30.70256
G1 X65.917 Y90.653 E30.70776
G1 X65.385 Y90.544 E30.73304
G1 X65.265 Y90.532 E30.73866
G1 X54.31 Y90.533 E31.24877
G1 X54.271 Y90.534 E31.25059
G1 X53.982 Y90.553 E31.26407
G1 X53.899 Y90.564 E31.26797
G1 X53.508 Y90.645 E31.28656
G1 X53.395 Y90.681 E31.29209
G1 X53.026 Y90.838 E31.31076
G1 X52.921 Y90.896 E31.31634
G1 X52.596 Y91.12 E31.33472
G0 F6000 X53.238 Y90.313
G1 F1200 X52.869 Y90.47 E31.3534
G1 X52.848 Y90.482 E31.35452
G1 X52.848 Y80.519 E31.81844
G1 X52.948 Y80.572 E31.82371
G1 X53.225 Y80.685 E31.83764
G1 X53.402 Y80.739 E31.84626
G1 X53.934 Y80.848 E31.87155
G1 X54.135 Y80.868 E31.88095
G1 X65.09 Y80.867 E32.39106
G1 X65.156 Y80.865 E32.39414
G1 X65.445 Y80.846 E32.40762
G1 X65.582 Y80.827 E32.41406
G1 X65.973 Y80.746 E32.43266
G1 X66.162 Y80.687 E32.44188
G1 X66.531 Y80.53 E32.46055
G1 X66.553 Y80.518 E32.46172
G1 X66.553 Y90.48 E32.92559
G1 X66.452 Y90.428 E32.93088
G1 X66.175 Y90.315 E32.94481
G1 X65.998 Y90.261 E32.95343
G1 X65.466 Y90.152 E32.97871
G1 X65.265 Y90.132 E32.98812
G1 X54.31 Y90.133 E33.49823
G1 X54.244 Y90.135 E33.5013
G1 X53.955 Y90.154 E33.51479
G1 X53.818 Y90.173 E33.52123
G1 X53.427 Y90.254 E33.53982
G1 X53.238 Y90.313 E33.54904
G0 F6000 X54.31 Y89.733
G1 F1200 X54.218 Y89.736 E33.55333
G1 X53.929 Y89.755 E33.56681
G1 X53.737 Y89.781 E33.57584
G1 X53.346 Y89.862 E33.59443
G1 X53.248 Y89.893 E33.59922
G1 X53.248 Y81.108 E34.00828
G1 X53.322 Y81.131 E34.01189
G1 X53.854 Y81.24 E34.03718
G1 X54.135 Y81.268 E34.05033
G1 X65.09 Y81.267 E34.56044
G1 X65.182 Y81.264 E34.56472
G1 X65.471 Y81.245 E34.57821
G1 X65.663 Y81.219 E34.58723
G1 X66.054 Y81.138 E34.60582
G1 X66.153 Y81.107 E34.61066
G1 X66.153 Y89.892 E35.01972
G1 X66.078 Y89.869 E35.02337
G1 X65.546 Y89.76 E35.04866
G1 X65.265 Y89.732 E35.06181
G1 X54.31 Y89.733 E35.57192
G0 F6000 X54.31 Y89.333
G1 F1200 X54.192 Y89.337 E35.57742
G1 X53.903 Y89.356 E35.5909
G1 X53.656 Y89.389 E35.60251
G1 X53.648 Y89.391 E35.60289
G1 X53.648 Y81.605 E35.96544
G1 X53.774 Y81.631 E35.97143
G1 X54.135 Y81.668 E35.98833
G1 X65.09 Y81.667 E36.49844
G1 X65.208 Y81.663 E36.50394
G1 X65.497 Y81.644 E36.51742
G1 X65.744 Y81.611 E36.52903
G1 X65.753 Y81.609 E36.52946
G1 X65.753 Y89.395 E36.89201
G1 X65.626 Y89.369 E36.89804
G1 X65.265 Y89.332 E36.91494
G1 X54.31 Y89.333 E37.42505
G0 F6000 X54.31 Y88.933
G1 F1200 X54.166 Y88.938 E37.43176
G1 X54.048 Y88.946 E37.43727
G1 X54.048 Y82.059 E37.75795
G1 X54.135 Y82.068 E37.76203
G1 X65.09 Y82.067 E38.27214
G1 X65.234 Y82.062 E38.27885
G1 X65.353 Y82.054 E38.2844
G1 X65.353 Y88.941 E38.60509
G1 X65.265 Y88.932 E38.60921
G1 X54.31 Y88.933 E39.11932
G0 F6000 X54.448 Y88.533
G1 F1200 X54.448 Y82.468 E39.40173
G1 X64.953 Y82.467 E39.89089
G1 X64.953 Y88.532 E40.1733
G1 X54.448 Y88.533 E40.66246
G0 F6000 X54.848 Y88.133
G1 F1200 X54.848 Y82.868 E40.90762
G1 X64.553 Y82.867 E41.35952
G1 X64.553 Y88.132 E41.60468
G1 X54.848 Y88.133 E42.05659
G0 F6000 X55.248 Y87.733
G1 F1200 X55.248 Y83.268 E42.2645
G1 X64.153 Y83.267 E42.67915
G1 X64.153 Y87.732 E42.88706
G1 X55.248 Y87.733 E43.30171
G0 F6000 X55.648 Y87.333
G1 F1200 X55.648 Y83.668 E43.47237
G1 X63.753 Y83.667 E43.84977
G1 X63.753 Y87.332 E44.02043
G1 X55.648 Y87.333 E44.39783
G1 F2400 E43.49783
G1 F300 Z0.48
