;FLAVOR:Marlin
;TIME:2579
;Filament used: 3.08325m
;Layer height: 0.28
;MINX:97.135
;MINY:85.335
;MINZ:0.28
;MAXX:119.665
;MAXY:134.665
;MAXZ:17.08
;TARGET_MACHINE.NAME:Creality Ender-3 V3 SE
;Generated with Cura_SteamEngine 5.9.0
M82 ;absolute extrusion mode
M220 S100 ;Reset Feedrate
M221 S100 ;Reset Flowrate

G28 ;Home

M420 S1; Use saved mesh leveling data

G92 E0 ;Reset Extruder
G1 Z2.0 F3000 ;Move Z Axis up
G1 X-3 Y20 Z0.28 F5000.0 ;Move to start position
M190 S65 ; Set bed temperature and wait
M109 S215.0 ; Set hotend temperature and wait
G1 X-3 Y100.0 Z0.28 F1500.0 E15 ;Draw the first line
G1 X-2 Y100.0 Z0.28 F5000.0 ;Move to side a little
G1 X-2 Y20 Z0.28 F1500.0 E30 ;Draw the second line
G92 E0 ;Reset Extruder
G1 E-1.0000 F1800 ;Retract a bit
G1 Z2.0 F3000 ;Move Z Axis up
G1 E0.0000 F1800 

G92 E0
G92 E0
G1 F2400 E-0.8
;LAYER_COUNT:61
;LAYER:0
M107
G0 F7800 X99.2 Y92.236 Z0.28
;TYPE:SKIRT
G1 F2400 E0
G1 F1560 X99.056 Y92.095 E0.00938
G1 X98.98 Y91.981 E0.01576
G1 X98.83 Y91.593 E0.03513
G1 X98.805 Y91.444 E0.04217
G1 X98.8 Y90.565 E0.0831
G1 X98.895 Y90.175 E0.10179
G1 X98.958 Y90.047 E0.10843
G1 X99.174 Y89.759 E0.1252
G1 X99.2 Y89.743 E0.12662
G1 X99.2 Y92.236 E0.2427
G0 F7800 X99.6 Y92.812
G1 F1560 X99.53 Y92.945 E0.2497
G1 X99.274 Y92.826 E0.26285
G1 X99.119 Y92.718 E0.27164
G1 X98.748 Y92.353 E0.29588
G1 X98.623 Y92.168 E0.30627
G1 X98.443 Y91.701 E0.32958
G1 X98.405 Y91.476 E0.3402
G1 X98.399 Y90.52 E0.38472
G1 X98.518 Y90.035 E0.40797
G1 X98.614 Y89.839 E0.41814
G1 X98.899 Y89.461 E0.44018
G1 X99.306 Y89.196 E0.4628
G1 X99.502 Y89.101 E0.47294
G1 X99.6 Y89.249 E0.4812
G1 X99.6 Y92.812 E0.64711
G0 F7800 X99.8 Y93.343
G1 F1560 X99.8 Y93.534 E0.656
G1 X99.489 Y93.368 E0.67242
G1 X99.479 Y93.363 E0.67294
G1 X99.079 Y93.177 E0.69348
G1 X98.862 Y93.025 E0.70582
G1 X98.437 Y92.608 E0.73354
G1 X98.266 Y92.353 E0.74784
G1 X98.054 Y91.806 E0.77516
G1 X98.005 Y91.514 E0.78894
G1 X97.999 Y90.471 E0.83751
G1 X98.138 Y89.903 E0.86474
G1 X98.274 Y89.625 E0.87915
G1 X98.622 Y89.164 E0.90605
G1 X99.107 Y88.849 E0.93297
G1 X99.408 Y88.702 E0.94857
G1 X99.8 Y88.605 E0.96738
G1 X99.8 Y88.767 E0.97492
G1 X99.833 Y88.877 E0.98027
G1 X100 Y89.129 E0.99434
G1 X100 Y92.911 E1.17045
G1 X99.823 Y93.25 E1.18826
G1 X99.8 Y93.343 E1.19272
G1 F2400 E0.39272
G0 F7800 X100.347 Y85.347
G0 X107.19 Y85.336
G0 X107.905 Y85.491
G0 X108.5 Y85.794
G0 X109.002 Y86.239
G0 X109.376 Y86.791
G0 X109.56 Y87.3
G0 X110.624 Y92.852
G1 F2400 E1.19272
G1 F1560 X110.499 Y92.9 E1.19895
G1 X110.4 Y92.751 E1.20728
G1 X110.4 Y89.251 E1.37026
G1 X110.489 Y89.1 E1.37842
G1 X110.512 Y89.105 E1.37951
G1 X110.765 Y89.225 E1.39255
G1 X111.169 Y89.561 E1.41702
G1 X111.364 Y89.803 E1.43149
G1 X111.569 Y90.323 E1.45752
G1 X111.595 Y90.512 E1.4664
G1 X111.601 Y91.487 E1.5118
G1 X111.492 Y91.955 E1.53418
G1 X111.388 Y92.154 E1.54464
G1 X111.106 Y92.523 E1.56626
G1 X110.624 Y92.852 E1.59343
G0 F7800 X110.812 Y93.208
G1 F1560 X110.452 Y93.346 E1.61139
G1 X110.2 Y93.343 E1.62312
G1 X110.2 Y93.231 E1.62834
G1 X110.166 Y93.12 E1.63374
G1 X110 Y92.873 E1.6476
G1 X110 Y89.134 E1.8217
G1 X110.022 Y89.104 E1.82344
G1 X110.032 Y89.089 E1.82428
G1 X110.171 Y88.854 E1.83699
G1 X110.199 Y88.752 E1.84191
G1 X110.199 Y88.655 E1.84643
G1 X110.409 Y88.676 E1.85626
G1 X110.642 Y88.724 E1.86734
G1 X110.982 Y88.885 E1.88485
G1 X111.456 Y89.279 E1.91355
G1 X111.714 Y89.601 E1.93277
G1 X111.959 Y90.22 E1.96377
G1 X111.995 Y90.485 E1.97622
G1 X112.001 Y91.529 E2.02483
G1 X111.869 Y92.099 E2.05208
G1 X111.729 Y92.366 E2.06611
G1 X111.383 Y92.818 E2.09262
G1 X110.812 Y93.208 E2.12482
G0 F7800 X110.827 Y92.228
G1 F1560 X110.8 Y92.247 E2.12635
G1 X110.8 Y89.774 E2.24151
G1 X110.882 Y89.842 E2.24647
G1 X111.014 Y90.006 E2.25627
G1 X111.178 Y90.422 E2.27709
G1 X111.195 Y90.545 E2.28287
G1 X111.2 Y91.442 E2.32464
G1 X111.113 Y91.818 E2.34261
G1 X111.052 Y91.935 E2.34876
G1 X110.827 Y92.228 E2.36596
G1 F2400 E1.56596
G0 F7800 X116.1 Y99.029
G0 X117.357 Y101.008
G0 X118.354 Y103.13
G0 X119.078 Y105.36
G0 X119.517 Y107.661
G0 X119.665 Y110
G0 X119.519 Y112.328
G0 X119.078 Y114.64
G0 X118.354 Y116.87
G0 X117.547 Y118.589
G0 X110.828 Y130.227
G1 F2400 E2.36596
G1 F1560 X110.8 Y130.246 E2.36754
G1 X110.8 Y127.775 E2.4826
G1 X110.881 Y127.843 E2.48752
G1 X111.014 Y128.009 E2.49743
G1 X111.18 Y128.432 E2.51858
G1 X111.195 Y128.543 E2.5238
G1 X111.2 Y129.442 E2.56566
G1 X111.113 Y129.818 E2.58363
G1 X111.052 Y129.935 E2.58978
G1 X110.828 Y130.227 E2.60691
G0 F7800 X110.554 Y130.899
G1 F1560 X110.48 Y130.92 E2.61049
G1 X110.4 Y130.784 E2.61784
G1 X110.4 Y127.254 E2.78221
G1 X110.494 Y127.118 E2.78991
G1 X110.501 Y127.102 E2.79072
G1 X110.517 Y127.106 E2.79149
G1 X110.763 Y127.223 E2.80418
G1 X111.163 Y127.557 E2.82844
G1 X111.368 Y127.812 E2.84368
G1 X111.569 Y128.325 E2.86933
G1 X111.595 Y128.518 E2.8784
G1 X111.601 Y129.487 E2.92352
G1 X111.492 Y129.955 E2.9459
G1 X111.388 Y130.154 E2.95635
G1 X111.107 Y130.521 E2.97788
G1 X110.554 Y130.899 E3.00907
G0 F7800 X110.725 Y131.266
G1 F1560 X110.198 Y131.416 E3.03458
G1 X110.198 Y131.284 E3.04073
G1 X110.17 Y131.183 E3.04561
G1 X110 Y130.894 E3.06122
G1 X110 Y127.13 E3.23649
G1 X110.165 Y126.891 E3.25001
G1 X110.2 Y126.777 E3.25556
G1 X110.2 Y126.668 E3.26064
G1 X110.368 Y126.668 E3.26846
G1 X110.644 Y126.722 E3.28156
G1 X110.979 Y126.883 E3.29886
G1 X111.454 Y127.278 E3.32763
G1 X111.716 Y127.606 E3.34718
G1 X111.96 Y128.228 E3.37829
G1 X111.995 Y128.486 E3.39041
G1 X112.001 Y129.529 E3.43898
G1 X111.869 Y130.099 E3.46623
G1 X111.729 Y130.366 E3.48026
G1 X111.384 Y130.816 E3.50667
G1 X110.725 Y131.266 E3.54382
G1 F2400 E2.74382
G0 F7800 X108.998 Y133.766
G0 X108.498 Y134.206
G0 X107.903 Y134.509
G0 X107.188 Y134.664
G0 X100.347 Y134.653
G0 X99.8 Y131.329
G1 F2400 E3.54382
G1 F1560 X99.8 Y131.501 E3.55183
G1 X99.072 Y131.174 E3.58899
G1 X98.866 Y131.028 E3.60075
G1 X98.412 Y130.582 E3.63039
G1 X98.266 Y130.353 E3.64303
G1 X98.054 Y129.806 E3.67035
G1 X98.005 Y129.514 E3.68414
G1 X97.999 Y128.471 E3.7327
G1 X98.138 Y127.903 E3.75993
G1 X98.272 Y127.627 E3.77422
G1 X98.622 Y127.164 E3.80124
G1 X99.107 Y126.849 E3.82817
G1 X99.408 Y126.702 E3.84377
G1 X99.8 Y126.605 E3.86257
G1 X99.8 Y126.763 E3.86993
G1 X99.834 Y126.874 E3.87534
G1 X100 Y127.121 E3.8892
G1 X100 Y130.923 E4.06623
G1 X99.955 Y130.99 E4.06999
G1 X99.944 Y131.007 E4.07093
G1 X99.823 Y131.235 E4.08295
G1 X99.8 Y131.329 E4.08746
G0 F7800 X99.6 Y130.805
G1 F1560 X99.591 Y130.82 E4.08827
G1 X99.527 Y130.94 E4.09461
G1 X99.272 Y130.825 E4.10763
G1 X99.123 Y130.719 E4.11615
G1 X98.723 Y130.327 E4.14222
G1 X98.624 Y130.172 E4.15079
G1 X98.443 Y129.703 E4.1742
G1 X98.405 Y129.476 E4.18491
G1 X98.399 Y128.52 E4.22943
G1 X98.518 Y128.035 E4.25268
G1 X98.614 Y127.839 E4.26285
G1 X98.899 Y127.461 E4.28489
G1 X99.306 Y127.196 E4.3075
G1 X99.504 Y127.1 E4.31775
G1 X99.6 Y127.243 E4.32577
G1 X99.6 Y130.805 E4.49163
G0 F7800 X99.2 Y130.235
G1 F1560 X99.038 Y130.076 E4.5022
G1 X98.983 Y129.99 E4.50696
G1 X98.83 Y129.593 E4.52677
G1 X98.805 Y129.444 E4.5338
G1 X98.8 Y128.565 E4.57473
G1 X98.895 Y128.175 E4.59342
G1 X98.958 Y128.047 E4.60007
G1 X99.174 Y127.759 E4.61683
G1 X99.2 Y127.743 E4.61825
G1 X99.2 Y130.235 E4.73429
G1 F2400 E3.93429
;MESH:lathe-pulley-spacer-17mm-half.stl
G0 F7800 X100.347 Y134.653
G0 X107.188 Y134.664
G0 X107.903 Y134.509
G0 X108.498 Y134.206
G0 X108.998 Y133.766
G0 X109.376 Y133.211
G0 X109.56 Y132.702
G0 X110.645 Y125.97
G0 X110 Y124.881
;TYPE:WALL-INNER
G1 F2400 E4.73429
G1 F1560 X110.326 Y124.689 E4.75191
G1 X111.234 Y124.07 E4.80308
G1 X112.08 Y123.413 E4.85295
G1 X112.877 Y122.71 E4.90244
G1 X113.666 Y121.924 E4.9543
G1 X114.409 Y121.081 E5.00662
G1 X115.07 Y120.23 E5.0568
G1 X115.685 Y119.33 E5.10755
G1 X116.249 Y118.37 E5.1594
G1 X116.748 Y117.396 E5.21036
G1 X117.177 Y116.403 E5.26073
G1 X117.549 Y115.366 E5.31203
G1 X117.85 Y114.335 E5.36204
G1 X118.09 Y113.248 E5.41387
G1 X118.264 Y112.156 E5.46536
G1 X118.364 Y111.102 E5.51466
G1 X118.399 Y109.989 E5.56651
G1 X118.364 Y108.894 E5.61753
G1 X118.264 Y107.829 E5.66734
G1 X118.086 Y106.729 E5.71922
G1 X117.85 Y105.662 E5.77011
G1 X117.549 Y104.634 E5.81999
G1 X117.173 Y103.585 E5.87188
G1 X116.748 Y102.6 E5.92183
G1 X116.242 Y101.606 E5.97377
G1 X115.685 Y100.667 E6.0246
G1 X115.07 Y99.766 E6.0754
G1 X114.409 Y98.915 E6.12557
G1 X113.69 Y98.095 E6.17636
G1 X112.901 Y97.31 E6.22818
G1 X112.081 Y96.587 E6.27909
G1 X111.234 Y95.93 E6.329
G1 X110.329 Y95.311 E6.38006
G1 X109.383 Y94.751 E6.43124
G1 X108.608 Y94.359 E6.47169
G1 X108.447 Y94.117 E6.48522
G1 X108.4 Y93.957 E6.49299
G1 X108.4 Y87.909 E6.77461
G1 X108.351 Y87.612 E6.78862
G1 X108.247 Y87.364 E6.80114
G1 X108.044 Y87.069 E6.81782
G1 X107.869 Y86.892 E6.82941
G1 X107.631 Y86.749 E6.84234
G1 X107.387 Y86.646 E6.85467
G1 X107.09 Y86.6 E6.86866
G1 X101.6 Y86.6 E7.1243
G1 X101.601 Y99.418 E7.72116
G1 X102.348 Y99.486 E7.75609
G1 X103.007 Y99.59 E7.78715
G1 X103.616 Y99.726 E7.81621
G1 X104.3 Y99.923 E7.84936
G1 X104.914 Y100.146 E7.87977
G1 X105.533 Y100.419 E7.91127
G1 X106.116 Y100.712 E7.94166
G1 X106.702 Y101.063 E7.97346
G1 X107.245 Y101.434 E8.00409
G1 X107.76 Y101.836 E8.03451
G1 X108.277 Y102.291 E8.06658
G1 X108.737 Y102.753 E8.09693
G1 X109.161 Y103.231 E8.12669
G1 X109.587 Y103.781 E8.15908
G1 X109.948 Y104.32 E8.18929
G1 X110.3 Y104.912 E8.22136
G1 X110.591 Y105.489 E8.25145
G1 X110.86 Y106.114 E8.28313
G1 X111.08 Y106.723 E8.31329
G1 X111.265 Y107.357 E8.34404
G1 X111.413 Y108.011 E8.37526
G1 X111.516 Y108.678 E8.40669
G1 X111.58 Y109.333 E8.43733
G1 X111.6 Y110.012 E8.46896
G1 X111.578 Y110.668 E8.49953
G1 X111.513 Y111.349 E8.53138
G1 X111.41 Y111.999 E8.56203
G1 X111.264 Y112.65 E8.59309
G1 X111.078 Y113.277 E8.62354
G1 X110.855 Y113.905 E8.65458
G1 X110.58 Y114.532 E8.68646
G1 X110.285 Y115.11 E8.71667
G1 X109.965 Y115.651 E8.74594
G1 X109.559 Y116.248 E8.77956
G1 X109.164 Y116.756 E8.80952
G1 X108.727 Y117.254 E8.84037
G1 X108.244 Y117.733 E8.87205
G1 X107.738 Y118.182 E8.90355
G1 X107.231 Y118.577 E8.93348
G1 X106.672 Y118.952 E8.96482
G1 X106.077 Y119.305 E8.99704
G1 X105.506 Y119.59 E9.02675
G1 X104.876 Y119.865 E9.05876
G1 X104.3 Y120.073 E9.08728
G1 X103.617 Y120.27 E9.12038
G1 X102.962 Y120.417 E9.15163
G1 X102.317 Y120.518 E9.18203
G1 X101.601 Y120.582 E9.21551
G1 X101.6 Y133.4 E9.81237
G1 X107.087 Y133.4 E10.06786
G1 X107.384 Y133.351 E10.08188
G1 X107.632 Y133.247 E10.0944
G1 X107.927 Y133.043 E10.1111
G1 X108.104 Y132.869 E10.12266
G1 X108.247 Y132.632 E10.13555
G1 X108.351 Y132.385 E10.14803
G1 X108.4 Y132.087 E10.16209
G1 X108.4 Y126.034 E10.44394
G1 X108.518 Y125.757 E10.45796
G1 X108.682 Y125.606 E10.46835
G1 X109.382 Y125.246 E10.505
G1 X110 Y124.881 E10.53842
G0 F7800 X110 Y125.345
;TYPE:WALL-OUTER
G1 F1560 X110.54 Y125.027 E10.5676
G1 X111.47 Y124.394 E10.61998
G1 X112.336 Y123.721 E10.67105
G1 X113.151 Y123.002 E10.72166
G1 X113.958 Y122.198 E10.7747
G1 X114.717 Y121.336 E10.82818
G1 X115.394 Y120.466 E10.87952
G1 X116.023 Y119.544 E10.93149
G1 X116.6 Y118.563 E10.98448
G1 X117.11 Y117.566 E11.03663
G1 X117.549 Y116.55 E11.08816
G1 X117.929 Y115.49 E11.1406
G1 X118.238 Y114.434 E11.19183
G1 X118.483 Y113.322 E11.24485
G1 X118.661 Y112.206 E11.29748
G1 X118.764 Y111.127 E11.34795
G1 X118.799 Y109.989 E11.40096
G1 X118.764 Y108.869 E11.45314
G1 X118.661 Y107.778 E11.50417
G1 X118.479 Y106.654 E11.55719
G1 X118.238 Y105.562 E11.60926
G1 X117.929 Y104.51 E11.66031
G1 X117.545 Y103.438 E11.71334
G1 X117.11 Y102.43 E11.76446
G1 X116.592 Y101.413 E11.8176
G1 X116.023 Y100.452 E11.86961
G1 X115.394 Y99.53 E11.92158
G1 X114.717 Y98.66 E11.97291
G1 X113.982 Y97.821 E12.02485
G1 X113.175 Y97.018 E12.07786
G1 X112.336 Y96.279 E12.12992
G1 X111.47 Y95.606 E12.18099
G1 X110.544 Y94.973 E12.23322
G1 X109.575 Y94.4 E12.28564
G1 X108.894 Y94.054 E12.32121
G1 X108.803 Y93.919 E12.32879
G1 X108.8 Y87.877 E12.61013
G1 X108.738 Y87.5 E12.62792
G1 X108.605 Y87.183 E12.64393
G1 X108.345 Y86.805 E12.66529
G1 X108.119 Y86.575 E12.6803
G1 X107.813 Y86.391 E12.69693
G1 X107.497 Y86.258 E12.71289
G1 X107.12 Y86.2 E12.73065
G1 X101.2 Y86.2 E13.00631
G1 X101.201 Y99.806 E13.63987
G1 X101.639 Y99.82 E13.66027
G1 X102.287 Y99.882 E13.69058
G1 X102.92 Y99.98 E13.72041
G1 X103.54 Y100.119 E13.75
G1 X104.164 Y100.299 E13.78024
G1 X104.753 Y100.512 E13.8094
G1 X105.354 Y100.777 E13.83999
G1 X105.911 Y101.056 E13.86899
G1 X106.477 Y101.394 E13.89969
G1 X106.999 Y101.75 E13.92911
G1 X107.496 Y102.137 E13.95844
G1 X107.994 Y102.574 E13.9893
G1 X108.438 Y103.019 E14.01857
G1 X108.854 Y103.489 E14.04779
G1 X109.255 Y104.004 E14.07819
G1 X109.604 Y104.525 E14.10739
G1 X109.943 Y105.093 E14.13819
G1 X110.224 Y105.648 E14.16715
G1 X110.484 Y106.251 E14.19773
G1 X110.696 Y106.835 E14.22666
G1 X110.879 Y107.463 E14.25712
G1 X111.018 Y108.077 E14.28643
G1 X111.119 Y108.732 E14.31729
G1 X111.18 Y109.345 E14.34598
G1 X111.2 Y109.999 E14.37644
G1 X111.18 Y110.631 E14.40589
G1 X111.118 Y111.287 E14.43657
G1 X111.02 Y111.912 E14.46603
G1 X110.881 Y112.537 E14.49584
G1 X110.701 Y113.143 E14.52528
G1 X110.488 Y113.745 E14.55501
G1 X110.223 Y114.351 E14.58581
G1 X109.941 Y114.906 E14.6148
G1 X109.614 Y115.457 E14.64463
G1 X109.243 Y116.003 E14.67537
G1 X108.863 Y116.492 E14.70421
G1 X108.443 Y116.973 E14.73394
G1 X107.978 Y117.434 E14.76443
G1 X107.492 Y117.866 E14.79471
G1 X106.988 Y118.258 E14.82444
G1 X106.467 Y118.608 E14.85367
G1 X105.9 Y118.947 E14.88443
G1 X105.345 Y119.224 E14.91331
G1 X104.74 Y119.489 E14.94407
G1 X104.152 Y119.701 E14.97317
G1 X103.529 Y119.88 E15.00335
G1 X102.9 Y120.022 E15.03338
G1 X102.279 Y120.12 E15.06265
G1 X101.627 Y120.18 E15.09314
G1 X101.201 Y120.194 E15.11299
G1 X101.2 Y133.8 E15.74654
G1 X107.119 Y133.8 E16.02216
G1 X107.496 Y133.738 E16.03995
G1 X107.813 Y133.605 E16.05595
G1 X108.191 Y133.345 E16.07732
G1 X108.421 Y133.119 E16.09233
G1 X108.605 Y132.813 E16.10896
G1 X108.738 Y132.496 E16.12496
G1 X108.8 Y132.119 E16.14276
G1 X108.804 Y126.075 E16.42419
G1 X108.908 Y125.937 E16.43224
G1 X109.575 Y125.596 E16.46712
G1 X110 Y125.345 E16.4901
G0 F7800 X110 Y124.461
;TYPE:SKIN
G1 F1563.9 X109.207 Y124.928 E16.53285
G1 F1560 X108.528 Y125.278 E16.56842
G1 X108.229 Y125.543 E16.58702
G1 X108.044 Y125.971 E16.60873
G1 X108.04 Y132.05 E16.8918
G1 X108 Y132.276 E16.90248
G1 X107.784 Y132.7 E16.92464
G1 X107.462 Y132.924 E16.94291
G1 X107.051 Y133.039 E16.96278
G1 X101.96 Y133.04 E17.19984
G1 X101.96 Y120.911 E17.76461
G1 X102.351 Y120.876 E17.78289
G1 X103.02 Y120.77 E17.81443
G1 X103.704 Y120.62 E17.84704
G1 X104.344 Y120.437 E17.87804
G1 X104.997 Y120.2 E17.91038
G1 X105.638 Y119.924 E17.94288
G1 X106.286 Y119.599 E17.97664
G1 X106.852 Y119.26 E18.00736
G1 X107.435 Y118.875 E18.03989
G1 X107.956 Y118.466 E18.07073
G1 X108.501 Y117.982 E18.10467
G1 X108.977 Y117.511 E18.13585
G1 X109.407 Y117.025 E18.16607
G1 X109.851 Y116.454 E18.19975
G1 X110.261 Y115.858 E18.23343
G1 X110.585 Y115.31 E18.26308
G1 X110.915 Y114.663 E18.2969
G1 X111.192 Y114.033 E18.32894
G1 X111.429 Y113.359 E18.36221
G1 X111.624 Y112.688 E18.39475
G1 X111.768 Y112.035 E18.42588
G1 X111.87 Y111.383 E18.45661
G1 X111.94 Y110.672 E18.48988
G1 X111.96 Y110.023 E18.52012
G1 X111.936 Y109.281 E18.55468
G1 X111.875 Y108.664 E18.58355
G1 X111.766 Y107.961 E18.61668
G1 X111.616 Y107.28 E18.64915
G1 X111.416 Y106.596 E18.68233
G1 X111.193 Y105.976 E18.71301
G1 X110.916 Y105.336 E18.74549
G1 X110.599 Y104.709 E18.7782
G1 X110.236 Y104.104 E18.81105
G1 X109.887 Y103.581 E18.84033
G1 X109.443 Y103.008 E18.87409
G1 X109.01 Y102.519 E18.9045
G1 X108.51 Y102.015 E18.93756
G1 X108.012 Y101.577 E18.96844
G1 X107.42 Y101.114 E19.00343
G1 X106.913 Y100.77 E19.03196
G1 X106.275 Y100.388 E19.06659
G1 X105.662 Y100.081 E19.09851
G1 X105.053 Y99.812 E19.12951
G1 X104.357 Y99.559 E19.164
G1 X103.755 Y99.387 E19.19315
G1 X103.087 Y99.24 E19.225
G1 X102.393 Y99.126 E19.25775
G1 X101.96 Y99.085 E19.278
G1 X101.96 Y86.96 E19.84259
G1 X107.06 Y86.96 E20.08007
G1 X107.278 Y86.993 E20.09034
G1 X107.7 Y87.208 E20.11239
G1 X107.988 Y87.623 E20.13591
G1 X108.04 Y87.941 E20.15092
G1 X108.043 Y93.911 E20.4289
