;FLAVOR:Marlin
;TIME:4498
;Filament used: 4.46641m
;Layer height: 0.2
;MINX:82.201
;MINY:86.2
;MINZ:0.28
;MAXX:137.799
;MAXY:133.8
;MAXZ:27.28
;TARGET_MACHINE.NAME:Creality Ender-3 V3 SE
;Generated with Cura_SteamEngine 5.9.0
M82 ;absolute extrusion mode
M220 S100 ;Reset Feedrate
M221 S100 ;Reset Flowrate

G28 ;Home

M420 S1; Use saved mesh leveling data

G92 E0 ;Reset Extruder
G1 Z2.0 F3000 ;Move Z Axis up
G1 X-3 Y20 Z0.28 F5000.0 ;Move to start position
M190 S60 ; Set bed temperature and wait
M109 S215.0 ; Set hotend temperature and wait
G1 X-3 Y100.0 Z0.28 F1500.0 E15 ;Draw the first line
G1 X-2 Y100.0 Z0.28 F5000.0 ;Move to side a little
G1 X-2 Y20 Z0.28 F1500.0 E30 ;Draw the second line
G92 E0 ;Reset Extruder
G1 E-1.0000 F1800 ;Retract a bit
G1 Z2.0 F3000 ;Move Z Axis up
G1 E0.0000 F1800 

G92 E0
G92 E0
G1 F2400 E-0.9
;LAYER_COUNT:130
;LAYER:0
M107
M205 X8 Y8
G1 F300 Z1.48
;MESH:lathe-pulley-spacer.stl
G0 F6000 X99 Y133 Z1.48
;TYPE:WALL-INNER
G1 F300 Z0.28
G1 F2400 E0
G1 F1200 X99 Y120.949 E0.56115
G1 X98.58 Y120.908 E0.58079
G1 X97.96 Y120.808 E0.61004
G1 X97.235 Y120.646 E0.64463
G1 X96.56 Y120.449 E0.67737
G1 X95.921 Y120.216 E0.70904
G1 X95.329 Y119.956 E0.73915
G1 X94.702 Y119.643 E0.77178
G1 X94.096 Y119.281 E0.80465
G1 X93.531 Y118.901 E0.83636
G1 X92.99 Y118.479 E0.8683
G1 X92.463 Y118.013 E0.90106
G1 X91.987 Y117.533 E0.93254
G1 X91.517 Y117.007 E0.96539
G1 X91.099 Y116.465 E0.99726
G1 X90.705 Y115.881 E1.03006
G1 X90.355 Y115.294 E1.06188
G1 X90.037 Y114.663 E1.09479
G1 X89.77 Y114.042 E1.12626
G1 X89.539 Y113.406 E1.15777
G1 X89.344 Y112.74 E1.19008
G1 X89.192 Y112.063 E1.22239
G1 X89.087 Y111.382 E1.25448
G1 X89.018 Y110.688 E1.28695
G1 X89 Y109.973 E1.32026
G1 X89.018 Y109.314 E1.35095
G1 X89.091 Y108.582 E1.38521
G1 X89.192 Y107.933 E1.41579
G1 X89.35 Y107.241 E1.44884
G1 X89.548 Y106.558 E1.48195
G1 X89.767 Y105.957 E1.51174
G1 X90.061 Y105.288 E1.54577
G1 X90.352 Y104.708 E1.57598
G1 X90.721 Y104.094 E1.60934
G1 X91.102 Y103.529 E1.64107
G1 X91.52 Y102.991 E1.67279
G1 X92.008 Y102.44 E1.70707
G1 X92.436 Y102.012 E1.73525
G1 X93.017 Y101.498 E1.77137
G1 X93.539 Y101.093 E1.80214
G1 X94.096 Y100.715 E1.83348
G1 X94.704 Y100.352 E1.86646
G1 X95.284 Y100.061 E1.89667
G1 X95.928 Y99.779 E1.92941
G1 X96.623 Y99.526 E1.96385
G1 X97.235 Y99.35 E1.9935
G1 X97.901 Y99.2 E2.02529
G1 X98.586 Y99.092 E2.05758
G1 X99 Y99.051 E2.07695
G1 X99 Y87 E2.6381
G1 X93.937 Y87 E2.87385
G1 X93.718 Y87.034 E2.88417
G1 X93.412 Y87.187 E2.9001
G1 X93.268 Y87.313 E2.90901
G1 X93.108 Y87.547 E2.92221
G1 X93 Y87.848 E2.9371
G1 X93 Y94.023 E3.22463
G1 X92.922 Y94.273 E3.23683
G1 X92.706 Y94.593 E3.25481
G1 X92.532 Y94.732 E3.26518
G1 X91.816 Y95.098 E3.30262
G1 X90.881 Y95.649 E3.35315
G1 X90.033 Y96.229 E3.40099
G1 X89.162 Y96.904 E3.4523
G1 X88.385 Y97.59 E3.50057
G1 X87.597 Y98.374 E3.55233
G1 X86.895 Y99.171 E3.60178
G1 X86.249 Y100.002 E3.65079
G1 X85.649 Y100.88 E3.70031
G1 X85.098 Y101.817 E3.75093
G1 X84.613 Y102.771 E3.80076
G1 X84.191 Y103.741 E3.85002
G1 X83.828 Y104.756 E3.90021
G1 X83.537 Y105.761 E3.94893
G1 X83.299 Y106.824 E3.99965
G1 X83.133 Y107.878 E4.04934
G1 X83.035 Y108.919 E4.09802
G1 X83.001 Y110.007 E4.14871
G1 X83.035 Y111.077 E4.19856
G1 X83.133 Y112.118 E4.24725
G1 X83.299 Y113.172 E4.29693
G1 X83.537 Y114.235 E4.34765
G1 X83.829 Y115.244 E4.39657
G1 X84.19 Y116.255 E4.44655
G1 X84.614 Y117.225 E4.49585
G1 X85.098 Y118.179 E4.54566
G1 X85.649 Y119.115 E4.59623
G1 X86.249 Y119.995 E4.64583
G1 X86.899 Y120.833 E4.69521
G1 X87.602 Y121.627 E4.74459
G1 X88.369 Y122.398 E4.79523
G1 X89.17 Y123.1 E4.84483
G1 X90.002 Y123.747 E4.8939
G1 X90.881 Y124.347 E4.94346
G1 X91.803 Y124.891 E4.99331
G1 X92.555 Y125.283 E5.0328
G1 X92.707 Y125.408 E5.04196
G1 X92.922 Y125.727 E5.05987
G1 X93 Y126.116 E5.07835
G1 X93.001 Y132.059 E5.35508
G1 X93.034 Y132.278 E5.36539
G1 X93.188 Y132.587 E5.38147
G1 X93.432 Y132.822 E5.39724
G1 X93.669 Y132.941 E5.40959
G1 X93.98 Y133 E5.42433
G1 X99 Y133 E5.65808
G0 F6000 X99.4 Y133.4
G1 F1200 X99.4 Y120.581 E6.25499
G1 X98.644 Y120.513 E6.29033
G1 X98.024 Y120.413 E6.31958
G1 X97.38 Y120.27 E6.35029
G1 X96.725 Y120.083 E6.38201
G1 X96.082 Y119.85 E6.41386
G1 X95.463 Y119.577 E6.44536
G1 X94.896 Y119.293 E6.47489
G1 X94.31 Y118.943 E6.50667
G1 X93.766 Y118.578 E6.53718
G1 X93.23 Y118.158 E6.56888
G1 X92.717 Y117.703 E6.60081
G1 X92.272 Y117.252 E6.63032
G1 X91.825 Y116.751 E6.66158
G1 X91.422 Y116.23 E6.69225
G1 X91.048 Y115.676 E6.72338
G1 X90.696 Y115.084 E6.75545
G1 X90.404 Y114.505 E6.78564
G1 X90.136 Y113.878 E6.81739
G1 X89.92 Y113.284 E6.84682
G1 X89.726 Y112.619 E6.87908
G1 X89.583 Y111.972 E6.90993
G1 X89.483 Y111.32 E6.94065
G1 X89.417 Y110.661 E6.97149
G1 X89.4 Y109.984 E7.00302
G1 X89.418 Y109.325 E7.03372
G1 X89.484 Y108.663 E7.0647
G1 X89.59 Y107.983 E7.09674
G1 X89.735 Y107.351 E7.12694
G1 X89.924 Y106.694 E7.15877
G1 X90.146 Y106.086 E7.18891
G1 X90.419 Y105.467 E7.22041
G1 X90.713 Y104.883 E7.25086
G1 X91.053 Y104.317 E7.2816
G1 X91.438 Y103.747 E7.31363
G1 X91.828 Y103.246 E7.34319
G1 X92.291 Y102.723 E7.37572
G1 X92.746 Y102.27 E7.40561
G1 X93.263 Y101.814 E7.43771
G1 X93.782 Y101.411 E7.46831
G1 X94.324 Y101.044 E7.49879
G1 X94.897 Y100.702 E7.52986
G1 X95.492 Y100.405 E7.56083
G1 X96.123 Y100.132 E7.59284
G1 X96.725 Y99.913 E7.62267
G1 X97.38 Y99.726 E7.65439
G1 X97.989 Y99.59 E7.68345
G1 X98.648 Y99.487 E7.7145
G1 X99.4 Y99.419 E7.74966
G1 X99.4 Y86.6 E8.34657
G1 X93.906 Y86.6 E8.60239
G1 X93.609 Y86.646 E8.61639
G1 X93.249 Y86.798 E8.63458
G1 X92.976 Y87.038 E8.65151
G1 X92.751 Y87.363 E8.66992
G1 X92.6 Y87.787 E8.69087
G1 X92.6 Y93.968 E8.97869
G1 X92.554 Y94.117 E8.98595
G1 X92.394 Y94.355 E8.9993
G1 X91.624 Y94.747 E9.03954
G1 X90.667 Y95.311 E9.09126
G1 X89.798 Y95.906 E9.1403
G1 X88.907 Y96.595 E9.19275
G1 X88.111 Y97.298 E9.2422
G1 X87.306 Y98.1 E9.29511
G1 X86.587 Y98.915 E9.34572
G1 X85.926 Y99.766 E9.39589
G1 X85.311 Y100.666 E9.44665
G1 X84.747 Y101.625 E9.49845
G1 X84.251 Y102.6 E9.54939
G1 X83.819 Y103.593 E9.59982
G1 X83.448 Y104.633 E9.65123
G1 X83.15 Y105.662 E9.70112
G1 X82.906 Y106.749 E9.75299
G1 X82.736 Y107.828 E9.80385
G1 X82.636 Y108.894 E9.85371
G1 X82.601 Y110.007 E9.90556
G1 X82.636 Y111.102 E9.95657
G1 X82.736 Y112.168 E10.00643
G1 X82.906 Y113.247 E10.05729
G1 X83.15 Y114.335 E10.10921
G1 X83.448 Y115.367 E10.15923
G1 X83.818 Y116.402 E10.21041
G1 X84.252 Y117.395 E10.26087
G1 X84.747 Y118.371 E10.31183
G1 X85.311 Y119.33 E10.36363
G1 X85.926 Y120.23 E10.41439
G1 X86.591 Y121.088 E10.46494
G1 X87.31 Y121.901 E10.51548
G1 X88.095 Y122.69 E10.5673
G1 X88.915 Y123.409 E10.61808
G1 X89.766 Y124.07 E10.66826
G1 X90.666 Y124.685 E10.71902
G1 X91.61 Y125.242 E10.77005
G1 X92.364 Y125.628 E10.8095
G1 X92.554 Y125.882 E10.82427
G1 X92.6 Y126.116 E10.83537
G1 X92.601 Y132.09 E11.11355
G1 X92.646 Y132.387 E11.12753
G1 X92.799 Y132.752 E11.14596
G1 X93.115 Y133.108 E11.16813
G1 X93.533 Y133.318 E11.18991
G1 X93.959 Y133.4 E11.21011
G1 X99.4 Y133.4 E11.46347
G0 F6000 X99.8 Y133.8
;TYPE:WALL-OUTER
G1 F1200 X99.8 Y120.194 E12.09702
G1 X99.357 Y120.18 E12.11766
G1 X98.708 Y120.118 E12.14801
G1 X98.076 Y120.016 E12.17782
G1 X97.456 Y119.877 E12.20741
G1 X96.832 Y119.697 E12.23765
G1 X96.243 Y119.484 E12.26682
G1 X95.642 Y119.219 E12.2974
G1 X95.085 Y118.94 E12.32641
G1 X94.52 Y118.602 E12.35707
G1 X93.996 Y118.25 E12.38646
G1 X93.495 Y117.858 E12.41608
G1 X93.001 Y117.421 E12.44679
G1 X92.57 Y116.986 E12.47531
G1 X92.129 Y116.491 E12.50618
G1 X91.742 Y115.989 E12.53569
G1 X91.392 Y115.471 E12.5648
G1 X91.053 Y114.903 E12.5956
G1 X90.772 Y114.347 E12.62461
G1 X90.512 Y113.741 E12.65532
G1 X90.3 Y113.157 E12.68425
G1 X90.116 Y112.532 E12.71458
G1 X89.978 Y111.911 E12.7442
G1 X89.881 Y111.28 E12.77393
G1 X89.816 Y110.626 E12.80453
G1 X89.8 Y109.994 E12.83397
G1 X89.816 Y109.364 E12.86332
G1 X89.882 Y108.705 E12.89416
G1 X89.98 Y108.071 E12.92403
G1 X90.119 Y107.461 E12.95316
G1 X90.3 Y106.831 E12.98368
G1 X90.512 Y106.247 E13.01261
G1 X90.777 Y105.646 E13.0432
G1 X91.056 Y105.089 E13.07221
G1 X91.385 Y104.54 E13.10201
G1 X91.754 Y103.993 E13.13273
G1 X92.142 Y103.495 E13.16213
G1 X92.574 Y103.006 E13.19251
G1 X93.011 Y102.57 E13.22126
G1 X93.509 Y102.13 E13.2522
G1 X94.007 Y101.742 E13.2816
G1 X94.529 Y101.388 E13.31097
G1 X95.098 Y101.049 E13.34181
G1 X95.652 Y100.772 E13.37065
G1 X96.259 Y100.508 E13.40147
G1 X96.844 Y100.295 E13.43046
G1 X97.468 Y100.116 E13.46069
G1 X98.089 Y99.978 E13.49031
G1 X98.721 Y99.881 E13.52008
G1 X99.357 Y99.82 E13.54983
G1 X99.8 Y99.806 E13.57047
G1 X99.8 Y86.2 E14.20402
G1 X93.876 Y86.2 E14.47987
G1 X93.499 Y86.258 E14.49763
G1 X93.183 Y86.391 E14.51359
G1 X92.939 Y86.539 E14.52688
G1 X92.683 Y86.762 E14.54269
G1 X92.439 Y87.078 E14.56128
G1 X92.301 Y87.397 E14.57747
G1 X92.226 Y87.654 E14.58993
G1 X92.2 Y87.937 E14.60317
G1 X92.197 Y93.924 E14.88195
G1 X92.107 Y94.054 E14.88931
G1 X91.432 Y94.396 E14.92454
G1 X90.452 Y94.973 E14.9775
G1 X89.562 Y95.582 E15.02771
G1 X88.652 Y96.287 E15.08132
G1 X87.837 Y97.006 E15.13192
G1 X87.014 Y97.826 E15.18602
G1 X86.279 Y98.66 E15.23778
G1 X85.602 Y99.53 E15.28911
G1 X84.973 Y100.452 E15.34109
G1 X84.396 Y101.433 E15.39408
G1 X83.889 Y102.43 E15.44616
G1 X83.447 Y103.446 E15.49776
G1 X83.067 Y104.51 E15.55036
G1 X82.762 Y105.562 E15.60137
G1 X82.513 Y106.674 E15.65443
G1 X82.339 Y107.778 E15.70647
G1 X82.236 Y108.869 E15.7575
G1 X82.201 Y110.007 E15.81051
G1 X82.236 Y111.127 E15.86269
G1 X82.339 Y112.218 E15.91372
G1 X82.513 Y113.322 E15.96576
G1 X82.762 Y114.434 E16.01882
G1 X83.067 Y115.49 E16.07
G1 X83.446 Y116.55 E16.12242
G1 X83.89 Y117.566 E16.17405
G1 X84.396 Y118.563 E16.22611
G1 X84.973 Y119.544 E16.27911
G1 X85.602 Y120.466 E16.33108
G1 X86.283 Y121.344 E16.38282
G1 X87.018 Y122.175 E16.43448
G1 X87.821 Y122.982 E16.48749
G1 X88.66 Y123.717 E16.53943
G1 X89.53 Y124.394 E16.59076
G1 X90.452 Y125.023 E16.64273
G1 X91.417 Y125.592 E16.69489
G1 X92.111 Y125.949 E16.73123
G1 X92.196 Y126.075 E16.73831
G1 X92.201 Y132.12 E17.01979
G1 X92.258 Y132.497 E17.03754
G1 X92.391 Y132.813 E17.05351
G1 X92.539 Y133.061 E17.06696
G1 X92.762 Y133.313 E17.08263
G1 X92.981 Y133.486 E17.09562
G1 X93.397 Y133.695 E17.1173
G1 X93.655 Y133.77 E17.12981
G1 X93.939 Y133.8 E17.14311
G1 X99.8 Y133.8 E17.41602
G0 F6000 X99.52 Y133.52
G0 X98.64 Y132.64
;TYPE:SKIN
G1 F1200 X94.004 Y132.64 E17.63189
G1 X93.637 Y132.522 E17.64984
G1 X93.481 Y132.372 E17.65992
G1 X93.36 Y132.126 E17.67269
G1 X93.36 Y125.898 E17.96269
G1 X93.129 Y125.349 E17.99042
G1 X92.755 Y124.981 E18.01485
G1 X91.986 Y124.58 E18.05524
G1 X91.064 Y124.035 E18.10511
G1 X90.203 Y123.45 E18.15358
G1 X89.408 Y122.825 E18.20067
G1 X88.606 Y122.126 E18.25021
G1 X87.858 Y121.371 E18.29969
G1 X87.178 Y120.608 E18.34728
G1 X86.542 Y119.786 E18.39568
G1 X85.953 Y118.924 E18.44429
G1 X85.408 Y117.996 E18.49441
G1 X84.933 Y117.058 E18.54336
G1 X84.519 Y116.11 E18.59153
G1 X84.167 Y115.122 E18.64037
G1 X83.886 Y114.154 E18.68731
G1 X83.649 Y113.09 E18.73806
G1 X83.487 Y112.059 E18.78666
G1 X83.396 Y111.063 E18.83323
G1 X83.361 Y110.015 E18.88206
G1 X83.392 Y108.929 E18.93265
G1 X83.487 Y107.934 E18.97919
G1 X83.649 Y106.902 E19.02783
G1 X83.886 Y105.838 E19.07859
G1 X84.167 Y104.874 E19.12535
G1 X84.519 Y103.882 E19.17436
G1 X84.933 Y102.934 E19.22253
G1 X85.408 Y101.997 E19.27145
G1 X85.957 Y101.064 E19.32185
G1 X86.546 Y100.206 E19.37031
G1 X87.167 Y99.404 E19.41754
G1 X87.858 Y98.622 E19.46614
G1 X88.629 Y97.85 E19.51694
G1 X89.396 Y97.175 E19.56452
G1 X90.234 Y96.526 E19.61387
G1 X91.064 Y95.957 E19.66073
G1 X91.989 Y95.416 E19.71063
G1 X92.723 Y95.034 E19.74916
G1 X92.959 Y94.849 E19.76312
G1 X93.25 Y94.422 E19.78718
G1 X93.358 Y94.079 E19.80393
G1 X93.36 Y87.906 E20.09137
G1 X93.425 Y87.718 E20.10063
G1 X93.63 Y87.477 E20.11536
G1 X93.863 Y87.36 E20.1275
G1 X98.64 Y87.36 E20.34994
G1 X98.64 Y98.717 E20.87877
G1 X97.832 Y98.846 E20.91687
G1 X97.136 Y99 E20.95006
G1 X96.535 Y99.176 E20.97922
G1 X95.861 Y99.415 E21.01252
G1 X95.184 Y99.708 E21.04687
G1 X94.53 Y100.032 E21.08086
G1 X93.905 Y100.404 E21.11472
G1 X93.358 Y100.779 E21.1456
G1 X92.757 Y101.246 E21.18104
G1 X92.247 Y101.693 E21.21262
G1 X91.719 Y102.218 E21.24729
G1 X91.258 Y102.739 E21.27969
G1 X90.794 Y103.332 E21.31475
G1 X90.417 Y103.901 E21.34653
G1 X90.02 Y104.56 E21.38236
G1 X89.717 Y105.162 E21.41374
G1 X89.436 Y105.808 E21.44654
G1 X89.188 Y106.487 E21.4802
G1 X88.983 Y107.209 E21.51515
G1 X88.848 Y107.808 E21.54374
G1 X88.726 Y108.572 E21.57977
G1 X88.66 Y109.236 E21.61084
G1 X88.64 Y109.97 E21.64503
G1 X88.656 Y110.705 E21.67926
G1 X88.724 Y111.408 E21.71215
G1 X88.846 Y112.168 E21.74799
G1 X88.988 Y112.812 E21.7787
G1 X89.188 Y113.493 E21.81175
G1 X89.427 Y114.164 E21.84491
G1 X89.7 Y114.792 E21.8768
G1 X90.057 Y115.502 E21.9138
G1 X90.388 Y116.055 E21.94381
G1 X90.806 Y116.676 E21.97867
G1 X91.234 Y117.227 E22.01116
G1 X91.726 Y117.781 E22.04566
G1 X92.201 Y118.261 E22.07711
G1 X92.751 Y118.75 E22.11137
G1 X93.333 Y119.202 E22.14569
G1 X93.904 Y119.587 E22.17775
G1 X94.513 Y119.952 E22.21082
G1 X95.118 Y120.255 E22.24232
G1 X95.775 Y120.544 E22.27574
G1 X96.52 Y120.816 E22.31267
G1 X97.124 Y120.989 E22.34193
G1 X97.819 Y121.148 E22.37513
G1 X98.64 Y121.282 E22.41386
G1 X98.64 Y132.64 E22.94274
G0 F6000 X93.56 Y132.027
G1 F1200 X93.95 Y132.416 E22.96839
G0 F6000 X94.539 Y132.44
G1 F1200 X93.56 Y131.461 E23.03286
G0 F6000 X93.56 Y130.895
G1 F1200 X95.104 Y132.44 E23.13457
G0 F6000 X95.67 Y132.44
G1 F1200 X93.56 Y130.33 E23.27351
G0 F6000 X93.56 Y129.764
G1 F1200 X96.236 Y132.44 E23.44973
G0 F6000 X96.802 Y132.44
G1 F1200 X93.56 Y129.198 E23.66322
G0 F6000 X93.56 Y128.633
G1 F1200 X97.367 Y132.44 E23.91392
G0 F6000 X97.933 Y132.44
G1 F1200 X93.56 Y128.067 E24.20189
G0 F6000 X93.56 Y127.501
G1 F1200 X98.44 Y132.381 E24.52325
G0 F6000 X98.44 Y131.815
G1 F1200 X93.56 Y126.936 E24.84457
G0 F6000 X93.56 Y126.37
G1 F1200 X98.44 Y131.25 E25.16593
G0 F6000 X98.44 Y130.684
G1 F1200 X93.52 Y125.764 E25.48992
G0 F6000 X92.246 Y124.49
G1 F1200 X85.51 Y117.754 E25.93349
G0 F6000 X84.974 Y116.652
G1 F1200 X98.44 Y130.118 E26.82025
G0 F6000 X98.44 Y129.553
G1 F1200 X84.583 Y115.696 E27.73276
G0 F6000 X84.293 Y114.84
G1 F1200 X98.44 Y128.987 E28.66436
G0 F6000 X98.44 Y128.421
G1 F1200 X84.067 Y114.049 E29.61082
G0 F6000 X83.906 Y113.322
G1 F1200 X98.44 Y127.856 E30.56791
G0 F6000 X98.44 Y127.29
G1 F1200 X83.779 Y112.629 E31.53336
G0 F6000 X83.679 Y111.963
G1 F1200 X98.44 Y126.724 E32.50539
G0 F6000 X98.44 Y126.158
G1 F1200 X83.622 Y111.34 E33.48119
G0 F6000 X83.585 Y110.738
G1 F1200 X98.44 Y125.593 E34.45941
G0 F6000 X98.44 Y125.027
G1 F1200 X83.565 Y110.152 E35.43896
G0 F6000 X83.573 Y109.594
G1 F1200 X90.381 Y116.403 E35.88731
G0 F6000 X89.617 Y115.073
G1 F1200 X83.589 Y109.044 E36.2843
G0 F6000 X83.632 Y108.522
G1 F1200 X89.182 Y114.072 E36.64977
G0 F6000 X88.902 Y113.226
G1 F1200 X83.68 Y108.005 E36.99362
G0 F6000 X83.755 Y107.513
G1 F1200 X88.709 Y112.467 E37.31985
G0 F6000 X88.581 Y111.774
G1 F1200 X83.832 Y107.025 E37.63258
G0 F6000 X83.93 Y106.557
G1 F1200 X88.495 Y111.123 E37.93322
G0 F6000 X88.452 Y110.514
G1 F1200 X84.033 Y106.095 E38.22422
G0 F6000 X84.15 Y105.646
G1 F1200 X88.441 Y109.937 E38.50679
G0 F6000 X88.457 Y109.387
G1 F1200 X84.277 Y105.208 E38.78202
G0 F6000 X84.413 Y104.778
G1 F1200 X88.497 Y108.861 E39.05092
G0 F6000 X88.557 Y108.356
G1 F1200 X84.561 Y104.36 E39.31407
G0 F6000 X84.709 Y103.943
G1 F1200 X88.637 Y107.87 E39.5727
G0 F6000 X88.735 Y107.402
G1 F1200 X84.882 Y103.549 E39.82643
G0 F6000 X85.054 Y103.156
G1 F1200 X88.849 Y106.951 E40.07633
G0 F6000 X88.974 Y106.51
G1 F1200 X85.237 Y102.774 E40.32239
G0 F6000 X85.428 Y102.399
G1 F1200 X89.12 Y106.091 E40.56551
G0 F6000 X89.274 Y105.679
G1 F1200 X85.622 Y102.027 E40.806
G0 F6000 X85.831 Y101.671
G1 F1200 X89.445 Y105.285 E41.04399
G0 F6000 X89.626 Y104.899
G1 F1200 X86.041 Y101.315 E41.28004
G0 F6000 X86.263 Y100.971
G1 F1200 X89.816 Y104.524 E41.51401
G0 F6000 X90.025 Y104.167
G1 F1200 X86.493 Y100.635 E41.7466
G0 F6000 X86.725 Y100.302
G1 F1200 X90.237 Y103.814 E41.97787
