;FLAVOR:Marlin
;TIME:5616
;Filament used: 4.81051m
;Layer height: 0.2
;MINX:74.2
;MINY:78.2
;MINZ:0.2
;MAXX:145.8
;MAXY:141.8
;MAXZ:17
;TARGET_MACHINE.NAME:Creality Ender-3 V3 SE
;Generated with Cura_SteamEngine 5.9.0
M82 ;absolute extrusion mode
M220 S100 ;Reset Feedrate
M221 S100 ;Reset Flowrate

G28 ;Home

M420 S1; Use saved mesh leveling data

G92 E0 ;Reset Extruder
G1 Z2.0 F3000 ;Move Z Axis up
G1 X-3 Y20 Z0.28 F5000.0 ;Move to start position
M190 S65 ; Set bed temperature and wait
M109 S215.0 ; Set hotend temperature and wait
G1 X-3 Y100.0 Z0.28 F1500.0 E15 ;Draw the first line
G1 X-2 Y100.0 Z0.28 F5000.0 ;Move to side a little
G1 X-2 Y20 Z0.28 F1500.0 E30 ;Draw the second line
G92 E0 ;Reset Extruder
G1 E-1.0000 F1800 ;Retract a bit
G1 Z2.0 F3000 ;Move Z Axis up
G1 E0.0000 F1800 

G92 E0
G92 E0
G1 F2400 E-0.8
;LAYER_COUNT:85
;LAYER:0
M107
G0 F7800 X99.973 Y141.8 Z0.2
;TYPE:SKIRT
G1 F2400 E0
G1 F1560 X93.317 Y141.761 E0.22138
G1 X91.704 Y141.514 E0.27566
G1 X90.399 Y141.104 E0.32115
G1 X89.276 Y140.579 E0.36238
G1 X88.344 Y139.994 E0.39898
G1 X87.264 Y139.11 E0.4454
G1 X86.022 Y137.804 E0.50535
G1 X85.001 Y135.86 E0.57838
G1 X84.662 Y134.956 E0.61049
G1 X84.355 Y133.719 E0.65288
G1 X84.246 Y132.897 E0.68046
G1 X84.218 Y130.387 E0.76395
G1 X83.35 Y129.705 E0.80067
G1 X82.338 Y128.806 E0.84569
G1 X81.081 Y127.546 E0.90488
G1 X80.152 Y126.486 E0.95176
G1 X79.033 Y125.038 E1.01263
G1 X78.341 Y124.022 E1.05351
G1 X77.264 Y122.202 E1.12385
G1 X76.746 Y121.182 E1.1619
G1 X75.993 Y119.444 E1.2249
G1 X75.393 Y117.75 E1.28467
G1 X74.953 Y116.188 E1.33865
G1 X74.632 Y114.714 E1.38882
G1 X74.397 Y113.16 E1.4411
G1 X74.236 Y111.338 E1.50193
G1 X74.2 Y109.748 E1.55483
G1 X74.237 Y108.605 E1.59287
G1 X74.439 Y106.499 E1.66323
G1 X74.629 Y105.319 E1.70299
G1 X75.079 Y103.326 E1.77094
G1 X75.429 Y102.134 E1.81226
G1 X76.053 Y100.403 E1.87346
G1 X76.752 Y98.806 E1.93144
G1 X77.27 Y97.787 E1.96946
G1 X78.348 Y95.968 E2.03979
G1 X79.047 Y94.942 E2.08108
G1 X80.053 Y93.64 E2.13581
G1 X81.387 Y92.136 E2.20267
G1 X82.467 Y91.073 E2.25307
G1 X83.691 Y90.001 E2.30719
G1 X84.227 Y89.585 E2.32976
G1 X84.279 Y86.837 E2.42117
G1 X84.432 Y85.917 E2.45219
G1 X84.997 Y84.138 E2.51427
G1 X85.368 Y83.372 E2.54258
G1 X86.039 Y82.31 E2.58436
G1 X86.983 Y81.166 E2.63369
G1 X88.164 Y80.049 E2.68776
G1 X89.573 Y79.265 E2.74139
G1 X91.028 Y78.673 E2.79364
G1 X92.344 Y78.341 E2.83878
G1 X93.106 Y78.249 E2.86431
G1 X100.832 Y78.2 E3.12128
G1 X102.724 Y78.649 E3.18596
G1 X104.782 Y79.715 E3.26304
G1 X106.262 Y81.31 E3.33541
G1 X107.404 Y83.226 E3.4096
G1 X107.455 Y83.368 E3.41462
G1 X107.735 Y85.147 E3.47452
G1 X107.8 Y100.848 E3.99674
G1 X107.333 Y102.75 E4.06188
G1 X106.283 Y104.77 E4.1376
G1 X104.745 Y106.211 E4.2077
G1 X103.179 Y107.165 E4.26869
G1 X102.495 Y107.455 E4.2934
G1 X100.46 Y107.784 E4.36196
G1 X99.784 Y107.816 E4.38447
G1 X99.267 Y107.913 E4.40196
G1 X98.881 Y108.111 E4.41639
G1 X98.657 Y108.261 E4.42536
G1 X98.458 Y108.435 E4.43415
G1 X98.221 Y108.705 E4.4461
G1 X98.028 Y109.028 E4.45861
G1 X97.904 Y109.342 E4.46984
G1 X97.821 Y109.725 E4.48288
G1 X97.809 Y110.02 E4.4927
G1 X97.817 Y110.285 E4.50152
G1 X97.923 Y110.764 E4.51783
G1 X98.151 Y111.181 E4.53364
G1 X98.33 Y111.43 E4.54384
G1 X98.551 Y111.651 E4.55423
G1 X98.816 Y111.858 E4.56542
G1 X99.231 Y112.071 E4.58093
G1 X99.716 Y112.184 E4.5975
G1 X101.115 Y112.218 E4.64404
G1 X103.001 Y112.756 E4.70927
G1 X104.96 Y113.87 E4.78423
G1 X106.353 Y115.453 E4.85436
G1 X107.478 Y117.443 E4.93039
G1 X107.748 Y119.229 E4.99047
G1 X107.8 Y134.86 E5.51036
G1 X107.342 Y136.73 E5.5744
G1 X106.279 Y138.789 E5.65147
G1 X104.717 Y140.23 E5.72215
G1 X102.968 Y141.274 E5.7899
G1 X101.874 Y141.565 E5.82755
G1 X99.973 Y141.8 E5.89126
G0 F7800 X99.975 Y141.4
G1 F1560 X93.319 Y141.361 E6.11264
G1 X91.824 Y141.132 E6.16295
G1 X90.519 Y140.722 E6.20844
G1 X89.489 Y140.24 E6.24627
G1 X88.557 Y139.655 E6.28286
G1 X87.554 Y138.834 E6.32598
G1 X86.351 Y137.569 E6.38404
G1 X85.376 Y135.72 E6.45356
G1 X85.037 Y134.816 E6.48567
G1 X84.752 Y133.666 E6.52508
G1 X84.643 Y132.844 E6.55266
G1 X84.616 Y130.191 E6.6409
G1 X83.616 Y129.406 E6.68319
G1 X82.604 Y128.507 E6.72821
G1 X81.382 Y127.282 E6.78576
G1 X80.469 Y126.241 E6.83181
G1 X79.35 Y124.793 E6.89268
G1 X78.672 Y123.797 E6.93275
G1 X77.621 Y122.021 E7.00139
G1 X77.103 Y121.001 E7.03944
G1 X76.37 Y119.31 E7.10074
G1 X75.77 Y117.616 E7.16051
G1 X75.344 Y116.103 E7.21279
G1 X75.028 Y114.654 E7.26212
G1 X74.793 Y113.1 E7.31439
G1 X74.636 Y111.329 E7.37353
G1 X74.6 Y109.761 E7.42569
G1 X74.637 Y108.618 E7.46373
G1 X74.834 Y106.563 E7.53239
G1 X75.024 Y105.383 E7.57214
G1 X75.463 Y103.439 E7.63843
G1 X75.813 Y102.247 E7.67975
G1 X76.42 Y100.563 E7.73929
G1 X77.109 Y98.987 E7.79649
G1 X77.627 Y97.968 E7.83451
G1 X78.679 Y96.193 E7.90314
G1 X79.364 Y95.187 E7.94362
G1 X80.37 Y93.885 E7.99835
G1 X81.668 Y92.421 E8.06342
G1 X82.731 Y91.374 E8.11305
G1 X83.955 Y90.302 E8.16716
G1 X84.624 Y89.784 E8.1953
G1 X84.674 Y86.903 E8.29114
G1 X84.827 Y85.983 E8.32216
G1 X85.357 Y84.312 E8.38047
G1 X85.707 Y83.585 E8.4073
G1 X86.348 Y82.565 E8.44737
G1 X87.292 Y81.421 E8.4967
G1 X88.402 Y80.374 E8.54745
G1 X89.724 Y79.636 E8.59781
G1 X91.179 Y79.044 E8.65006
G1 X92.441 Y78.729 E8.69332
G1 X93.109 Y78.649 E8.7157
G1 X100.788 Y78.6 E8.97111
G1 X102.583 Y79.026 E9.03247
G1 X104.536 Y80.038 E9.10563
G1 X105.938 Y81.549 E9.17418
G1 X107.06 Y83.431 E9.24706
G1 X107.335 Y85.149 E9.30493
G1 X107.4 Y100.803 E9.82559
G1 X106.957 Y102.607 E9.88737
G1 X105.96 Y104.525 E9.95927
G1 X104.504 Y105.889 E10.02562
G1 X102.971 Y106.823 E10.08533
G1 X102.385 Y107.067 E10.10644
G1 X100.441 Y107.384 E10.17195
G1 X99.741 Y107.417 E10.19526
G1 X99.273 Y107.505 E10.2111
G1 X99.004 Y107.599 E10.22058
G1 X98.677 Y107.766 E10.23279
G1 X98.412 Y107.944 E10.24341
G1 X98.171 Y108.155 E10.25406
G1 X97.898 Y108.466 E10.26783
G1 X97.667 Y108.853 E10.28282
G1 X97.52 Y109.226 E10.29615
G1 X97.422 Y109.675 E10.31144
G1 X97.408 Y110.017 E10.32282
G1 X97.418 Y110.336 E10.33344
G1 X97.507 Y110.738 E10.34713
G1 X97.603 Y111.011 E10.35675
G1 X97.815 Y111.4 E10.37149
G1 X98.023 Y111.689 E10.38333
G1 X98.282 Y111.948 E10.39551
G1 X98.602 Y112.198 E10.40902
G1 X98.978 Y112.391 E10.42308
G1 X99.263 Y112.49 E10.43311
G1 X99.665 Y112.583 E10.44684
G1 X101.053 Y112.617 E10.49302
G1 X102.845 Y113.128 E10.55499
G1 X104.706 Y114.186 E10.62619
G1 X106.025 Y115.685 E10.6926
G1 X107.093 Y117.574 E10.76478
G1 X107.352 Y119.289 E10.82247
G1 X107.4 Y134.811 E11.33873
G1 X106.964 Y136.591 E11.39969
G1 X105.956 Y138.543 E11.47276
G1 X104.479 Y139.906 E11.5396
G1 X102.811 Y140.901 E11.6042
G1 X101.771 Y141.178 E11.64
G1 X99.975 Y141.4 E11.70019
G0 F7800 X99.977 Y141
G1 F1560 X93.321 Y140.961 E11.92157
G1 X91.944 Y140.75 E11.9679
G1 X90.639 Y140.34 E12.0134
G1 X89.702 Y139.901 E12.04782
G1 X88.77 Y139.316 E12.08441
G1 X87.844 Y138.558 E12.12422
G1 X86.679 Y137.333 E12.18044
G1 X85.751 Y135.58 E12.24641
G1 X85.412 Y134.676 E12.27853
G1 X85.149 Y133.613 E12.31495
G1 X85.04 Y132.791 E12.34253
G1 X85.014 Y129.994 E12.43556
G1 X83.882 Y129.107 E12.48339
G1 X82.87 Y128.208 E12.52841
G1 X81.683 Y127.018 E12.58432
G1 X80.786 Y125.996 E12.62954
G1 X79.667 Y124.548 E12.69041
G1 X79.003 Y123.572 E12.72967
G1 X77.978 Y121.84 E12.79661
G1 X77.46 Y120.82 E12.83466
G1 X76.737 Y119.151 E12.89516
G1 X76.155 Y117.507 E12.95316
G1 X75.735 Y116.018 E13.00462
G1 X75.424 Y114.594 E13.0531
G1 X75.189 Y113.04 E13.10537
G1 X75.036 Y111.32 E13.1628
G1 X75 Y109.774 E13.21424
G1 X75.037 Y108.631 E13.25227
G1 X75.229 Y106.627 E13.31923
G1 X75.419 Y105.447 E13.35899
G1 X75.847 Y103.552 E13.4236
G1 X76.197 Y102.36 E13.46492
G1 X76.796 Y100.699 E13.52365
G1 X77.466 Y99.168 E13.57923
G1 X77.984 Y98.149 E13.61725
G1 X79.01 Y96.418 E13.68418
G1 X79.681 Y95.432 E13.72385
G1 X80.687 Y94.13 E13.77857
G1 X81.949 Y92.706 E13.84186
G1 X82.995 Y91.675 E13.89071
G1 X84.219 Y90.603 E13.94482
G1 X85.021 Y89.983 E13.97854
G1 X85.069 Y86.969 E14.0788
G1 X85.222 Y86.049 E14.10982
G1 X85.718 Y84.484 E14.16442
G1 X86.046 Y83.797 E14.18974
G1 X86.657 Y82.82 E14.22807
G1 X87.601 Y81.676 E14.2774
G1 X88.641 Y80.699 E14.32486
G1 X89.875 Y80.007 E14.37192
G1 X91.33 Y79.415 E14.42416
G1 X92.49 Y79.126 E14.46392
G1 X93.112 Y79.049 E14.48477
G1 X100.744 Y79 E14.73861
G1 X102.442 Y79.403 E14.79666
G1 X104.29 Y80.361 E14.86589
G1 X105.614 Y81.788 E14.93064
G1 X106.677 Y83.571 E14.99968
G1 X106.935 Y85.151 E15.05293
G1 X107 Y100.758 E15.57202
G1 X106.581 Y102.464 E15.63045
G1 X105.637 Y104.28 E15.69852
G1 X104.263 Y105.567 E15.76114
G1 X102.763 Y106.481 E15.81956
G1 X102.277 Y106.679 E15.83702
G1 X100.422 Y106.984 E15.89954
G1 X99.7 Y107.018 E15.92358
G1 X99.416 Y107.065 E15.93316
G1 X99.162 Y107.12 E15.9418
G1 X98.85 Y107.229 E15.95279
G1 X98.469 Y107.423 E15.96701
G1 X98.168 Y107.626 E15.97909
G1 X97.888 Y107.87 E15.99144
G1 X97.576 Y108.226 E16.00719
G1 X97.307 Y108.676 E16.02462
G1 X97.135 Y109.113 E16.04024
G1 X97.023 Y109.623 E16.05761
G1 X97.007 Y110.014 E16.07063
G1 X97.019 Y110.383 E16.0829
G1 X97.124 Y110.854 E16.09895
G1 X97.232 Y111.164 E16.10987
G1 X97.352 Y111.402 E16.11874
G1 X97.48 Y111.62 E16.12715
G1 X97.716 Y111.948 E16.14059
G1 X98.013 Y112.245 E16.15456
G1 X98.387 Y112.537 E16.17034
G1 X98.824 Y112.761 E16.18667
G1 X99.151 Y112.875 E16.19819
G1 X99.614 Y112.982 E16.21399
G1 X100.991 Y113.016 E16.25981
G1 X102.689 Y113.5 E16.31853
G1 X104.452 Y114.502 E16.38598
G1 X105.697 Y115.917 E16.44867
G1 X106.708 Y117.705 E16.51698
G1 X106.956 Y119.349 E16.57228
G1 X107 Y134.766 E17.08506
G1 X106.587 Y136.45 E17.14273
G1 X105.634 Y138.296 E17.21182
G1 X104.237 Y139.585 E17.27504
G1 X102.657 Y140.528 E17.33624
G1 X101.668 Y140.791 E17.37028
G1 X99.977 Y141 E17.42695
G0 F7800 X99.979 Y140.6
G1 F1560 X93.323 Y140.561 E17.64833
G1 X92.064 Y140.368 E17.6907
G1 X90.759 Y139.958 E17.73619
G1 X89.915 Y139.562 E17.7672
G1 X88.983 Y138.977 E17.8038
G1 X88.134 Y138.282 E17.84029
G1 X87.006 Y137.096 E17.89473
G1 X86.126 Y135.44 E17.95711
G1 X85.787 Y134.536 E17.98922
G1 X85.546 Y133.56 E18.02265
G1 X85.437 Y132.738 E18.05023
G1 X85.412 Y129.798 E18.14802
G1 X84.148 Y128.808 E18.20142
G1 X83.136 Y127.909 E18.24644
G1 X81.984 Y126.754 E18.3007
G1 X81.103 Y125.751 E18.3451
G1 X79.984 Y124.303 E18.40597
G1 X79.334 Y123.347 E18.44442
G1 X78.335 Y121.659 E18.50966
G1 X77.817 Y120.639 E18.54771
G1 X77.104 Y118.992 E18.6074
G1 X76.54 Y117.398 E18.66364
G1 X76.126 Y115.933 E18.71427
G1 X75.82 Y114.534 E18.7619
G1 X75.585 Y112.98 E18.81418
G1 X75.436 Y111.311 E18.86991
G1 X75.4 Y109.787 E18.92061
G1 X75.437 Y108.644 E18.95865
G1 X75.624 Y106.691 E19.0239
G1 X75.814 Y105.511 E19.06365
G1 X76.231 Y103.665 E19.1266
G1 X76.581 Y102.473 E19.16792
G1 X77.163 Y100.859 E19.22498
G1 X77.823 Y99.349 E19.27979
G1 X78.341 Y98.33 E19.31781
G1 X79.341 Y96.643 E19.38304
G1 X79.998 Y95.677 E19.4219
G1 X81.004 Y94.375 E19.47662
G1 X82.23 Y92.991 E19.53812
G1 X83.259 Y91.976 E19.58619
G1 X84.483 Y90.904 E19.64031
G1 X85.418 Y90.182 E19.6796
G1 X85.464 Y87.035 E19.78428
G1 X85.617 Y86.115 E19.8153
G1 X86.08 Y84.655 E19.86624
G1 X86.386 Y84.008 E19.89005
G1 X86.966 Y83.074 E19.92661
G1 X87.875 Y81.968 E19.97423
G1 X88.88 Y81.024 E20.02009
G1 X90.071 Y80.356 E20.06551
G1 X91.428 Y79.803 E20.11425
G1 X92.541 Y79.523 E20.15242
G1 X93.115 Y79.449 E20.17167
G1 X100.7 Y79.4 E20.42395
G1 X102.301 Y79.78 E20.47868
G1 X104.044 Y80.684 E20.54398
G1 X105.29 Y82.027 E20.60492
G1 X106.294 Y83.711 E20.67013
G1 X106.54 Y85.216 E20.72085
G1 X106.6 Y100.713 E21.23628
G1 X106.205 Y102.321 E21.29136
G1 X105.314 Y104.035 E21.35561
G1 X104.022 Y105.245 E21.41448
G1 X102.555 Y106.139 E21.47162
G1 X102.169 Y106.291 E21.48542
G1 X100.403 Y106.584 E21.54496
G1 X99.659 Y106.619 E21.56973
G1 X99.351 Y106.67 E21.58011
G1 X99.05 Y106.735 E21.59036
G1 X98.693 Y106.86 E21.60294
G1 X98.268 Y107.076 E21.61879
G1 X97.925 Y107.307 E21.63255
G1 X97.601 Y107.59 E21.64686
G1 X97.254 Y107.986 E21.66437
G1 X96.947 Y108.499 E21.68425
G1 X96.843 Y108.741 E21.69301
G1 X96.75 Y109.001 E21.7022
G1 X96.624 Y109.571 E21.72161
G1 X96.607 Y110.011 E21.73626
G1 X96.62 Y110.43 E21.7502
G1 X96.739 Y110.966 E21.76846
G1 X96.864 Y111.321 E21.78098
G1 X97.007 Y111.605 E21.79156
G1 X97.145 Y111.84 E21.80062
G1 X97.343 Y112.115 E21.81189
G1 X97.517 Y112.315 E21.82071
G1 X97.744 Y112.542 E21.83139
G1 X98.172 Y112.876 E21.84944
G1 X98.67 Y113.131 E21.86805
G1 X99.04 Y113.26 E21.88108
G1 X99.371 Y113.337 E21.89239
G1 X99.647 Y113.383 E21.90169
G1 X100.929 Y113.415 E21.94435
G1 X102.533 Y113.872 E21.99982
G1 X104.198 Y114.818 E22.06351
G1 X105.369 Y116.149 E22.12247
G1 X106.323 Y117.836 E22.18694
G1 X106.56 Y119.409 E22.23984
G1 X106.6 Y134.72 E22.74909
G1 X106.211 Y136.307 E22.80344
G1 X105.311 Y138.05 E22.86868
G1 X103.995 Y139.264 E22.92823
G1 X102.503 Y140.155 E22.98603
G1 X101.565 Y140.404 E23.01831
G1 X99.979 Y140.6 E23.07146
G0 F7800 X99.981 Y140.2
G1 F1560 X93.325 Y140.161 E23.29285
G1 X92.184 Y139.986 E23.33124
G1 X90.879 Y139.576 E23.37674
G1 X90.128 Y139.223 E23.40434
G1 X89.196 Y138.638 E23.44093
G1 X88.424 Y138.006 E23.47412
G1 X87.333 Y136.859 E23.52677
G1 X86.5 Y135.298 E23.58562
G1 X86.175 Y134.439 E23.61616
G1 X85.943 Y133.507 E23.64811
G1 X85.834 Y132.685 E23.67569
G1 X85.81 Y129.602 E23.77823
G1 X84.414 Y128.509 E23.8372
G1 X83.402 Y127.61 E23.88222
G1 X82.285 Y126.49 E23.93484
G1 X81.404 Y125.487 E23.97924
G1 X80.315 Y124.078 E24.03847
G1 X79.665 Y123.122 E24.07692
G1 X78.692 Y121.478 E24.14045
G1 X78.174 Y120.458 E24.1785
G1 X77.471 Y118.833 E24.23739
G1 X76.925 Y117.289 E24.29186
G1 X76.517 Y115.847 E24.34171
G1 X76.216 Y114.474 E24.38846
G1 X75.981 Y112.92 E24.44073
G1 X75.836 Y111.301 E24.4948
G1 X75.8 Y109.8 E24.54473
G1 X75.837 Y108.657 E24.58277
G1 X76.019 Y106.755 E24.64632
G1 X76.209 Y105.575 E24.68607
G1 X76.615 Y103.778 E24.74735
G1 X76.965 Y102.586 E24.78867
G1 X77.539 Y100.995 E24.84492
G1 X78.18 Y99.53 E24.89811
G1 X78.698 Y98.511 E24.93613
G1 X79.672 Y96.868 E24.99965
G1 X80.315 Y95.922 E25.0377
G1 X81.321 Y94.62 E25.09242
G1 X82.511 Y93.276 E25.15213
G1 X83.54 Y92.261 E25.2002
G1 X84.728 Y91.221 E25.25272
G1 X85.815 Y90.381 E25.29841
G1 X85.859 Y87.101 E25.40751
G1 X86.012 Y86.181 E25.43853
G1 X86.442 Y84.826 E25.48581
G1 X86.748 Y84.179 E25.50962
G1 X87.275 Y83.327 E25.54294
G1 X88.149 Y82.26 E25.58881
G1 X89.119 Y81.349 E25.63307
G1 X90.267 Y80.705 E25.67685
G1 X91.527 Y80.191 E25.72211
G1 X92.592 Y79.92 E25.75866
G1 X93.166 Y79.846 E25.77791
G1 X100.656 Y79.8 E26.02704
G1 X102.16 Y80.157 E26.07845
G1 X103.798 Y81.007 E26.13983
G1 X104.966 Y82.266 E26.19695
G1 X105.911 Y83.851 E26.25832
G1 X106.145 Y85.281 E26.30652
G1 X106.2 Y100.668 E26.8183
G1 X105.829 Y102.178 E26.87001
G1 X104.991 Y103.79 E26.93044
G1 X103.781 Y104.923 E26.98557
G1 X102.347 Y105.797 E27.04143
G1 X102.063 Y105.903 E27.05151
G1 X100.384 Y106.184 E27.10813
G1 X99.616 Y106.22 E27.1337
G1 X99.285 Y106.275 E27.14486
G1 X98.942 Y106.349 E27.15653
G1 X98.532 Y106.493 E27.17099
G1 X98.063 Y106.731 E27.18848
G1 X97.686 Y106.985 E27.2036
G1 X97.314 Y107.31 E27.22003
G1 X97.058 Y107.602 E27.23294
G1 X96.881 Y107.828 E27.24249
G1 X96.593 Y108.311 E27.2612
G1 X96.466 Y108.606 E27.27188
G1 X96.364 Y108.891 E27.28195
G1 X96.225 Y109.518 E27.30331
G1 X96.207 Y110.009 E27.31965
G1 X96.219 Y110.387 E27.33223
G1 X96.262 Y110.663 E27.34152
G1 X96.352 Y111.071 E27.35541
G1 X96.495 Y111.478 E27.36976
G1 X96.653 Y111.792 E27.38145
G1 X96.813 Y112.063 E27.39192
G1 X97.033 Y112.369 E27.40446
G1 X97.222 Y112.586 E27.41403
G1 X97.475 Y112.839 E27.42593
G1 X97.89 Y113.163 E27.44344
G1 X98.132 Y113.305 E27.45277
G1 X98.516 Y113.501 E27.46711
G1 X98.927 Y113.645 E27.4816
G1 X99.294 Y113.73 E27.49412
G1 X99.608 Y113.782 E27.50471
G1 X100.867 Y113.814 E27.5466
G1 X102.379 Y114.245 E27.59889
G1 X103.943 Y115.133 E27.65871
G1 X105.041 Y116.381 E27.714
G1 X105.938 Y117.967 E27.7746
G1 X106.164 Y119.469 E27.82512
G1 X106.2 Y134.674 E28.33084
G1 X105.834 Y136.166 E28.38194
G1 X104.989 Y137.803 E28.44321
G1 X103.753 Y138.943 E28.49913
G1 X102.347 Y139.783 E28.55361
G1 X101.515 Y140.007 E28.58227
