;FLAVOR:Marlin
;TIME:7599
;Filament used: 7.32959m
;Layer height: 0.2
;MINX:81.757
;MINY:87.7
;MINZ:0.28
;MAXX:138.22
;MAXY:132.335
;MAXZ:45.68
;TARGET_MACHINE.NAME:Creality Ender-3 V3 SE
;Generated with Cura_SteamEngine 5.9.0
M82 ;absolute extrusion mode
M220 S100 ;Reset Feedrate
M221 S100 ;Reset Flowrate

G28 ;Home

M420 S1; Use saved mesh leveling data

G92 E0 ;Reset Extruder
G1 Z2.0 F3000 ;Move Z Axis up
G1 X-3 Y20 Z0.28 F5000.0 ;Move to start position
M190 S60 ; Set bed temperature and wait
M109 S210.0 ; Set hotend temperature and wait
G1 X-3 Y100.0 Z0.28 F1500.0 E15 ;Draw the first line
G1 X-2 Y100.0 Z0.28 F5000.0 ;Move to side a little
G1 X-2 Y20 Z0.28 F1500.0 E30 ;Draw the second line
G92 E0 ;Reset Extruder
G1 E-1.0000 F1800 ;Retract a bit
G1 Z2.0 F3000 ;Move Z Axis up
G1 E0.0000 F1800 

G92 E0
G92 E0
G1 F2400 E-0.9
;LAYER_COUNT:228
;LAYER:0
M107
M205 X8 Y8
G1 F300 Z0.48
;MESH:Brookville-Shunter-3D-cab.stl
G0 F6000 X110 Y131.184 Z0.48
;TYPE:WALL-INNER
G1 F300 Z0.28
G1 F2400 E0
G1 F1200 X115.56 Y131.184 E0.2589
G1 X115.563 Y122.904 E0.64445
G1 X115.616 Y122.651 E0.65648
G1 X115.783 Y122.353 E0.67239
G1 X115.963 Y122.181 E0.68398
G1 X116.285 Y122.022 E0.70071
G1 X116.472 Y121.987 E0.70956
G1 X137.26 Y121.984 E1.67754
G1 X137.352 Y121.563 E1.69761
G1 X137.42 Y121.441 E1.70411
G1 X137.42 Y98.527 E2.77108
G1 X137.352 Y98.405 E2.77759
G1 X137.26 Y97.984 E2.79765
G1 X116.503 Y97.983 E3.76419
G1 X116.285 Y97.946 E3.77448
G1 X116.063 Y97.853 E3.78569
G1 X115.783 Y97.615 E3.8028
G1 X115.675 Y97.452 E3.81191
G1 X115.563 Y97.148 E3.82699
G1 X115.56 Y88.784 E4.21645
G1 X82.96 Y88.784 E5.73445
G1 X82.96 Y131.184 E7.70877
G1 X110 Y131.184 E8.96786
G0 F6000 X110 Y131.584
G1 F1200 X115.96 Y131.584 E9.24539
G1 X115.961 Y122.936 E9.64807
G1 X116.029 Y122.703 E9.65938
G1 X116.129 Y122.565 E9.66731
G1 X116.337 Y122.426 E9.67896
G1 X116.525 Y122.384 E9.68793
G1 X137.66 Y122.384 E10.67206
G1 X137.66 Y121.984 E10.69069
G1 X137.715 Y121.731 E10.70275
G1 X137.82 Y121.561 E10.71205
G1 X137.82 Y98.407 E11.7902
G1 X137.715 Y98.237 E11.7995
G1 X137.66 Y97.984 E11.81156
G1 X137.66 Y97.584 E11.83018
G1 X116.525 Y97.584 E12.81432
G1 X116.337 Y97.542 E12.82329
G1 X116.129 Y97.403 E12.83494
G1 X116.041 Y97.287 E12.84172
G1 X115.961 Y97.032 E12.85416
G1 X115.96 Y88.384 E13.25685
G1 X82.56 Y88.384 E14.81209
G1 X82.56 Y131.584 E16.82366
G1 X110 Y131.584 E18.10139
G0 F6000 X110 Y131.984
;TYPE:WALL-OUTER
G1 F1200 X116.36 Y131.984 E18.39753
G1 X116.36 Y122.941 E18.81861
G1 X116.44 Y122.823 E18.82525
G1 X116.526 Y122.786 E18.82961
G1 X138.06 Y122.784 E19.83232
G1 X138.06 Y121.917 E19.8727
G1 X138.16 Y121.817 E19.87928
G1 X138.172 Y121.715 E19.88406
G1 X138.22 Y121.681 E19.8868
G1 X138.22 Y98.287 E20.97613
G1 X138.172 Y98.253 E20.97886
G1 X138.16 Y98.151 E20.98365
G1 X138.06 Y98.051 E20.99023
G1 X138.06 Y97.184 E21.0306
G1 X116.526 Y97.182 E22.03332
G1 X116.412 Y97.12 E22.03936
G1 X116.36 Y97.028 E22.04428
G1 X116.36 Y87.984 E22.46541
G1 X82.16 Y87.984 E24.0579
G1 X82.16 Y131.984 E26.10673
G1 X110 Y131.984 E27.40307
G0 F6000 X110 Y131.275
G0 X110 Y130.824
;TYPE:SKIN
G1 F1200 X83.321 Y130.823 E28.64536
G1 X83.32 Y89.144 E30.58611
G1 X115.2 Y89.144 E32.07057
G1 X115.203 Y97.115 E32.44174
G1 X115.247 Y97.339 E32.45237
G1 X115.393 Y97.685 E32.46985
G1 X115.693 Y98.033 E32.49125
G1 X116.131 Y98.275 E32.51455
G1 X116.473 Y98.34 E32.53076
G1 X136.975 Y98.344 E33.48542
G1 X137.06 Y98.617 E33.49873
G1 X137.06 Y121.347 E34.55714
G1 X136.974 Y121.624 E34.57064
G1 X116.478 Y121.624 E35.52502
G1 X116.131 Y121.689 E35.54146
G1 X115.748 Y121.887 E35.56154
G1 X115.527 Y122.096 E35.5757
G1 X115.311 Y122.445 E35.59481
G1 X115.2 Y122.874 E35.61545
G1 X115.2 Y130.824 E35.98563
G1 X110 Y130.824 E36.22776
G0 F6000 X83.521 Y130.473
G1 F1200 X83.671 Y130.623 E36.23764
G0 F6000 X84.237 Y130.623
G1 F1200 X83.521 Y129.907 E36.28479
G0 F6000 X83.521 Y129.341
G1 F1200 X84.803 Y130.623 E36.36921
G0 F6000 X85.368 Y130.623
G1 F1200 X83.521 Y128.775 E36.49088
G0 F6000 X83.521 Y128.21
G1 F1200 X85.934 Y130.623 E36.64978
G0 F6000 X86.5 Y130.623
G1 F1200 X83.521 Y127.644 E36.84595
G0 F6000 X83.521 Y127.078
G1 F1200 X87.065 Y130.623 E37.07936
G0 F6000 X87.631 Y130.623
G1 F1200 X83.521 Y126.513 E37.35001
G0 F6000 X83.521 Y125.947
G1 F1200 X88.197 Y130.623 E37.65793
G0 F6000 X88.762 Y130.623
G1 F1200 X83.521 Y125.381 E38.00309
G0 F6000 X83.521 Y124.816
G1 F1200 X89.328 Y130.623 E38.38549
G0 F6000 X89.894 Y130.623
G1 F1200 X83.521 Y124.25 E38.80517
G0 F6000 X83.521 Y123.684
G1 F1200 X90.459 Y130.623 E39.26208
G0 F6000 X91.025 Y130.623
G1 F1200 X83.521 Y123.119 E39.75623
G0 F6000 X83.521 Y122.553
G1 F1200 X91.591 Y130.623 E40.28765
G0 F6000 X92.157 Y130.623
G1 F1200 X83.521 Y121.987 E40.85635
G0 F6000 X83.521 Y121.422
G1 F1200 X92.722 Y130.623 E41.46225
G0 F6000 X93.288 Y130.623
G1 F1200 X83.521 Y120.856 E42.10542
G0 F6000 X83.521 Y120.29
G1 F1200 X93.854 Y130.623 E42.78587
G0 F6000 X94.419 Y130.623
G1 F1200 X83.521 Y119.724 E43.50356
G0 F6000 X83.521 Y119.159
G1 F1200 X94.985 Y130.623 E44.25848
G0 F6000 X95.551 Y130.623
G1 F1200 X83.521 Y118.593 E45.05068
G0 F6000 X83.521 Y118.027
G1 F1200 X96.116 Y130.623 E45.88011
G0 F6000 X96.682 Y130.623
G1 F1200 X83.521 Y117.462 E46.74678
G0 F6000 X83.521 Y116.896
G1 F1200 X97.248 Y130.623 E47.65073
G0 F6000 X97.813 Y130.623
G1 F1200 X83.521 Y116.33 E48.59192
G0 F6000 X83.521 Y115.765
G1 F1200 X98.379 Y130.623 E49.57034
G0 F6000 X98.945 Y130.623
G1 F1200 X83.521 Y115.199 E50.58604
G0 F6000 X83.521 Y114.633
G1 F1200 X99.51 Y130.623 E51.63897
G0 F6000 X100.076 Y130.623
G1 F1200 X83.521 Y114.068 E52.72915
G0 F6000 X83.521 Y113.502
G1 F1200 X100.642 Y130.623 E53.8566
G0 F6000 X101.207 Y130.623
G1 F1200 X83.521 Y112.936 E55.02128
G0 F6000 X83.521 Y112.371
G1 F1200 X101.773 Y130.623 E56.22321
G0 F6000 X102.339 Y130.623
G1 F1200 X83.521 Y111.805 E57.4624
G0 F6000 X83.521 Y111.239
G1 F1200 X102.905 Y130.623 E58.73887
G0 F6000 X103.47 Y130.623
G1 F1200 X83.521 Y110.674 E60.05255
G0 F6000 X83.521 Y110.108
G1 F1200 X104.036 Y130.623 E61.4035
G0 F6000 X104.602 Y130.623
G1 F1200 X83.52 Y109.541 E62.79178
G0 F6000 X83.52 Y108.976
G1 F1200 X105.167 Y130.623 E64.21728
G0 F6000 X105.733 Y130.623
G1 F1200 X83.52 Y108.41 E65.68004
G0 F6000 X83.52 Y107.844
G1 F1200 X106.299 Y130.623 E67.18008
G0 F6000 X106.864 Y130.623
G1 F1200 X83.52 Y107.279 E68.71732
G0 F6000 X83.52 Y106.713
G1 F1200 X107.43 Y130.623 E70.29183
G0 F6000 X107.996 Y130.623
G1 F1200 X83.52 Y106.147 E71.90362
G0 F6000 X83.52 Y105.582
G1 F1200 X108.561 Y130.623 E73.55261
G0 F6000 X109.127 Y130.623
G1 F1200 X83.52 Y105.016 E75.23888
G0 F6000 X83.52 Y104.45
G1 F1200 X109.693 Y130.623 E76.96241
G0 F6000 X110.258 Y130.623
G1 F1200 X83.52 Y103.885 E78.72316
G0 F6000 X83.52 Y103.319
G1 F1200 X110.824 Y130.623 E80.52117
G0 F6000 X111.39 Y130.623
G1 F1200 X83.52 Y102.753 E82.35646
G0 F6000 X83.52 Y102.188
G1 F1200 X111.956 Y130.623 E84.22898
G0 F6000 X112.521 Y130.623
G1 F1200 X83.52 Y101.622 E86.13875
G0 F6000 X83.52 Y101.056
G1 F1200 X113.087 Y130.623 E88.08579
G0 F6000 X113.653 Y130.623
G1 F1200 X83.52 Y100.49 E90.0701
G0 F6000 X83.52 Y99.925
G1 F1200 X114.218 Y130.623 E92.09161
G0 F6000 X114.784 Y130.623
G1 F1200 X83.52 Y99.359 E94.1504
G0 F6000 X83.52 Y98.793
G1 F1200 X115 Y130.274 E96.22344
G0 F6000 X115 Y129.708
G1 F1200 X83.52 Y98.228 E98.29646
G0 F6000 X83.52 Y97.662
G1 F1200 X115 Y129.142 E100.36947
G0 F6000 X115 Y128.577
G1 F1200 X83.52 Y97.096 E102.44251
G0 F6000 X83.52 Y96.531
G1 F1200 X115 Y128.011 E104.51552
G0 F6000 X115 Y127.445
G1 F1200 X83.52 Y95.965 E106.58854
G0 F6000 X83.52 Y95.399
G1 F1200 X115 Y126.88 E108.66158
G0 F6000 X115.001 Y126.315
G1 F1200 X83.52 Y94.834 E110.73466
G0 F6000 X83.52 Y94.268
G1 F1200 X115.001 Y125.749 E112.80774
G0 F6000 X115.001 Y125.183
G1 F1200 X83.52 Y93.702 E114.88081
G0 F6000 X83.52 Y93.137
G1 F1200 X115.001 Y124.618 E116.95389
G0 F6000 X115.001 Y124.052
G1 F1200 X83.52 Y92.571 E119.02697
G0 F6000 X83.52 Y92.005
G1 F1200 X115.001 Y123.486 E121.10005
G0 F6000 X115.001 Y122.921
G1 F1200 X83.52 Y91.44 E123.17312
G0 F6000 X83.52 Y90.874
G1 F1200 X115.096 Y122.45 E125.25246
G0 F6000 X115.3 Y122.088
G1 F1200 X83.52 Y90.308 E127.34522
G0 F6000 X83.52 Y89.742
G1 F1200 X115.563 Y121.786 E129.45534
G0 F6000 X115.914 Y121.571
G1 F1200 X83.687 Y89.344 E131.57755
G0 F6000 X84.252 Y89.344
G1 F1200 X116.354 Y121.445 E133.69149
G0 F6000 X116.899 Y121.424
G1 F1200 X84.818 Y89.344 E135.80404
G0 F6000 X85.384 Y89.344
G1 F1200 X117.465 Y121.424 E137.9166
G0 F6000 X118.03 Y121.424
G1 F1200 X85.95 Y89.344 E140.02912
G0 F6000 X86.515 Y89.344
G1 F1200 X118.596 Y121.424 E142.14168
G0 F6000 X119.162 Y121.424
G1 F1200 X87.081 Y89.344 E144.25423
G0 F6000 X87.647 Y89.344
G1 F1200 X119.727 Y121.424 E146.36675
G0 F6000 X120.293 Y121.424
G1 F1200 X88.212 Y89.344 E148.47931
G0 F6000 X88.778 Y89.344
G1 F1200 X120.859 Y121.424 E150.59187
G0 F6000 X121.424 Y121.424
G1 F1200 X89.344 Y89.344 E152.70439
G0 F6000 X89.909 Y89.344
G1 F1200 X121.99 Y121.424 E154.81694
G0 F6000 X122.556 Y121.424
G1 F1200 X90.475 Y89.344 E156.9295
G0 F6000 X91.041 Y89.344
G1 F1200 X123.121 Y121.424 E159.04202
G0 F6000 X123.687 Y121.424
G1 F1200 X91.606 Y89.344 E161.15458
G0 F6000 X92.172 Y89.344
G1 F1200 X124.253 Y121.424 E163.26713
G0 F6000 X124.818 Y121.424
G1 F1200 X92.738 Y89.344 E165.37966
G0 F6000 X93.303 Y89.344
G1 F1200 X125.384 Y121.424 E167.49221
G0 F6000 X125.95 Y121.424
G1 F1200 X93.869 Y89.344 E169.60477
G0 F6000 X94.435 Y89.344
G1 F1200 X126.516 Y121.424 E171.71732
G0 F6000 X127.081 Y121.424
G1 F1200 X95.001 Y89.344 E173.82985
G0 F6000 X95.566 Y89.344
G1 F1200 X127.646 Y121.424 E175.94237
G0 F6000 X128.212 Y121.424
G1 F1200 X96.132 Y89.344 E178.05489
G0 F6000 X96.698 Y89.344
G1 F1200 X128.778 Y121.424 E180.16741
G0 F6000 X129.343 Y121.424
G1 F1200 X97.263 Y89.344 E182.27994
G0 F6000 X97.829 Y89.344
G1 F1200 X129.909 Y121.424 E184.39246
G0 F6000 X130.475 Y121.424
G1 F1200 X98.395 Y89.344 E186.50498
G0 F6000 X98.96 Y89.344
G1 F1200 X131.04 Y121.424 E188.61751
G0 F6000 X131.606 Y121.424
G1 F1200 X99.526 Y89.344 E190.73003
G0 F6000 X100.092 Y89.344
G1 F1200 X132.172 Y121.424 E192.84255
G0 F6000 X132.737 Y121.424
G1 F1200 X100.657 Y89.344 E194.95507
G0 F6000 X101.223 Y89.344
G1 F1200 X133.303 Y121.424 E197.0676
G0 F6000 X133.869 Y121.424
G1 F1200 X101.789 Y89.344 E199.18012
G0 F6000 X102.354 Y89.344
G1 F1200 X134.434 Y121.424 E201.29264
G0 F6000 X135 Y121.424
G1 F1200 X102.92 Y89.344 E203.40517
G0 F6000 X103.486 Y89.344
G1 F1200 X135.566 Y121.424 E205.51769
G0 F6000 X136.131 Y121.424
G1 F1200 X104.051 Y89.344 E207.63021
G0 F6000 X104.617 Y89.344
G1 F1200 X136.697 Y121.424 E209.74273
G0 F6000 X136.858 Y121.018
G1 F1200 X105.183 Y89.344 E211.82855
G0 F6000 X105.749 Y89.344
G1 F1200 X136.858 Y120.453 E213.87713
G0 F6000 X136.858 Y119.887
G1 F1200 X106.314 Y89.344 E215.88848
G0 F6000 X106.88 Y89.344
G1 F1200 X115.135 Y97.599 E216.43208
G0 F6000 X115.002 Y96.9
G1 F1200 X107.446 Y89.344 E216.92966
G0 F6000 X108.011 Y89.344
G1 F1200 X115.002 Y96.335 E217.39003
G0 F6000 X115.002 Y95.769
G1 F1200 X108.577 Y89.344 E217.81312
G0 F6000 X109.143 Y89.344
G1 F1200 X115.002 Y95.203 E218.19895
G0 F6000 X115.002 Y94.638
G1 F1200 X109.708 Y89.344 E218.54757
G0 F6000 X110.274 Y89.344
G1 F1200 X115.002 Y94.071 E218.85888
G0 F6000 X115.002 Y93.506
G1 F1200 X110.84 Y89.344 E219.13296
G0 F6000 X111.405 Y89.344
G1 F1200 X115.002 Y92.94 E219.36979
G0 F6000 X115.002 Y92.374
G1 F1200 X111.971 Y89.344 E219.56936
G0 F6000 X112.537 Y89.344
G1 F1200 X115.001 Y91.808 E219.73161
G0 F6000 X115.001 Y91.242
G1 F1200 X113.102 Y89.344 E219.85663
G0 F6000 X113.668 Y89.344
G1 F1200 X115.001 Y90.677 E219.94441
G0 F6000 X115.001 Y90.111
G1 F1200 X114.234 Y89.344 E219.99492
G0 F6000 X114.799 Y89.344
G1 F1200 X115.001 Y89.545 E220.00819
G0 F6000 X115.722 Y97.823
G0 X115.941 Y98.405
G1 F1200 X136.858 Y119.321 E221.38558
G0 F6000 X136.858 Y118.756
G1 F1200 X116.642 Y98.54 E222.71684
G0 F6000 X117.207 Y98.54
G1 F1200 X136.858 Y118.19 E224.01086
G0 F6000 X136.858 Y117.624
G1 F1200 X117.773 Y98.54 E225.2676
G0 F6000 X118.339 Y98.54
G1 F1200 X136.858 Y117.059 E226.48711
G0 F6000 X136.858 Y116.493
G1 F1200 X118.904 Y98.54 E227.66938
G0 F6000 X119.471 Y98.54
G1 F1200 X136.858 Y115.927 E228.81434
G0 F6000 X136.858 Y115.362
G1 F1200 X120.036 Y98.54 E229.9221
G0 F6000 X120.602 Y98.54
G1 F1200 X136.858 Y114.796 E230.99259
G0 F6000 X136.858 Y114.23
G1 F1200 X121.168 Y98.54 E232.0258
G0 F6000 X121.733 Y98.54
G1 F1200 X136.858 Y113.665 E233.02181
G0 F6000 X136.858 Y113.099
G1 F1200 X122.3 Y98.541 E233.98048
G0 F6000 X122.865 Y98.541
G1 F1200 X136.858 Y112.533 E234.90191
G0 F6000 X136.858 Y111.968
G1 F1200 X123.431 Y98.541 E235.7861
G0 F6000 X123.997 Y98.541
G1 F1200 X136.858 Y111.402 E236.63302
G0 F6000 X136.858 Y110.836
G1 F1200 X124.563 Y98.541 E237.44266
G0 F6000 X125.128 Y98.541
G1 F1200 X136.858 Y110.27 E238.21507
G0 F6000 X136.858 Y109.705
G1 F1200 X125.695 Y98.542 E238.95017
G0 F6000 X126.26 Y98.542
G1 F1200 X136.858 Y109.139 E239.64804
G0 F6000 X136.858 Y108.573
G1 F1200 X126.826 Y98.542 E240.30863
G0 F6000 X127.392 Y98.542
G1 F1200 X136.858 Y108.008 E240.93198
G0 F6000 X136.858 Y107.442
G1 F1200 X127.957 Y98.542 E241.51809
G0 F6000 X128.524 Y98.542
G1 F1200 X136.858 Y106.876 E242.0669
G0 F6000 X136.858 Y106.311
G1 F1200 X129.089 Y98.542 E242.5785
G0 F6000 X129.655 Y98.542
G1 F1200 X136.858 Y105.745 E243.05283
G0 F6000 X136.858 Y105.179
G1 F1200 X130.221 Y98.542 E243.48989
G0 F6000 X130.786 Y98.542
G1 F1200 X136.858 Y104.614 E243.88974
G0 F6000 X136.858 Y104.048
G1 F1200 X131.353 Y98.543 E244.25226
G0 F6000 X131.919 Y98.543
G1 F1200 X136.858 Y103.482 E244.5775
G0 F6000 X136.858 Y102.917
G1 F1200 X132.484 Y98.543 E244.86553
G0 F6000 X133.05 Y98.543
M104 S205
G1 F1200 X136.858 Y102.351 E245.1163
G0 F6000 X136.858 Y101.785
G1 F1200 X133.616 Y98.543 E245.32979
G0 F6000 X134.182 Y98.544
G1 F1200 X136.858 Y101.22 E245.50601
G0 F6000 X136.858 Y100.654
G1 F1200 X134.748 Y98.544 E245.64495
G0 F6000 X135.313 Y98.544
G1 F1200 X136.858 Y100.088 E245.74666
G0 F6000 X136.858 Y99.522
G1 F1200 X135.879 Y98.544 E245.8111
G0 F6000 X136.445 Y98.544
G1 F1200 X136.858 Y98.957 E245.83829
G0 F6000 X136.15 Y98.957
G1 F2400 E244.93829
;MESH:NONMESH
G0 F300 X136.15 Y98.957 Z0.48
G0 F6000 X115.722 Y122.147
G0 X110 Y131.184
;TIME_ELAPSED:281.456609
;LAYER:1
M140 S55
;TYPE:WALL-INNER
;MESH:Brookville-Shunter-3D-cab.stl
G1 F2400 E245.83829
G1 F2100 X115.56 Y131.184 E246.02322
G1 X115.563 Y122.904 E246.29861
G1 X115.616 Y122.651 E246.30721
G1 X115.783 Y122.353 E246.31857
G1 X115.963 Y122.181 E246.32685
G1 X116.285 Y122.022 E246.3388
G1 X116.472 Y121.987 E246.34513
G1 X127.26 Y121.985 E246.70394
G1 F3000 X127.56 Y121.985 E246.71391
G1 F2100 X137.26 Y121.984 E247.03654
G1 X137.282 Y121.885 E247.03991
G1 F3000 X137.352 Y121.563 E247.05087
G1 X137.42 Y121.441 E247.05552
G1 X137.42 Y98.527 E247.81764
G1 X137.352 Y98.405 E247.82228
G1 X137.282 Y98.085 E247.83318
G1 F2100 X137.26 Y97.984 E247.83662
G1 X127.56 Y97.984 E248.15924
G1 F3000 X127.26 Y97.984 E248.16922
G1 F2100 X116.503 Y97.983 E248.527
G1 X116.285 Y97.946 E248.53435
G1 X116.063 Y97.853 E248.54236
G1 X115.783 Y97.615 E248.55458
G1 X115.675 Y97.452 E248.56108
G1 X115.563 Y97.148 E248.57186
G1 X115.56 Y88.784 E248.85005
G1 X82.96 Y88.784 E249.93433
G1 X82.96 Y131.184 E251.34456
G1 X110 Y131.184 E252.24391
G0 F7800 X110 Y131.584
G1 F2100 X115.96 Y131.584 E252.44214
G1 X115.961 Y122.936 E252.72978
G1 X116.029 Y122.703 E252.73785
G1 X116.129 Y122.565 E252.74352
G1 X116.337 Y122.426 E252.75184
G1 X116.525 Y122.384 E252.75824
G1 X127.26 Y122.384 E253.11529
G1 F3000 X127.56 Y122.384 E253.12527
G1 F2100 X137.66 Y122.384 E253.4612
G1 X137.66 Y121.984 E253.4745
G1 X137.715 Y121.731 E253.48311
G1 X137.82 Y121.561 E253.48976
G1 X137.82 Y98.407 E254.25986
G1 X137.715 Y98.237 E254.26651
G1 X137.66 Y97.984 E254.27512
G1 X137.66 Y97.584 E254.28842
G1 X127.56 Y97.584 E254.62435
G1 F3000 X127.26 Y97.584 E254.63433
G1 F2100 X116.525 Y97.584 E254.99138
G1 X116.337 Y97.542 E254.99778
G1 X116.129 Y97.403 E255.00611
