;FLAVOR:Marlin
;TIME:20776
;Filament used: 34.8715m
;Layer height: 0.28
;MINX:53.36
;MINY:65.128
;MINZ:0.28
;MAXX:166.64
;MAXY:154.868
;MAXZ:91.28
;TARGET_MACHINE.NAME:Creality Ender-3 V3 SE
;Generated with Cura_SteamEngine 5.9.0
M82 ;absolute extrusion mode
M220 S100 ;Reset Feedrate
M221 S100 ;Reset Flowrate

G28 ;Home

M420 S1; Use saved mesh leveling data

G92 E0 ;Reset Extruder
G1 Z2.0 F3000 ;Move Z Axis up
G1 X-3 Y20 Z0.28 F5000.0 ;Move to start position
M190 S60 ; Set bed temperature and wait
M109 S210.0 ; Set hotend temperature and wait
G1 X-3 Y100.0 Z0.28 F1500.0 E15 ;Draw the first line
G1 X-2 Y100.0 Z0.28 F5000.0 ;Move to side a little
G1 X-2 Y20 Z0.28 F1500.0 E30 ;Draw the second line
G92 E0 ;Reset Extruder
G1 E-1.0000 F1800 ;Retract a bit
G1 Z2.0 F3000 ;Move Z Axis up
G1 E0.0000 F1800 

G92 E0
G92 E0
G1 F2400 E-0.9
;LAYER_COUNT:326
;LAYER:0
M107
M205 X8 Y8
G1 F300 Z0.48
;MESH:Brookville-Shunter_1:25_body.stl
G0 F6000 X110 Y122.566 Z0.48
;TYPE:WALL-INNER
G1 F300 Z0.28
G1 F2400 E0
G1 F1200 X81.82 Y122.568 E1.31218
G1 X81.82 Y127.03 E1.51995
G1 X81.749 Y127.252 E1.5308
G1 X81.588 Y127.443 E1.54243
G1 X81.343 Y127.568 E1.55524
G1 X76.146 Y127.564 E1.79723
G1 X75.973 Y127.516 E1.80559
G1 X75.776 Y127.373 E1.81693
G1 X75.62 Y127.048 E1.83372
G1 X75.62 Y122.568 E2.04232
G1 X70.172 Y122.567 E2.29601
G1 X69.892 Y122.471 E2.30979
G1 X69.747 Y122.338 E2.31895
G1 X69.622 Y122.027 E2.33456
G1 X69.622 Y97.909 E3.45759
G1 X69.688 Y97.689 E3.46829
G1 X69.816 Y97.523 E3.47805
G1 X70.035 Y97.396 E3.48984
G1 X70.172 Y97.369 E3.49634
G1 X75.62 Y97.368 E3.75002
G1 X75.62 Y92.888 E3.95863
G1 X75.776 Y92.563 E3.97541
G1 X75.973 Y92.42 E3.98675
G1 X76.183 Y92.369 E3.99681
G1 X81.289 Y92.371 E4.23457
G1 X81.509 Y92.441 E4.24532
G1 X81.7 Y92.606 E4.25707
G1 X81.82 Y92.9 E4.27186
G1 X81.82 Y97.368 E4.47991
G1 X146.796 Y97.368 E7.50546
G1 X146.948 Y97.412 E7.51283
G1 X147.176 Y97.577 E7.52594
G1 X147.262 Y97.709 E7.53327
G1 X147.32 Y97.968 E7.54563
G1 X147.32 Y100.12 E7.64584
G1 X163.314 Y100.12 E8.39058
G1 X163.503 Y100.19 E8.39997
G1 X163.655 Y100.306 E8.40887
G1 X163.775 Y100.489 E8.41906
G1 X163.82 Y100.72 E8.43002
G1 X163.82 Y119.297 E9.29504
G1 X163.775 Y119.451 E9.30251
G1 X163.655 Y119.634 E9.3127
G1 X163.503 Y119.75 E9.32161
G1 X163.314 Y119.82 E9.33099
G1 X147.32 Y119.82 E10.07574
G1 X147.32 Y122.078 E10.18088
G1 X147.13 Y122.407 E10.19857
G1 X146.948 Y122.524 E10.20865
G1 X146.799 Y122.563 E10.21582
G1 X110 Y122.566 E11.92933
G1 F2400 E11.02933
G0 F6000 X110 Y122.88
G0 X110 Y153.46
G0 X110 Y153.768
G1 F2400 E11.92933
G1 F1200 X122.52 Y153.768 E12.51232
G1 X122.521 Y134.842 E13.39359
G1 X122.64 Y134.608 E13.40582
G1 X122.837 Y134.438 E13.41793
G1 X123.045 Y134.372 E13.42809
G1 X165.92 Y134.368 E15.42453
G1 X165.92 Y133.968 E15.44316
G1 X166.01 Y133.651 E15.4585
G1 X166.126 Y133.521 E15.46662
G1 X166.156 Y133.362 E15.47415
G1 X166.24 Y133.303 E15.47893
G1 X166.24 Y86.633 E17.65208
G1 X166.156 Y86.574 E17.65686
G1 X166.126 Y86.415 E17.6644
G1 X166.01 Y86.285 E17.67251
G1 X165.92 Y85.968 E17.68785
G1 X165.92 Y85.568 E17.70648
G1 X123.044 Y85.568 E19.70296
G1 X122.837 Y85.498 E19.71314
G1 X122.607 Y85.28 E19.7279
G1 X122.521 Y85.007 E19.74122
G1 X122.52 Y66.168 E20.61845
G1 X54.52 Y66.168 E23.78481
G1 X54.52 Y153.768 E27.86383
G1 X110 Y153.768 E30.44722
G0 F6000 X110 Y154.168
;TYPE:WALL-OUTER
G1 F1200 X122.92 Y154.168 E31.04882
G1 X122.921 Y134.941 E31.94411
G1 X123.006 Y134.803 E31.95166
G1 X123.085 Y134.77 E31.95565
G1 X166.32 Y134.768 E33.96885
G1 X166.32 Y133.968 E34.0061
G1 X166.4 Y133.808 E34.01443
G1 X166.52 Y133.768 E34.02032
G1 X166.532 Y133.499 E34.03286
G1 X166.64 Y133.423 E34.03901
G1 X166.64 Y86.513 E36.22334
G1 X166.532 Y86.437 E36.22948
G1 X166.52 Y86.168 E36.24202
G1 X166.4 Y86.128 E36.24791
G1 X166.32 Y85.968 E36.25624
G1 X166.32 Y85.168 E36.29349
G1 X123.085 Y85.166 E38.3067
G1 X123.006 Y85.133 E38.31068
G1 X122.921 Y84.995 E38.31823
G1 X122.92 Y65.768 E39.21352
G1 X54.12 Y65.768 E42.41714
G1 X54.12 Y154.168 E46.53341
G1 X110 Y154.168 E49.13542
G1 F2400 E48.23542
G0 F6000 X110 Y153.46
G0 X110 Y122.88
G0 X110 Y122.167
G1 F2400 E49.13542
G1 F1200 X81.42 Y122.168 E50.46622
G1 X81.418 Y126.999 E50.69117
G1 X81.335 Y127.133 E50.69851
G1 X81.261 Y127.168 E50.70232
G1 X76.195 Y127.167 E50.93822
G1 X76.063 Y127.094 E50.94524
G1 X76.023 Y127.005 E50.94979
G1 X76.02 Y122.168 E51.17502
G1 X70.204 Y122.168 E51.44583
G1 X70.062 Y122.092 E51.45333
G1 X70.02 Y121.988 E51.45856
G1 X70.02 Y97.948 E52.57796
G1 X70.062 Y97.844 E52.58318
G1 X70.204 Y97.768 E52.59068
G1 X76.02 Y97.768 E52.8615
G1 X76.023 Y92.931 E53.08673
G1 X76.098 Y92.808 E53.09344
G1 X76.171 Y92.773 E53.09721
G1 X81.255 Y92.771 E53.33394
G1 X81.418 Y92.888 E53.34328
G1 X81.42 Y97.768 E53.57052
G1 X146.755 Y97.77 E56.61279
G1 X146.92 Y97.904 E56.62269
G1 X146.92 Y100.52 E56.7445
G1 X163.264 Y100.524 E57.50554
G1 X163.365 Y100.582 E57.51097
G1 X163.42 Y100.72 E57.51788
G1 X163.418 Y119.255 E58.38095
G1 X163.365 Y119.358 E58.38634
G1 X163.264 Y119.416 E58.39177
G1 X146.92 Y119.42 E59.15281
G1 X146.914 Y122.019 E59.27383
G1 X146.872 Y122.099 E59.27804
G1 X146.755 Y122.166 E59.28432
G1 X110 Y122.167 E60.99579
G1 F2400 E60.09579
G0 F6000 X110 Y122.88
G0 X110 Y153.408
;TYPE:SKIN
G1 F2400 E60.99579
G1 F1200 X54.88 Y153.408 E63.5624
G1 X54.88 Y66.528 E67.6079
G1 X122.16 Y66.528 E70.74074
G1 X122.164 Y85.057 E71.60353
G1 X122.297 Y85.463 E71.62342
G1 X122.569 Y85.757 E71.64207
G1 X122.998 Y85.927 E71.66356
G1 X165.542 Y85.928 E73.64458
G1 X165.69 Y86.46 E73.6703
G1 X165.88 Y86.77 E73.68723
G1 X165.88 Y133.165 E75.84757
G1 X165.689 Y133.473 E75.86445
G1 X165.541 Y134.008 E75.8903
G1 X122.992 Y134.009 E77.87156
G1 X122.763 Y134.074 E77.88264
G1 X122.42 Y134.304 E77.90187
G1 X122.261 Y134.534 E77.91489
G1 X122.161 Y134.895 E77.93233
G1 X122.16 Y153.408 E78.79438
G1 X110 Y153.408 E79.3606
G1 F2400 E78.4606
G0 F6000 X110 Y122.924
G1 F2400 E79.3606
G1 F1200 X146.843 Y122.919 E81.07616
G1 X147.105 Y122.844 E81.08885
G1 X147.451 Y122.599 E81.10859
G1 X147.68 Y122.153 E81.13194
G1 X147.68 Y120.18 E81.22381
G1 X163.37 Y120.18 E81.9544
G1 X163.65 Y120.076 E81.96831
G1 X163.915 Y119.885 E81.98352
G1 X164.092 Y119.613 E81.99863
G1 X164.178 Y119.351 E82.01147
G1 X164.18 Y100.724 E82.87882
G1 X164.109 Y100.349 E82.89659
G1 X163.917 Y100.053 E82.91302
G1 X163.647 Y99.859 E82.9285
G1 X163.368 Y99.76 E82.94229
G1 X147.68 Y99.76 E83.67279
G1 X147.68 Y97.783 E83.76484
G1 X147.514 Y97.427 E83.78314
G1 X147.292 Y97.19 E83.79826
G1 X146.842 Y97.013 E83.82077
G1 X82.18 Y97.008 E86.83171
G1 X82.178 Y92.849 E87.02537
G1 X82.105 Y92.599 E87.03749
G1 X81.863 Y92.217 E87.05855
G1 X81.476 Y92.041 E87.07835
G1 X81.303 Y92.01 E87.08653
G1 X76.143 Y92.009 E87.3268
G1 X75.853 Y92.079 E87.34069
G1 X75.507 Y92.317 E87.36025
G1 X75.304 Y92.653 E87.37853
G1 X75.262 Y92.938 E87.39194
G1 X75.26 Y97.008 E87.58146
G1 X70.134 Y97.009 E87.82015
G1 X69.881 Y97.069 E87.83225
G1 X69.63 Y97.204 E87.84552
G1 X69.408 Y97.442 E87.86068
G1 X69.265 Y97.824 E87.87967
G1 X69.261 Y122.066 E89.00848
G1 X69.334 Y122.341 E89.02173
G1 X69.471 Y122.57 E89.03416
G1 X69.691 Y122.769 E89.04797
G1 X70.134 Y122.923 E89.06981
G1 X75.26 Y122.928 E89.3085
G1 X75.263 Y127.104 E89.50295
G1 X75.34 Y127.357 E89.51526
G1 X75.496 Y127.601 E89.52875
G1 X75.68 Y127.763 E89.54016
G1 X76.099 Y127.919 E89.56098
G1 X81.283 Y127.924 E89.80237
G1 X81.506 Y127.885 E89.81291
G1 X81.755 Y127.762 E89.82584
G1 X82.065 Y127.425 E89.84717
G1 X82.178 Y127.074 E89.86434
G1 X82.18 Y122.928 E90.05739
G1 X110 Y122.924 E91.35281
G1 F2400 E90.45281
G0 F6000 X55.08 Y152.944
G1 F2400 E91.35281
G1 F1200 X55.345 Y153.208 E91.37022
G0 F6000 X55.91 Y153.208
G1 F1200 X55.08 Y152.378 E91.42488
G0 F6000 X55.08 Y151.812
G1 F1200 X56.476 Y153.208 E91.51681
G0 F6000 X57.042 Y153.208
G1 F1200 X55.08 Y151.247 E91.64598
G0 F6000 X55.08 Y150.681
G1 F1200 X57.607 Y153.208 E91.81239
G0 F6000 X58.173 Y153.208
G1 F1200 X55.08 Y150.115 E92.01607
G0 F6000 X55.08 Y149.55
G1 F1200 X58.739 Y153.208 E92.25698
G0 F6000 X59.304 Y153.208
G1 F1200 X55.08 Y148.984 E92.53514
G0 F6000 X55.08 Y148.418
G1 F1200 X59.87 Y153.208 E92.85057
G0 F6000 X60.436 Y153.208
G1 F1200 X55.08 Y147.852 E93.20327
G0 F6000 X55.08 Y147.287
G1 F1200 X61.001 Y153.208 E93.59318
G0 F6000 X61.567 Y153.208
G1 F1200 X55.08 Y146.721 E94.02036
G0 F6000 X55.08 Y146.155
G1 F1200 X62.133 Y153.208 E94.48481
G0 F6000 X62.698 Y153.208
G1 F1200 X55.08 Y145.59 E94.98647
G0 F6000 X55.08 Y145.024
G1 F1200 X63.264 Y153.208 E95.5254
G0 F6000 X63.83 Y153.208
G1 F1200 X55.08 Y144.458 E96.1016
G0 F6000 X55.08 Y143.893
G1 F1200 X64.396 Y153.208 E96.71505
G0 F6000 X64.961 Y153.208
G1 F1200 X55.08 Y143.327 E97.36573
G0 F6000 X55.08 Y142.761
G1 F1200 X65.527 Y153.208 E98.05368
G0 F6000 X66.093 Y153.208
G1 F1200 X55.08 Y142.196 E98.77887
G0 F6000 X55.08 Y141.63
G1 F1200 X66.658 Y153.208 E99.5413
G0 F6000 X67.224 Y153.208
G1 F1200 X55.08 Y141.064 E100.34101
G0 F6000 X55.08 Y140.499
G1 F1200 X67.79 Y153.208 E101.17795
G0 F6000 X68.355 Y153.208
G1 F1200 X55.08 Y139.933 E102.05213
G0 F6000 X55.08 Y139.367
G1 F1200 X68.921 Y153.208 E102.96358
G0 F6000 X69.487 Y153.208
G1 F1200 X55.08 Y138.802 E103.91227
G0 F6000 X55.08 Y138.236
G1 F1200 X70.052 Y153.208 E104.89821
G0 F6000 X70.618 Y153.208
G1 F1200 X55.08 Y137.67 E105.92141
G0 F6000 X55.08 Y137.104
G1 F1200 X71.184 Y153.208 E106.98189
G0 F6000 X71.749 Y153.208
G1 F1200 X55.08 Y136.539 E108.07957
G0 F6000 X55.08 Y135.973
G1 F1200 X72.315 Y153.208 E109.21452
G0 F6000 X72.881 Y153.208
G1 F1200 X55.08 Y135.407 E110.38675
G0 F6000 X55.08 Y134.842
G1 F1200 X73.446 Y153.208 E111.59618
G0 F6000 X74.012 Y153.208
G1 F1200 X55.08 Y134.276 E112.84289
G0 F6000 X55.08 Y133.71
G1 F1200 X74.578 Y153.208 E114.12686
G0 F6000 X75.144 Y153.208
G1 F1200 X55.08 Y133.145 E115.44808
G0 F6000 X55.08 Y132.579
G1 F1200 X75.709 Y153.208 E116.80653
G0 F6000 X76.275 Y153.208
G1 F1200 X55.08 Y132.013 E118.20226
G0 F6000 X55.08 Y131.448
G1 F1200 X76.841 Y153.208 E119.63523
G0 F6000 X77.406 Y153.208
G1 F1200 X55.08 Y130.882 E121.10543
G0 F6000 X55.08 Y130.316
G1 F1200 X77.972 Y153.208 E122.61291
G0 F6000 X78.538 Y153.208
G1 F1200 X55.08 Y129.751 E124.15763
G0 F6000 X55.08 Y129.185
G1 F1200 X79.103 Y153.208 E125.73958
G0 F6000 X79.669 Y153.208
G1 F1200 X55.08 Y128.619 E127.35881
G0 F6000 X55.08 Y128.054
G1 F1200 X80.235 Y153.208 E129.01528
G0 F6000 X80.8 Y153.208
G1 F1200 X55.08 Y127.488 E130.70898
G0 F6000 X55.08 Y126.922
G1 F1200 X81.366 Y153.208 E132.43996
G0 F6000 X81.932 Y153.208
G1 F1200 X55.08 Y126.356 E134.20821
G0 F6000 X55.08 Y125.791
G1 F1200 X82.497 Y153.208 E136.01367
G0 F6000 X83.063 Y153.208
G1 F1200 X55.08 Y125.225 E137.85639
G0 F6000 X55.08 Y124.659
G1 F1200 X83.629 Y153.208 E139.73639
G0 F6000 X84.194 Y153.208
G1 F1200 X55.08 Y124.094 E141.6536
G0 F6000 X55.08 Y123.528
G1 F1200 X84.76 Y153.208 E143.60808
G0 F6000 X85.326 Y153.208
G1 F1200 X55.08 Y122.962 E145.59983
G0 F6000 X55.08 Y122.397
G1 F1200 X85.892 Y153.208 E147.62882
G0 F6000 X86.457 Y153.208
G1 F1200 X55.08 Y121.831 E149.69505
G0 F6000 X55.08 Y121.265
G1 F1200 X87.023 Y153.208 E151.79855
G0 F6000 X87.589 Y153.208
G1 F1200 X55.08 Y120.7 E153.93929
G0 F6000 X55.08 Y120.134
G1 F1200 X88.154 Y153.208 E156.11727
G0 F6000 X88.72 Y153.208
G1 F1200 X55.08 Y119.568 E158.33252
G0 F6000 X55.08 Y119.003
G1 F1200 X89.286 Y153.208 E160.58501
G0 F6000 X89.851 Y153.208
G1 F1200 X55.08 Y118.437 E162.87474
G0 F6000 X55.08 Y117.871
G1 F1200 X90.417 Y153.208 E165.20174
G0 F6000 X90.983 Y153.208
G1 F1200 X55.08 Y117.305 E167.56602
G0 F6000 X55.08 Y116.74
G1 F1200 X91.548 Y153.208 E169.9675
G0 F6000 X92.114 Y153.208
G1 F1200 X55.08 Y116.174 E172.40625
G0 F6000 X55.08 Y115.608
G1 F1200 X92.68 Y153.208 E174.88227
G0 F6000 X93.245 Y153.208
G1 F1200 X55.08 Y115.043 E177.3955
G0 F6000 X55.08 Y114.477
G1 F1200 X93.811 Y153.208 E179.94601
G0 F6000 X94.377 Y153.208
G1 F1200 X55.08 Y113.911 E182.53378
G0 F6000 X55.08 Y113.346
G1 F1200 X94.943 Y153.208 E185.15879
G0 F6000 X95.508 Y153.208
G1 F1200 X55.08 Y112.78 E187.82105
G0 F6000 X55.08 Y112.214
G1 F1200 X96.074 Y153.208 E190.52057
G0 F6000 X96.64 Y153.208
G1 F1200 X55.08 Y111.649 E193.25734
G0 F6000 X55.08 Y111.083
G1 F1200 X97.205 Y153.208 E196.03134
G0 F6000 X97.771 Y153.208
G1 F1200 X55.08 Y110.517 E198.84261
G0 F6000 X55.08 Y109.952
G1 F1200 X98.337 Y153.208 E201.69113
G0 F6000 X98.902 Y153.208
G1 F1200 X55.08 Y109.386 E204.57688
G0 F6000 X55.08 Y108.82
G1 F1200 X99.468 Y153.208 E207.49991
G0 F6000 X100.034 Y153.208
G1 F1200 X69.876 Y123.05 E209.48586
G0 F6000 X70.515 Y123.124
G1 F1200 X100.599 Y153.208 E211.46695
G0 F6000 X101.165 Y153.208
G1 F1200 X76.075 Y128.119 E213.11913
G0 F6000 X76.641 Y128.119
G1 F1200 X101.731 Y153.208 E214.77132
G0 F6000 X102.296 Y153.208
G1 F1200 X77.208 Y128.119 E216.42344
G0 F6000 X77.774 Y128.12
G1 F1200 X102.862 Y153.208 E218.07553
G0 F6000 X103.428 Y153.208
G1 F1200 X78.34 Y128.121 E219.72758
G0 F6000 X78.906 Y128.121
G1 F1200 X103.993 Y153.208 E221.3796
G0 F6000 X104.559 Y153.208
G1 F1200 X79.472 Y128.121 E223.03163
G0 F6000 X80.039 Y128.122
G1 F1200 X105.125 Y153.208 E224.68358
G0 F6000 X105.691 Y153.208
G1 F1200 X80.605 Y128.123 E226.33551
G0 F6000 X81.171 Y128.123
G1 F1200 X106.256 Y153.208 E227.9874
G0 F6000 X106.822 Y153.208
G1 F1200 X81.648 Y128.034 E229.64515
G0 F6000 X81.988 Y127.809
G1 F1200 X107.388 Y153.208 E231.31775
G0 F6000 X107.953 Y153.208
G1 F1200 X82.248 Y127.503 E233.01046
G0 F6000 X82.375 Y127.064
G1 F1200 X108.519 Y153.208 E234.73209
G0 F6000 X109.085 Y153.208
G1 F1200 X82.376 Y126.499 E236.49093
G0 F6000 X82.377 Y125.934
G1 F1200 X109.65 Y153.208 E238.28693
G0 F6000 X110.216 Y153.208
G1 F1200 X82.377 Y125.369 E240.12018
G0 F6000 X82.378 Y124.804
G1 F1200 X110.782 Y153.208 E241.99063
G0 F6000 X111.347 Y153.208
G1 F1200 X82.379 Y124.239 E243.89825
G0 F6000 X82.379 Y123.674
G1 F1200 X111.913 Y153.208 E245.84312
G0 F6000 X112.479 Y153.208
G1 F1200 X82.398 Y123.128 E247.82397
G0 F6000 X82.964 Y123.128
G1 F1200 X113.044 Y153.208 E249.80479
G0 F6000 X113.61 Y153.208
G1 F1200 X83.53 Y123.128 E251.78561
G0 F6000 X84.096 Y123.128
G1 F1200 X114.176 Y153.208 E253.76643
G0 F6000 X114.742 Y153.208
G1 F1200 X84.661 Y123.128 E255.74728
G0 F6000 X85.227 Y123.128
G1 F1200 X115.307 Y153.208 E257.7281
G0 F6000 X115.873 Y153.208
G1 F1200 X85.793 Y123.128 E259.70892
G0 F6000 X86.358 Y123.128
G1 F1200 X116.439 Y153.208 E261.68977
G0 F6000 X117.004 Y153.208
G1 F1200 X86.923 Y123.127 E263.67066
G0 F6000 X87.489 Y123.127
G1 F1200 X117.57 Y153.208 E265.65154
G0 F6000 X118.136 Y153.208
G1 F1200 X88.055 Y123.127 E267.63243
G0 F6000 X88.62 Y123.127
G1 F1200 X118.701 Y153.208 E269.61331
G0 F6000 X119.267 Y153.208
G1 F1200 X89.186 Y123.127 E271.5942
G0 F6000 X89.752 Y123.127
G1 F1200 X119.833 Y153.208 E273.57508
G0 F6000 X120.398 Y153.208
G1 F1200 X90.317 Y123.127 E275.55597
G0 F6000 X90.883 Y123.127
G1 F1200 X120.964 Y153.208 E277.53685
G0 F6000 X121.53 Y153.208
G1 F1200 X91.448 Y123.126 E279.51781
G0 F6000 X92.014 Y123.126
G1 F1200 X121.96 Y153.073 E281.48983
G0 F6000 X121.96 Y152.507
G1 F1200 X92.579 Y123.126 E283.42462
G0 F6000 X93.145 Y123.126
G1 F1200 X121.96 Y151.942 E285.32217
G0 F6000 X121.96 Y151.376
G1 F1200 X93.711 Y123.126 E287.18245
G0 F6000 X94.276 Y123.126
G1 F1200 X121.96 Y150.81 E289.00549
G0 F6000 X121.96 Y150.245
G1 F1200 X94.842 Y123.126 E290.79129
G0 F6000 X95.407 Y123.126
G1 F1200 X121.96 Y149.679 E292.53985
G0 F6000 X121.96 Y149.113
G1 F1200 X95.973 Y123.126 E294.25114
G0 F6000 X96.538 Y123.126
G1 F1200 X121.96 Y148.548 E295.92522
G0 F6000 X121.96 Y147.982
G1 F1200 X97.104 Y123.126 E297.56203
G0 F6000 X97.67 Y123.126
G1 F1200 X121.96 Y147.416 E299.16157
G0 F6000 X121.961 Y146.851
G1 F1200 X98.236 Y123.126 E300.7239
G0 F6000 X98.801 Y123.126
G1 F1200 X121.961 Y146.286 E302.24902
G0 F6000 X121.961 Y145.72
G1 F1200 X99.367 Y123.126 E303.73688
G0 F6000 X99.932 Y123.125
G1 F1200 X121.961 Y145.154 E305.18753
G0 F6000 X121.961 Y144.588
G1 F1200 X100.498 Y123.125 E306.6009
G0 F6000 X101.063 Y123.125
G1 F1200 X121.961 Y144.023 E307.97707
G0 F6000 X121.961 Y143.457
