;FLAVOR:Marlin
;TIME:6767
;Filament used: 5.41299m
;Layer height: 0.2
;MINX:75.98
;MINY:81.804
;MINZ:0.2
;MAXX:144.4
;MAXY:138.164
;MAXZ:45.6
;TARGET_MACHINE.NAME:Creality Ender-3 V3 SE
;Generated with Cura_SteamEngine 5.9.0
M82 ;absolute extrusion mode
M220 S100 ;Reset Feedrate
M221 S100 ;Reset Flowrate

G28 ;Home

M420 S1; Use saved mesh leveling data

G92 E0 ;Reset Extruder
G1 Z2.0 F3000 ;Move Z Axis up
G1 X-3 Y20 Z0.28 F5000.0 ;Move to start position
M190 S65 ; Set bed temperature and wait
M109 S205.0 ; Set hotend temperature and wait
G1 X-3 Y100.0 Z0.28 F1500.0 E15 ;Draw the first line
G1 X-2 Y100.0 Z0.28 F5000.0 ;Move to side a little
G1 X-2 Y20 Z0.28 F1500.0 E30 ;Draw the second line
G92 E0 ;Reset Extruder
G1 E-1.0000 F1800 ;Retract a bit
G1 Z2.0 F3000 ;Move Z Axis up
G1 E0.0000 F1800 

G92 E0
G92 E0
G1 F2400 E-0.8
;LAYER_COUNT:228
;LAYER:0
M107
M204 S500
M205 X8 Y8
G0 F3000 X118.118 Y137.994 Z0.2
;TYPE:SKIRT
G1 F2400 E0
G1 F900 X117.035 Y138.136 E0.04723
G1 X81.398 Y138.164 E1.58811
G1 X80.159 Y137.9 E1.64288
G1 X79.52 Y137.682 E1.67207
G1 X78.111 Y136.808 E1.74377
G1 X77.07 Y135.692 E1.80975
G1 X76.423 Y134.453 E1.87019
G1 X76.15 Y133.742 E1.90312
G1 X76.008 Y132.659 E1.95035
G1 X75.98 Y87.222 E3.91496
G1 X76.244 Y85.983 E3.96974
G1 X76.462 Y85.344 E3.99893
G1 X77.336 Y83.935 E4.07062
G1 X78.452 Y82.894 E4.13661
G1 X79.691 Y82.247 E4.19705
G1 X80.402 Y81.974 E4.22998
G1 X81.485 Y81.832 E4.2772
G1 X117.122 Y81.804 E5.81808
G1 X118.361 Y82.068 E5.87286
G1 X119 Y82.286 E5.90205
G1 X120.409 Y83.16 E5.97374
G1 X121.45 Y84.276 E6.03973
G1 X122.097 Y85.515 E6.10017
G1 X122.37 Y86.226 E6.1331
G1 X122.512 Y87.309 E6.18033
G1 X122.533 Y91.004 E6.34009
G1 X138.821 Y91.004 E7.04436
G1 X140.027 Y91.264 E7.0977
G1 X140.755 Y91.513 E7.13097
G1 X141.942 Y92.289 E7.19229
G1 X142.652 Y92.885 E7.23237
G1 X143.411 Y93.966 E7.28948
G1 X144.014 Y95.084 E7.3444
G1 X144.24 Y96.338 E7.3995
G1 X144.24 Y96.823 E7.42047
G1 X144.4 Y97.392 E7.44602
G1 X144.4 Y122.641 E8.53774
G1 X144.24 Y123.16 E8.56123
G1 X144.24 Y123.546 E8.57792
G1 X143.976 Y124.785 E8.63269
G1 X143.758 Y125.424 E8.66188
G1 X142.884 Y126.833 E8.73358
G1 X141.768 Y127.874 E8.79956
G1 X140.529 Y128.521 E8.86
G1 X139.818 Y128.794 E8.89293
G1 X138.735 Y128.936 E8.94016
G1 X122.54 Y128.962 E9.6404
G1 X122.54 Y132.746 E9.80401
G1 X122.276 Y133.985 E9.85879
G1 X122.058 Y134.624 E9.88798
G1 X121.184 Y136.033 E9.95967
G1 X120.068 Y137.074 E10.02566
G1 X118.829 Y137.721 E10.0861
G1 X118.118 Y137.994 E10.11903
G0 F3000 X117.992 Y137.486
G1 F900 X116.968 Y137.62 E10.16368
G1 X81.454 Y137.644 E11.69924
G1 X80.267 Y137.391 E11.75172
G1 X79.745 Y137.21 E11.77561
G1 X78.444 Y136.403 E11.8418
G1 X77.499 Y135.389 E11.90174
G1 X76.884 Y134.212 E11.95916
G1 X76.658 Y133.616 E11.98672
G1 X76.524 Y132.592 E12.03137
G1 X76.5 Y87.278 E13.99066
G1 X76.753 Y86.091 E14.04314
G1 X76.934 Y85.569 E14.06703
G1 X77.741 Y84.268 E14.13323
G1 X78.755 Y83.323 E14.19316
G1 X79.932 Y82.708 E14.25058
G1 X80.528 Y82.482 E14.27814
G1 X81.552 Y82.348 E14.32279
G1 X117.066 Y82.324 E15.85835
G1 X118.253 Y82.577 E15.91083
G1 X118.775 Y82.758 E15.93472
G1 X120.076 Y83.565 E16.00091
G1 X121.021 Y84.579 E16.06084
G1 X121.636 Y85.756 E16.11826
G1 X121.862 Y86.352 E16.14583
G1 X121.996 Y87.376 E16.19048
G1 X122.015 Y91.524 E16.36983
G1 X138.764 Y91.524 E17.09403
G1 X139.859 Y91.756 E17.14243
G1 X140.525 Y91.984 E17.17286
G1 X141.607 Y92.687 E17.22865
G1 X142.265 Y93.24 E17.26582
G1 X142.953 Y94.213 E17.31734
G1 X143.517 Y95.258 E17.36869
G1 X143.72 Y96.386 E17.41824
G1 X143.72 Y96.896 E17.4403
G1 X143.88 Y97.465 E17.46585
G1 X143.88 Y122.563 E18.55104
G1 X143.72 Y123.082 E18.57453
G1 X143.72 Y123.49 E18.59217
G1 X143.467 Y124.677 E18.64464
G1 X143.286 Y125.199 E18.66853
G1 X142.479 Y126.5 E18.73473
G1 X141.465 Y127.445 E18.79466
G1 X140.288 Y128.06 E18.85208
G1 X139.692 Y128.286 E18.87964
G1 X138.668 Y128.42 E18.92429
G1 X122.02 Y128.443 E19.64412
G1 X122.02 Y132.69 E19.82776
G1 X121.767 Y133.877 E19.88023
G1 X121.586 Y134.399 E19.90412
G1 X120.779 Y135.7 E19.97032
G1 X119.765 Y136.645 E20.03025
G1 X118.588 Y137.26 E20.08767
G1 X117.992 Y137.486 E20.11523
G0 F3000 X117.868 Y136.977
G1 F900 X116.9 Y137.104 E20.15744
G1 X81.51 Y137.124 E21.68764
G1 X80.375 Y136.882 E21.73782
G1 X79.969 Y136.737 E21.75646
G1 X78.775 Y135.996 E21.81722
G1 X77.928 Y135.087 E21.87094
G1 X77.37 Y134.028 E21.9227
G1 X77.167 Y133.492 E21.94748
G1 X77.04 Y132.524 E21.9897
G1 X77.02 Y87.334 E23.94363
G1 X77.262 Y86.199 E23.99381
G1 X77.407 Y85.793 E24.01245
G1 X78.148 Y84.599 E24.07321
G1 X79.057 Y83.752 E24.12693
G1 X80.116 Y83.194 E24.17869
G1 X80.652 Y82.991 E24.20347
G1 X81.62 Y82.864 E24.24568
G1 X117.01 Y82.844 E25.77588
G1 X118.145 Y83.086 E25.82606
G1 X118.551 Y83.231 E25.8447
G1 X119.745 Y83.972 E25.90546
G1 X120.592 Y84.881 E25.95918
G1 X121.15 Y85.94 E26.01094
G1 X121.353 Y86.476 E26.03572
G1 X121.48 Y87.444 E26.07793
G1 X121.497 Y92.044 E26.27683
G1 X138.708 Y92.044 E27.021
G1 X139.751 Y92.265 E27.0671
G1 X140.295 Y92.455 E27.09202
G1 X141.272 Y93.085 E27.14228
G1 X141.879 Y93.595 E27.17656
G1 X142.528 Y94.513 E27.22517
G1 X143.02 Y95.431 E27.27021
G1 X143.2 Y96.433 E27.31422
G1 X143.2 Y96.969 E27.3374
G1 X143.36 Y97.538 E27.36296
G1 X143.36 Y122.485 E28.44162
G1 X143.2 Y123.004 E28.4651
G1 X143.2 Y123.434 E28.48369
G1 X142.958 Y124.569 E28.53387
G1 X142.813 Y124.975 E28.55251
G1 X142.072 Y126.169 E28.61327
G1 X141.163 Y127.016 E28.66699
G1 X140.104 Y127.574 E28.71875
G1 X139.568 Y127.777 E28.74353
G1 X138.6 Y127.904 E28.78575
G1 X121.5 Y127.924 E29.52512
G1 X121.5 Y132.634 E29.72877
G1 X121.258 Y133.769 E29.77895
G1 X121.113 Y134.175 E29.79759
G1 X120.372 Y135.369 E29.85835
G1 X119.463 Y136.216 E29.91207
G1 X118.404 Y136.774 E29.96383
G1 X117.868 Y136.977 E29.98861
G0 F3000 X117.743 Y136.468
G1 F900 X116.832 Y136.588 E30.02834
G1 X81.566 Y136.604 E31.55318
G1 X80.483 Y136.373 E31.60106
G1 X80.197 Y136.266 E31.61426
G1 X79.108 Y135.591 E31.66966
G1 X78.355 Y134.782 E31.71745
G1 X77.83 Y133.786 E31.76613
G1 X77.676 Y133.367 E31.78543
G1 X77.556 Y132.456 E31.82516
G1 X77.54 Y87.39 E33.77373
G1 X77.771 Y86.307 E33.82161
G1 X77.878 Y86.021 E33.83482
G1 X78.553 Y84.932 E33.89022
G1 X79.362 Y84.179 E33.938
G1 X80.358 Y83.654 E33.98668
G1 X80.777 Y83.5 E34.00599
G1 X81.688 Y83.38 E34.04572
G1 X116.954 Y83.364 E35.57055
G1 X118.037 Y83.595 E35.61843
G1 X118.323 Y83.702 E35.63164
G1 X119.412 Y84.377 E35.68704
G1 X120.165 Y85.186 E35.73482
G1 X120.69 Y86.182 E35.7835
G1 X120.844 Y86.601 E35.80281
G1 X120.964 Y87.512 E35.84254
G1 X120.978 Y92.564 E36.06098
G1 X138.652 Y92.564 E36.82517
G1 X139.643 Y92.774 E36.86897
G1 X140.064 Y92.925 E36.88831
G1 X140.99 Y93.522 E36.93595
G1 X141.492 Y93.949 E36.96444
G1 X142.103 Y94.813 E37.0102
G1 X142.522 Y95.603 E37.04886
G1 X142.68 Y96.481 E37.08743
G1 X142.68 Y97.042 E37.11169
G1 X142.84 Y97.611 E37.13725
G1 X142.84 Y122.407 E38.20938
G1 X142.68 Y122.926 E38.23286
G1 X142.68 Y123.378 E38.25241
G1 X142.449 Y124.461 E38.30029
G1 X142.342 Y124.747 E38.31349
G1 X141.667 Y125.836 E38.36889
G1 X140.858 Y126.589 E38.41668
G1 X139.862 Y127.114 E38.46536
G1 X139.443 Y127.268 E38.48466
G1 X138.532 Y127.388 E38.52439
G1 X120.98 Y127.404 E39.28331
G1 X120.98 Y132.578 E39.50702
G1 X120.749 Y133.661 E39.5549
G1 X120.642 Y133.947 E39.56811
G1 X119.967 Y135.036 E39.6235
G1 X119.158 Y135.789 E39.67129
G1 X118.162 Y136.314 E39.71997
G1 X117.743 Y136.468 E39.73927
G0 F3000 X117.622 Y135.959
G1 F900 X116.764 Y136.072 E39.77669
G1 X81.623 Y136.084 E41.29613
G1 X80.592 Y135.864 E41.34171
G1 X80.427 Y135.797 E41.34941
G1 X79.439 Y135.184 E41.39968
G1 X78.783 Y134.48 E41.44129
G1 X78.29 Y133.544 E41.48703
G1 X78.185 Y133.246 E41.50069
G1 X78.072 Y132.388 E41.53811
G1 X78.06 Y87.447 E43.48128
G1 X78.28 Y86.416 E43.52686
G1 X78.347 Y86.251 E43.53456
G1 X78.96 Y85.263 E43.58483
G1 X79.664 Y84.607 E43.62644
G1 X80.6 Y84.114 E43.67218
G1 X80.898 Y84.009 E43.68584
G1 X81.756 Y83.896 E43.72326
G1 X116.897 Y83.884 E45.24269
G1 X117.928 Y84.104 E45.28828
G1 X118.093 Y84.171 E45.29598
G1 X119.081 Y84.784 E45.34625
G1 X119.737 Y85.488 E45.38786
G1 X120.23 Y86.424 E45.4336
G1 X120.335 Y86.722 E45.44726
G1 X120.448 Y87.58 E45.48468
G1 X120.459 Y93.084 E45.72266
G1 X138.596 Y93.084 E46.50687
G1 X139.535 Y93.283 E46.54837
G1 X139.833 Y93.395 E46.56214
G1 X140.708 Y93.959 E46.60715
G1 X141.105 Y94.302 E46.62984
G1 X141.644 Y95.057 E46.66995
G1 X142.024 Y95.774 E46.70503
G1 X142.16 Y96.529 E46.7382
G1 X142.16 Y97.115 E46.76354
G1 X142.32 Y97.684 E46.7891
G1 X142.32 Y122.329 E47.8547
G1 X142.16 Y122.848 E47.87818
G1 X142.16 Y123.321 E47.89864
G1 X141.94 Y124.352 E47.94422
G1 X141.873 Y124.517 E47.95192
G1 X141.26 Y125.505 E48.00219
G1 X140.556 Y126.161 E48.0438
G1 X139.62 Y126.654 E48.08954
G1 X139.322 Y126.759 E48.1032
G1 X138.464 Y126.872 E48.14062
G1 X120.46 Y126.884 E48.91908
G1 X120.46 Y132.521 E49.16281
G1 X120.24 Y133.552 E49.2084
G1 X120.173 Y133.717 E49.2161
G1 X119.56 Y134.705 E49.26637
G1 X118.856 Y135.361 E49.30798
G1 X117.92 Y135.854 E49.35372
G1 X117.622 Y135.959 E49.36738
G0 F3000 X117.678 Y135.394
G1 F900 X117.504 Y135.45 E49.37528
G1 X116.696 Y135.556 E49.41052
G1 X81.68 Y135.564 E50.92455
G1 X80.701 Y135.355 E50.96783
G1 X79.772 Y134.779 E51.01509
G1 X79.21 Y134.176 E51.05073
G1 X78.75 Y133.302 E51.09344
G1 X78.694 Y133.128 E51.10134
G1 X78.588 Y132.32 E51.13658
G1 X78.58 Y87.504 E53.07434
G1 X78.789 Y86.525 E53.11762
G1 X79.365 Y85.596 E53.16489
G1 X79.968 Y85.034 E53.20053
G1 X80.842 Y84.574 E53.24323
G1 X81.016 Y84.518 E53.25114
G1 X81.824 Y84.412 E53.28637
G1 X116.84 Y84.404 E54.8004
G1 X117.819 Y84.613 E54.84368
G1 X118.748 Y85.189 E54.89095
G1 X119.31 Y85.792 E54.92659
G1 X119.77 Y86.666 E54.96929
G1 X119.826 Y86.84 E54.9772
G1 X119.932 Y87.648 E55.01243
G1 X119.94 Y93.604 E55.26996
G1 X138.54 Y93.604 E56.07419
G1 X139.427 Y93.792 E56.11339
G1 X139.596 Y93.861 E56.12129
G1 X140.368 Y94.353 E56.16087
G1 X140.719 Y94.656 E56.18092
G1 X141.184 Y95.3 E56.21526
G1 X141.526 Y95.946 E56.24687
G1 X141.64 Y96.577 E56.27459
G1 X141.64 Y97.188 E56.30101
G1 X141.8 Y97.757 E56.32657
G1 X141.8 Y122.251 E57.38564
G1 X141.64 Y122.77 E57.40913
G1 X141.64 Y123.264 E57.43049
G1 X141.431 Y124.243 E57.47377
G1 X140.855 Y125.172 E57.52103
G1 X140.252 Y125.734 E57.55667
G1 X139.378 Y126.194 E57.59938
G1 X139.204 Y126.25 E57.60728
G1 X138.396 Y126.356 E57.64252
G1 X119.94 Y126.364 E58.44052
G1 X119.94 Y132.464 E58.70427
G1 X119.731 Y133.443 E58.74756
G1 X119.155 Y134.372 E58.79482
G1 X118.552 Y134.934 E58.83046
G1 X117.678 Y135.394 E58.87317
G0 F3000 X117.436 Y134.934
G1 F900 X116.628 Y135.04 E58.9084
G1 X81.736 Y135.044 E60.41707
G1 X80.897 Y134.865 E60.45416
G1 X80.105 Y134.374 E60.49445
G1 X79.637 Y133.872 E60.52413
G1 X79.21 Y133.06 E60.5638
G1 X79.104 Y132.252 E60.59903
G1 X79.1 Y87.56 E62.53143
G1 X79.279 Y86.721 E62.56853
G1 X79.77 Y85.929 E62.60882
G1 X80.272 Y85.461 E62.63849
G1 X81.084 Y85.034 E62.67816
G1 X81.892 Y84.928 E62.7134
G1 X116.784 Y84.924 E64.22206
G1 X117.623 Y85.103 E64.25916
G1 X118.415 Y85.594 E64.29945
G1 X118.883 Y86.096 E64.32912
G1 X119.31 Y86.908 E64.36879
G1 X119.416 Y87.716 E64.40403
G1 X119.42 Y94.124 E64.6811
G1 X138.484 Y94.124 E65.50539
G1 X139.319 Y94.301 E65.54229
G1 X140.028 Y94.747 E65.57851
G1 X140.334 Y95.011 E65.59599
G1 X140.762 Y95.604 E65.62761
G1 X141.028 Y96.116 E65.65255
G1 X141.12 Y96.625 E65.67492
G1 X141.12 Y97.261 E65.70242
G1 X141.28 Y97.83 E65.72798
G1 X141.28 Y122.173 E66.78052
G1 X141.12 Y122.692 E66.804
G1 X141.12 Y123.208 E66.82632
G1 X140.941 Y124.047 E66.86341
G1 X140.45 Y124.839 E66.9037
G1 X139.948 Y125.307 E66.93338
G1 X139.136 Y125.734 E66.97304
G1 X138.328 Y125.84 E67.00828
G1 X119.42 Y125.844 E67.82583
G1 X119.42 Y132.408 E68.10964
G1 X119.241 Y133.247 E68.14674
G1 X118.75 Y134.039 E68.18703
G1 X118.248 Y134.507 E68.2167
G1 X117.436 Y134.934 E68.25637
G0 F3000 X117.278 Y134.43
G1 F900 X116.56 Y134.524 E68.28768
G1 X81.792 Y134.524 E69.79098
G1 X81.093 Y134.375 E69.82189
G1 X80.438 Y133.969 E69.85521
G1 X80.064 Y133.567 E69.87895
G1 X79.714 Y132.902 E69.91144
G1 X79.62 Y132.184 E69.94275
G1 X79.62 Y87.616 E71.86979
G1 X79.769 Y86.917 E71.90069
G1 X80.175 Y86.262 E71.93401
G1 X80.577 Y85.888 E71.95775
G1 X81.242 Y85.538 E71.99025
G1 X81.96 Y85.444 E72.02156
G1 X116.728 Y85.444 E73.52486
G1 X117.427 Y85.593 E73.55576
G1 X118.082 Y85.999 E73.58908
G1 X118.456 Y86.401 E73.61282
G1 X118.806 Y87.066 E73.64532
G1 X118.9 Y87.784 E73.67663
G1 X118.9 Y94.644 E73.97324
G1 X138.428 Y94.644 E74.8176
G1 X139.123 Y94.791 E74.84831
G1 X139.689 Y95.141 E74.87709
G1 X139.948 Y95.364 E74.89186
G1 X140.3 Y95.844 E74.9176
G1 X140.53 Y96.287 E74.93918
G1 X140.6 Y96.674 E74.95619
G1 X140.6 Y97.334 E74.98472
G1 X140.76 Y97.903 E75.01028
G1 X140.76 Y122.095 E76.0563
G1 X140.6 Y122.614 E76.07978
G1 X140.6 Y123.152 E76.10304
G1 X140.451 Y123.851 E76.13395
G1 X140.045 Y124.506 E76.16727
G1 X139.643 Y124.88 E76.19101
G1 X138.978 Y125.23 E76.2235
G1 X138.26 Y125.324 E76.25481
G1 X118.9 Y125.324 E77.0919
G1 X118.9 Y132.352 E77.39578
G1 X118.751 Y133.051 E77.42668
G1 X118.345 Y133.706 E77.46
G1 X117.943 Y134.08 E77.48374
G1 X117.278 Y134.43 E77.51624
G0 F3000 X117.119 Y133.926
G1 F900 X116.56 Y134.004 E77.54064
G1 X81.848 Y134.004 E79.04152
G1 X81.289 Y133.885 E79.06624
G1 X80.771 Y133.564 E79.09258
G1 X80.491 Y133.263 E79.11036
G1 X80.218 Y132.743 E79.13575
G1 X80.14 Y132.184 E79.16016
G1 X80.14 Y87.672 E81.08478
G1 X80.259 Y87.113 E81.10949
G1 X80.58 Y86.595 E81.13584
G1 X80.881 Y86.315 E81.15361
G1 X81.401 Y86.042 E81.17901
G1 X81.96 Y85.964 E81.20341
G1 X116.672 Y85.964 E82.70429
G1 X117.231 Y86.083 E82.72901
G1 X117.749 Y86.404 E82.75535
G1 X118.029 Y86.705 E82.77313
G1 X118.302 Y87.225 E82.79852
G1 X118.38 Y87.784 E82.82293
G1 X118.38 Y95.164 E83.14203
G1 X138.372 Y95.164 E84.00644
G1 X138.929 Y95.282 E84.03106
G1 X139.416 Y95.583 E84.05582
G1 X139.563 Y95.718 E84.06445
G1 X139.88 Y96.151 E84.08765
G1 X140.032 Y96.456 E84.10238
G1 X140.08 Y96.674 E84.11204
G1 X140.08 Y97.407 E84.14373
G1 X140.24 Y97.976 E84.16929
G1 X140.24 Y122.017 E85.20877
G1 X140.08 Y122.536 E85.23226
G1 X140.08 Y123.096 E85.25647
G1 X139.961 Y123.655 E85.28118
G1 X139.64 Y124.173 E85.30753
G1 X139.339 Y124.453 E85.32531
G1 X138.819 Y124.726 E85.3507
G1 X138.26 Y124.804 E85.37511
G1 X118.38 Y124.804 E86.23468
G1 X118.38 Y132.296 E86.55862
G1 X118.261 Y132.855 E86.58333
G1 X117.94 Y133.373 E86.60968
G1 X117.639 Y133.653 E86.62746
G1 X117.119 Y133.926 E86.65285
G0 F3000 X116.958 Y133.424
G1 F900 X116.56 Y133.484 E86.67025
G1 X81.904 Y133.484 E88.16872
G1 X81.485 Y133.395 E88.18724
G1 X81.104 Y133.159 E88.20662
G1 X80.918 Y132.959 E88.21842
G1 X80.72 Y132.582 E88.23684
G1 X80.66 Y132.184 E88.25424
G1 X80.66 Y87.728 E90.17644
G1 X80.749 Y87.309 E90.19496
G1 X80.985 Y86.928 E90.21434
G1 X81.185 Y86.742 E90.22614
G1 X81.562 Y86.544 E90.24456
G1 X81.96 Y86.484 E90.26196
G1 X116.616 Y86.484 E91.76042
G1 X117.035 Y86.573 E91.77894
G1 X117.416 Y86.809 E91.79832
G1 X117.602 Y87.009 E91.81013
G1 X117.8 Y87.386 E91.82854
G1 X117.86 Y87.784 E91.84595
G1 X117.86 Y95.684 E92.18753
G1 X138.316 Y95.684 E93.07201
G1 X138.735 Y95.773 E93.09053
G1 X139.143 Y96.025 E93.11126
G1 X139.46 Y96.458 E93.13447
G1 X139.56 Y96.674 E93.14476
G1 X139.56 Y97.505 E93.18069
G1 X139.595 Y97.593 E93.18478
G1 X139.72 Y98.046 E93.2051
G1 X139.72 Y121.939 E94.23819
G1 X139.56 Y122.457 E94.26163
G1 X139.56 Y123.04 E94.28684
G1 X139.471 Y123.459 E94.30536
G1 X139.235 Y123.84 E94.32474
G1 X139.035 Y124.026 E94.33655
G1 X138.658 Y124.224 E94.35496
G1 X138.26 Y124.284 E94.37237
G1 X117.86 Y124.284 E95.25442
G1 X117.86 Y132.24 E95.59843
G1 X117.771 Y132.659 E95.61695
G1 X117.535 Y133.04 E95.63633
G1 X117.335 Y133.226 E95.64814
G1 X116.958 Y133.424 E95.66655
G0 F3000 X116.781 Y132.321
G1 F900 X116.675 Y132.417 E95.67273
G1 X116.56 Y132.444 E95.67784
G1 X81.96 Y132.444 E97.17388
G1 X81.823 Y132.405 E97.18004
G1 X81.727 Y132.299 E97.18622
G1 X81.7 Y132.184 E97.19133
G1 X81.7 Y87.784 E99.11111
G1 X81.739 Y87.647 E99.11726
G1 X81.845 Y87.551 E99.12345
