;FLAVOR:Marlin
;TIME:6472
;Filament used: 4.23842m
;Layer height: 0.2
;MINX:93.408
;MINY:56.479
;MINZ:0.28
;MAXX:153.855
;MAXY:146.77
;MAXZ:15.08
;TARGET_MACHINE.NAME:Creality Ender-3 V3 SE
;Generated with Cura_SteamEngine 5.9.0
M82 ;absolute extrusion mode
M220 S100 ;Reset Feedrate
M221 S100 ;Reset Flowrate

G28 ;Home

M420 S1; Use saved mesh leveling data

G92 E0 ;Reset Extruder
G1 Z2.0 F3000 ;Move Z Axis up
G1 X-3 Y20 Z0.28 F5000.0 ;Move to start position
M190 S60 ; Set bed temperature and wait
M109 S210.0 ; Set hotend temperature and wait
G1 X-3 Y100.0 Z0.28 F1500.0 E15 ;Draw the first line
G1 X-2 Y100.0 Z0.28 F5000.0 ;Move to side a little
G1 X-2 Y20 Z0.28 F1500.0 E30 ;Draw the second line
G92 E0 ;Reset Extruder
G1 E-1.0000 F1800 ;Retract a bit
G1 Z2.0 F3000 ;Move Z Axis up
G1 E0.0000 F1800 

G92 E0
G92 E0
G1 F2400 E-0.9
;LAYER_COUNT:74
;LAYER:0
M107
M205 X8 Y8
G1 F300 Z0.48
G0 F6000 X103.545 Y58.052 Z0.48
;TYPE:SKIRT
G1 F300 Z0.28
G1 F2400 E0
G1 F1200 X103.322 Y57.885 E0.01297
G1 X103.058 Y57.785 E0.02612
G1 X102.841 Y57.761 E0.03628
G1 X101.329 Y57.76 E0.10669
G1 X101.469 Y57.587 E0.11705
G1 X101.537 Y57.528 E0.12124
G1 X101.648 Y57.471 E0.12705
G1 X101.715 Y57.46 E0.13022
G1 X102.882 Y57.449 E0.18456
G1 X102.993 Y57.476 E0.18988
G1 X103.078 Y57.532 E0.19462
G1 X103.514 Y57.986 E0.22393
G1 X103.533 Y58.015 E0.22554
G1 X103.545 Y58.052 E0.22735
G0 F6000 X103.964 Y58.906
G1 F1200 X103.911 Y59.05 E0.2345
G1 X103.787 Y58.859 E0.2451
G1 X103.265 Y58.337 E0.27948
G1 X103.086 Y58.213 E0.28962
G1 X102.841 Y58.161 E0.30128
G1 X100.697 Y58.16 E0.40111
G1 X100.702 Y58.058 E0.40587
G1 X100.771 Y57.816 E0.41759
G1 X101.18 Y57.308 E0.44795
G1 X101.312 Y57.194 E0.45608
G1 X101.523 Y57.086 E0.46711
G1 X101.681 Y57.061 E0.47456
G1 X102.926 Y57.049 E0.53254
G1 X103.154 Y57.103 E0.54345
G1 X103.337 Y57.225 E0.55369
G1 X103.832 Y57.74 E0.58695
G1 X103.894 Y57.838 E0.59235
G1 X103.952 Y58.005 E0.60058
G1 X103.966 Y58.32 E0.61526
G1 X103.964 Y58.906 E0.64255
G0 F6000 X103.771 Y59.903
G1 F1200 X103.563 Y59.837 E0.65271
G1 X103.563 Y59.283 E0.67851
G1 X103.504 Y59.142 E0.68562
G1 X102.982 Y58.62 E0.72
G1 X102.841 Y58.561 E0.72712
G1 X100.287 Y58.56 E0.84604
G1 X100.287 Y58.377 E0.85456
G1 X100.305 Y57.988 E0.8727
G1 X100.407 Y57.63 E0.89003
G1 X100.895 Y57.025 E0.92622
G1 X101.085 Y56.861 E0.93791
G1 X101.398 Y56.701 E0.95428
G1 X101.647 Y56.661 E0.96602
G1 X102.97 Y56.648 E1.02763
G1 X103.319 Y56.731 E1.04433
G1 X103.594 Y56.915 E1.05974
G1 X104.148 Y57.491 E1.09695
G1 X104.256 Y57.66 E1.10629
G1 X104.348 Y57.927 E1.11944
G1 X104.366 Y58.321 E1.13781
G1 X104.364 Y58.979 E1.16845
G1 X104.265 Y59.244 E1.18162
G1 X104.132 Y59.428 E1.19219
G1 X104.113 Y59.442 E1.19329
G1 X104.07 Y59.486 E1.19616
G1 X103.771 Y59.903 E1.22005
G1 F2400 E0.32005
G1 F300 Z0.48
G0 F6000 X104.03 Y62.858 Z0.48
G1 F300 Z0.28
G1 F2400 E1.22005
G1 F1200 X103.999 Y62.858 E1.22149
G1 X104.011 Y62.838 E1.22258
G1 X104.03 Y62.858 E1.22386
G0 F6000 X105.34 Y63.059
G1 F1200 X105.886 Y63.605 E1.25982
G1 X105.885 Y69.861 E1.55112
G1 X105.404 Y70.452 E1.5866
G1 X105.236 Y70.452 E1.59443
G1 X105.161 Y70.467 E1.59799
G1 X104.652 Y70.673 E1.62356
G1 X104.616 Y70.692 E1.62545
G1 X104.281 Y70.916 E1.64422
G1 X104.25 Y70.941 E1.64607
G1 X103.853 Y71.341 E1.67231
G1 X103.75 Y71.046 E1.68686
G1 X103.733 Y71.01 E1.68872
G1 X103.563 Y70.722 E1.70429
G1 X103.563 Y70.255 E1.72604
G1 X105.216 Y70.251 E1.80301
G1 X105.37 Y70.177 E1.81096
G1 X105.64 Y69.845 E1.83089
G1 X105.685 Y69.719 E1.83712
G1 X105.686 Y63.773 E2.11399
G1 X105.627 Y63.632 E2.12111
G1 X105.313 Y63.318 E2.14178
G1 X105.172 Y63.259 E2.1489
G1 X103.563 Y63.257 E2.22382
G1 X103.563 Y62.805 E2.24487
G1 X103.734 Y62.521 E2.26031
G1 X103.751 Y62.485 E2.26216
G1 X103.876 Y62.132 E2.2796
G1 X104.328 Y62.59 E2.30956
G1 X104.359 Y62.616 E2.31144
G1 X104.691 Y62.838 E2.33004
G1 X104.727 Y62.857 E2.33194
G1 X105.189 Y63.044 E2.35515
G1 X105.264 Y63.059 E2.35871
G1 X105.34 Y63.059 E2.36225
G1 F2400 E1.46225
G1 F300 Z0.48
G0 F6000 X104.432 Y75.094 Z0.48
G1 F300 Z0.28
G1 F2400 E2.36225
G1 F1200 X103.81 Y76.376 E2.4286
G1 X103.636 Y76.586 E2.44129
G1 X103.527 Y76.656 E2.44733
G1 X103.317 Y76.723 E2.45759
G1 X101.475 Y76.723 E2.54336
G1 X101.194 Y76.657 E2.5568
G1 X101.065 Y76.579 E2.56382
G1 X100.944 Y76.453 E2.57196
G1 X100.125 Y74.958 E2.65133
G1 X101.587 Y74.958 E2.71941
G1 X101.68 Y75.048 E2.72543
G1 X101.817 Y75.104 E2.73233
G1 X102.765 Y75.112 E2.77647
G1 X102.89 Y75.07 E2.78261
G1 X103.486 Y74.604 E2.81784
G1 X103.563 Y74.446 E2.82602
G1 X103.563 Y73.812 E2.85555
G1 X103.765 Y73.742 E2.8655
G1 X104.056 Y74.117 E2.8876
G1 X104.066 Y74.129 E2.88833
G1 X104.196 Y74.271 E2.89729
G1 X104.357 Y74.487 E2.90984
G1 X104.443 Y74.784 E2.92424
G1 X104.432 Y75.094 E2.93868
G0 F6000 X103.204 Y75.791
G1 F1200 X103.14 Y75.923 E2.94551
G1 X101.567 Y75.923 E3.01876
G1 X101.528 Y75.851 E3.02257
G1 X101.618 Y75.884 E3.02703
G1 X101.811 Y75.904 E3.03607
G1 X102.759 Y75.912 E3.08021
G1 X103.038 Y75.875 E3.09332
G1 X103.204 Y75.791 E3.10198
G0 F6000 X103.471 Y76.158
G1 F1200 X103.367 Y76.284 E3.10959
G1 X103.356 Y76.291 E3.1102
G1 X103.256 Y76.323 E3.11508
G1 X101.52 Y76.323 E3.19592
G1 X101.348 Y76.282 E3.20415
G1 X101.316 Y76.263 E3.20589
G1 X101.27 Y76.216 E3.20895
G1 X100.801 Y75.358 E3.25448
G1 X101.437 Y75.358 E3.28409
G1 X101.584 Y75.456 E3.29232
G1 X101.814 Y75.504 E3.30326
G1 X102.762 Y75.512 E3.34741
G1 X102.977 Y75.474 E3.35757
G1 X103.137 Y75.385 E3.3661
G1 X103.733 Y74.919 E3.40133
G1 X103.877 Y74.755 E3.41149
G1 X103.926 Y74.579 E3.42
G1 X103.993 Y74.669 E3.42522
G1 X104.041 Y74.833 E3.43318
G1 X104.035 Y74.996 E3.44077
G1 X103.471 Y76.158 E3.50092
G1 F2400 E2.60092
G1 F300 Z0.48
G0 F6000 X126.322 Y75.828 Z0.48
G1 F300 Z0.28
G1 F2400 E3.50092
G1 F1200 X126.253 Y75.903 E3.50566
G1 X126.232 Y75.916 E3.50681
G1 X126.125 Y75.95 E3.51204
G1 X124.792 Y75.949 E3.57411
G1 X124.704 Y75.933 E3.57827
G1 X124.633 Y75.903 E3.58186
G1 X124.568 Y75.861 E3.58547
G1 X124.435 Y75.73 E3.59416
G1 X124.49 Y75.735 E3.59673
G1 X125.849 Y75.739 E3.66001
G1 X126.128 Y75.7 E3.67313
G1 X126.386 Y75.585 E3.68628
G1 X126.474 Y75.513 E3.69158
G1 X126.322 Y75.828 E3.70786
G0 F6000 X126.508 Y76.217
G1 F1200 X126.395 Y76.283 E3.71396
G1 X126.189 Y76.35 E3.72404
G1 X124.757 Y76.349 E3.79072
G1 X124.588 Y76.318 E3.79872
G1 X124.447 Y76.26 E3.80582
G1 X124.313 Y76.172 E3.81329
G1 X123.984 Y75.847 E3.83482
G1 X123.833 Y75.64 E3.84675
G1 X123.703 Y75.185 E3.86879
G1 X124.11 Y75.185 E3.88774
G1 X124.159 Y75.233 E3.89093
G1 X124.359 Y75.32 E3.90109
G1 X124.491 Y75.335 E3.90728
G1 X125.85 Y75.339 E3.97056
G1 X126.065 Y75.3 E3.98073
G1 X126.285 Y75.155 E3.993
G1 X126.793 Y74.626 E4.02715
G1 X126.913 Y74.443 E4.03734
G1 X126.928 Y74.368 E4.0409
G1 X126.937 Y74.376 E4.04146
G1 X127.039 Y74.533 E4.05018
G1 X127.104 Y74.909 E4.06795
G1 X127.093 Y75.081 E4.07597
G1 X127.058 Y75.225 E4.08287
G1 X126.655 Y76.056 E4.12588
G1 X126.508 Y76.217 E4.13603
G0 F6000 X126.563 Y76.65
G1 F1200 X126.253 Y76.75 E4.1512
G1 X124.721 Y76.749 E4.22254
G1 X124.471 Y76.702 E4.23438
G1 X124.261 Y76.616 E4.24495
G1 X124.062 Y76.486 E4.25602
G1 X123.683 Y76.113 E4.28078
G1 X123.467 Y75.815 E4.29791
G1 X123.281 Y75.169 E4.32922
G1 X123.283 Y74.785 E4.3471
G1 X124.3 Y74.785 E4.39445
G1 X124.366 Y74.89 E4.40023
G1 X124.492 Y74.935 E4.40646
G1 X125.851 Y74.939 E4.46974
G1 X125.996 Y74.878 E4.47706
G1 X126.504 Y74.349 E4.51122
G1 X126.56 Y74.21 E4.51819
G1 X126.56 Y73.614 E4.54595
G1 X126.761 Y73.544 E4.55586
G1 X127.13 Y74.004 E4.58332
G1 X127.148 Y74.024 E4.58457
G1 X127.246 Y74.117 E4.59086
G1 X127.419 Y74.384 E4.60567
G1 X127.506 Y74.888 E4.62949
G1 X127.489 Y75.149 E4.64167
G1 X127.437 Y75.361 E4.65183
G1 X126.989 Y76.284 E4.69961
G1 X126.764 Y76.53 E4.71513
G1 X126.563 Y76.65 E4.72603
G1 F2400 E3.82603
G1 F300 Z0.48
G0 F6000 X126.965 Y71.046 Z0.48
G1 F300 Z0.28
G1 F2400 E4.72603
G1 F1200 X126.793 Y70.68 E4.74486
G1 X126.772 Y70.645 E4.74676
G1 X126.56 Y70.361 E4.76326
G1 X126.56 Y70.085 E4.77612
G1 X128.12 Y70.084 E4.84876
G1 X128.23 Y70.051 E4.8541
G1 X128.589 Y69.815 E4.87411
G1 X128.667 Y69.717 E4.87994
G1 X128.679 Y69.648 E4.8832
G1 X128.68 Y63.768 E5.157
G1 X128.68 Y63.625 E5.16366
G1 X128.635 Y63.499 E5.16989
G1 X128.365 Y63.167 E5.18981
G1 X128.211 Y63.093 E5.19777
G1 X126.56 Y63.089 E5.27465
G1 X126.56 Y62.793 E5.28843
G1 X126.69 Y62.636 E5.29792
G1 X126.712 Y62.603 E5.29977
G1 X126.999 Y62.073 E5.32783
G1 X127.211 Y62.317 E5.34289
G1 X127.24 Y62.344 E5.34473
G1 X127.556 Y62.588 E5.36332
G1 X127.59 Y62.61 E5.36521
G1 X127.948 Y62.785 E5.38376
G1 X127.98 Y62.797 E5.38535
G1 X128.281 Y62.884 E5.39994
G1 X128.337 Y62.892 E5.40258
G1 X128.399 Y62.892 E5.40546
G1 X128.88 Y63.483 E5.44095
G1 X128.879 Y69.86 E5.73788
G1 X128.23 Y70.294 E5.77424
G1 X128.017 Y70.332 E5.78431
G1 X127.972 Y70.346 E5.78651
G1 X127.604 Y70.507 E5.80521
G1 X127.569 Y70.526 E5.80707
G1 X127.243 Y70.755 E5.82562
G1 X127.212 Y70.782 E5.82753
G1 X126.965 Y71.046 E5.84437
G1 F2400 E4.94437
G1 F300 Z0.48
G0 F6000 X126.888 Y59.532 Z0.48
G1 F300 Z0.28
G1 F2400 E5.84437
G1 F1200 X126.788 Y59.722 E5.85436
G1 X126.56 Y59.666 E5.8653
G1 X126.56 Y59.04 E5.89445
G1 X126.482 Y58.882 E5.90265
G1 X125.898 Y58.431 E5.93701
G1 X125.776 Y58.389 E5.94302
G1 X123.081 Y58.388 E6.06851
G1 X123.084 Y57.99 E6.08704
G1 X123.134 Y57.74 E6.09891
G1 X123.297 Y57.437 E6.11493
G1 X123.431 Y57.278 E6.12462
G1 X124.242 Y56.665 E6.17195
G1 X124.43 Y56.567 E6.18182
G1 X124.724 Y56.479 E6.19611
G1 X125.909 Y56.48 E6.25129
G1 X126.15 Y56.522 E6.26268
G1 X126.359 Y56.604 E6.27314
G1 X126.549 Y56.716 E6.28341
G1 X127.061 Y57.225 E6.31703
G1 X127.265 Y57.548 E6.33481
G1 X127.339 Y57.78 E6.34615
G1 X127.352 Y58.123 E6.36214
G1 X127.35 Y58.683 E6.38821
G1 X127.265 Y59.014 E6.40413
G1 X127.132 Y59.224 E6.4157
G1 X127.122 Y59.231 E6.41627
G1 X127.076 Y59.276 E6.41927
G1 X126.905 Y59.505 E6.43257
G1 X126.888 Y59.532 E6.43406
G0 F6000 X126.95 Y58.634
G1 F1200 X126.906 Y58.806 E6.44233
G1 X126.727 Y58.565 E6.4563
G1 X126.143 Y58.114 E6.49066
G1 X125.949 Y58.014 E6.50083
G1 X125.776 Y57.989 E6.50897
G1 X123.492 Y57.988 E6.61532
G1 X123.514 Y57.878 E6.62054
G1 X123.631 Y57.662 E6.63198
G1 X123.708 Y57.57 E6.63757
G1 X124.454 Y57.006 E6.68111
G1 X124.583 Y56.939 E6.68788
G1 X124.783 Y56.879 E6.69761
G1 X125.876 Y56.88 E6.7485
G1 X126.041 Y56.908 E6.75629
G1 X126.181 Y56.964 E6.76331
G1 X126.305 Y57.037 E6.77001
G1 X126.746 Y57.475 E6.79896
G1 X126.9 Y57.719 E6.81239
G1 X126.941 Y57.847 E6.81865
G1 X126.952 Y58.146 E6.83258
G1 X126.95 Y58.634 E6.85531
G0 F6000 X126.544 Y57.918
G1 F1200 X126.387 Y57.798 E6.86451
G1 X126.142 Y57.658 E6.87765
G1 X125.776 Y57.589 E6.89499
G1 X124.346 Y57.589 E6.96158
G1 X124.668 Y57.346 E6.98036
G1 X124.734 Y57.311 E6.98384
G1 X124.841 Y57.279 E6.98904
G1 X125.842 Y57.28 E7.03565
G1 X125.929 Y57.295 E7.03976
G1 X126.008 Y57.326 E7.04371
G1 X126.058 Y57.355 E7.0464
G1 X126.432 Y57.728 E7.071
G1 X126.535 Y57.89 E7.07994
G1 X126.544 Y57.918 E7.08131
G1 F2400 E6.18131
G1 F300 Z0.48
G0 F6000 X150.871 Y64.241 Z0.48
G1 F300 Z0.28
G1 F2400 E7.08131
G1 F1200 X150.698 Y64.104 E7.09158
G1 X150.454 Y63.962 E7.10473
G1 X150.078 Y63.889 E7.12256
G1 X148.554 Y63.888 E7.19353
G1 X148.628 Y63.753 E7.2007
G1 X148.68 Y63.682 E7.20479
G1 X148.748 Y63.625 E7.20893
G1 X148.797 Y63.602 E7.21145
G1 X148.9 Y63.584 E7.21632
G1 X150.318 Y63.586 E7.28234
G1 X150.484 Y63.625 E7.29028
G1 X150.536 Y63.655 E7.29308
G1 X150.585 Y63.721 E7.29691
G1 X150.871 Y64.241 E7.32454
G0 F6000 X151.32 Y65.055
G1 F1200 X151.223 Y65.163 E7.3313
G1 X151.217 Y65.131 E7.33282
G1 X151.029 Y64.875 E7.34761
G1 X150.45 Y64.418 E7.38195
G1 X150.257 Y64.316 E7.39212
G1 X150.078 Y64.289 E7.40055
G1 X147.881 Y64.288 E7.50285
G1 X148.292 Y63.533 E7.54288
G1 X148.389 Y63.404 E7.55039
G1 X148.526 Y63.288 E7.55875
G1 X148.674 Y63.217 E7.56639
G1 X148.868 Y63.184 E7.57556
G1 X150.363 Y63.186 E7.64517
G1 X150.631 Y63.249 E7.65799
G1 X150.806 Y63.349 E7.66738
G1 X150.921 Y63.503 E7.67632
G1 X151.423 Y64.416 E7.72484
G1 X151.472 Y64.636 E7.73534
G1 X151.427 Y64.862 E7.74607
G1 X151.32 Y65.055 E7.75634
G0 F6000 X151.074 Y66.032
G1 F1200 X150.857 Y65.97 E7.76685
G1 X150.857 Y65.346 E7.79591
G1 X150.781 Y65.189 E7.80403
G1 X150.202 Y64.732 E7.83838
G1 X150.078 Y64.689 E7.84449
G1 X147.392 Y64.688 E7.96956
G1 X147.416 Y64.411 E7.9825
G1 X147.509 Y64.136 E7.99602
G1 X147.957 Y63.313 E8.03965
G1 X148.093 Y63.13 E8.05027
G1 X148.309 Y62.948 E8.06342
G1 X148.555 Y62.831 E8.07611
G1 X148.831 Y62.784 E8.08914
G1 X150.408 Y62.786 E8.16258
G1 X150.78 Y62.874 E8.18038
G1 X151.077 Y63.043 E8.19629
G1 X151.26 Y63.288 E8.21053
G1 X151.801 Y64.273 E8.26286
G1 X151.881 Y64.631 E8.27994
G1 X151.808 Y64.998 E8.29736
G1 X151.649 Y65.287 E8.31272
G1 X151.302 Y65.672 E8.33685
G1 X151.281 Y65.7 E8.33848
G1 X151.074 Y66.032 E8.3567
G1 F2400 E7.4567
G1 F300 Z0.48
G0 F6000 X151.351 Y68.986 Z0.48
G1 F300 Z0.28
G1 F2400 E8.3567
G1 F1200 X151.293 Y68.986 E8.3594
G1 X151.313 Y68.952 E8.36124
G1 X151.351 Y68.986 E8.36361
G0 F6000 X152.751 Y69.187
G1 F1200 X153.176 Y69.822 E8.39919
G1 X153.177 Y76.038 E8.68864
G1 X152.62 Y76.595 E8.72532
G1 X152.328 Y76.637 E8.73905
G1 X152.275 Y76.652 E8.74162
G1 X151.91 Y76.814 E8.76021
G1 X151.875 Y76.834 E8.76209
G1 X151.549 Y77.066 E8.78072
G1 X151.519 Y77.092 E8.78257
G1 X151.151 Y77.484 E8.80761
G1 X150.855 Y76.869 E8.83939
G1 X150.855 Y76.385 E8.86192
G1 X152.408 Y76.384 E8.93424
G1 X152.511 Y76.355 E8.93922
G1 X152.617 Y76.291 E8.94499
G1 X152.623 Y76.287 E8.94532
G1 X152.886 Y76.115 E8.95995
G1 X152.964 Y76.018 E8.96575
G1 X152.977 Y75.948 E8.96907
G1 X152.976 Y70.068 E9.24286
G1 X152.976 Y69.944 E9.24864
G1 X152.942 Y69.832 E9.25409
G1 X152.702 Y69.475 E9.27412
G1 X152.603 Y69.399 E9.27993
G1 X152.536 Y69.387 E9.2831
G1 X150.856 Y69.385 E9.36133
G1 X150.856 Y68.937 E9.38219
G1 X151.028 Y68.648 E9.39785
G1 X151.045 Y68.613 E9.39966
G1 X151.126 Y68.384 E9.41097
G1 X151.302 Y68.356 E9.41927
G1 X151.41 Y68.499 E9.42761
G1 X151.437 Y68.528 E9.42946
G1 X151.736 Y68.793 E9.44806
G1 X151.769 Y68.816 E9.44993
G1 X152.116 Y69.017 E9.46861
G1 X152.152 Y69.033 E9.47044
G1 X152.574 Y69.176 E9.49119
G1 X152.638 Y69.187 E9.49421
G1 X152.751 Y69.187 E9.49947
G1 F2400 E8.59947
G1 F300 Z0.48
G0 F6000 X151.266 Y76.785 Z0.48
G1 F300 Z0.28
G1 F2400 E9.49947
G1 F1200 X151.261 Y76.789 E9.49977
G1 X151.266 Y76.785 E9.50007
G1 F2400 E8.60007
G1 F300 Z0.48
G0 F6000 X151.744 Y80.882 Z0.48
G1 F300 Z0.28
G1 F2400 E9.50007
G1 F1200 X151.74 Y81.186 E9.51423
G1 X151.093 Y82.525 E9.58347
G1 X150.939 Y82.71 E9.59468
G1 X150.86 Y82.754 E9.59889
G1 X150.776 Y82.846 E9.60469
G1 X150.762 Y82.97 E9.61051
G1 X150.835 Y83.086 E9.61689
G1 X151.043 Y83.247 E9.62914
G1 X151.448 Y83.729 E9.65845
G1 X151.582 Y83.958 E9.6708
G1 X151.677 Y84.261 E9.68559
G1 X151.674 Y85.212 E9.72987
G1 X151.568 Y85.486 E9.74355
G1 X151.406 Y85.693 E9.75579
G1 X151.372 Y85.725 E9.75797
G1 X151.182 Y85.971 E9.77244
G1 X151.161 Y86.003 E9.77422
G1 X151.104 Y86.117 E9.78016
G1 X150.873 Y86.062 E9.79122
G1 X150.873 Y85.532 E9.81589
G1 X150.815 Y85.391 E9.82299
G1 X150.293 Y84.868 E9.8574
G1 X150.151 Y84.809 E9.86456
G1 X147.406 Y84.808 E9.99238
G1 X147.434 Y84.513 E10.00618
G1 X147.495 Y84.311 E10.016
G1 X147.985 Y83.423 E10.06323
G1 X148.117 Y83.247 E10.07347
G1 X148.348 Y83.052 E10.08755
G1 X148.342 Y83.045 E10.08798
G1 X148.394 Y83.002 E10.09112
G1 X148.423 Y82.881 E10.09692
G1 X148.332 Y82.729 E10.10516
G1 X148.261 Y82.683 E10.1091
G1 X148.117 Y82.497 E10.12006
G1 X147.577 Y81.29 E10.18163
G1 X147.549 Y81.086 E10.19122
G1 X148.878 Y81.086 E10.2531
G1 X148.976 Y81.178 E10.25936
G1 X149.111 Y81.232 E10.26613
G1 X150.179 Y81.241 E10.31586
G1 X150.335 Y81.169 E10.32386
G1 X150.808 Y80.602 E10.35825
G1 X150.854 Y80.474 E10.36458
G1 X150.854 Y79.869 E10.39275
G1 X151.083 Y79.812 E10.40374
G1 X151.176 Y79.99 E10.41309
G1 X151.196 Y80.021 E10.41481
G1 X151.663 Y80.615 E10.44999
G1 X151.744 Y80.882 E10.46298
G0 F6000 X150.642 Y81.425
G1 F1200 X151.115 Y80.858 E10.49737
G1 X151.211 Y80.688 E10.50646
G1 X151.302 Y80.804 E10.51332
