;FLAVOR:Marlin
;TIME:14435
;Filament used: 12.5783m
;Layer height: 0.2
;MINX:54.454
;MINY:58.721
;MINZ:0.2
;MAXX:165.611
;MAXY:161.247
;MAXZ:14.8
;TARGET_MACHINE.NAME:Creality Ender-3 V3 SE
;Generated with Cura_SteamEngine 5.9.0
M82 ;absolute extrusion mode
M220 S100 ;Reset Feedrate
M221 S100 ;Reset Flowrate

G28 ;Home

M420 S1; Use saved mesh leveling data

G92 E0 ;Reset Extruder
G1 Z2.0 F3000 ;Move Z Axis up
G1 X-3 Y20 Z0.28 F5000.0 ;Move to start position
M190 S65 ; Set bed temperature and wait
M109 S205.0 ; Set hotend temperature and wait
G1 X-3 Y100.0 Z0.28 F1500.0 E15 ;Draw the first line
G1 X-2 Y100.0 Z0.28 F5000.0 ;Move to side a little
G1 X-2 Y20 Z0.28 F1500.0 E30 ;Draw the second line
G92 E0 ;Reset Extruder
G1 E-1.0000 F1800 ;Retract a bit
G1 Z2.0 F3000 ;Move Z Axis up
G1 E0.0000 F1800 

G92 E0
G92 E0
G1 F2400 E-0.8
;LAYER_COUNT:74
;LAYER:0
M107
M204 S500
M205 X8 Y8
G0 F3000 X93.193 Y59.198 Z0.2
;TYPE:SKIRT
G1 F2400 E0
G1 F900 X95.136 Y58.721 E0.08651
G1 X124.973 Y58.721 E1.3766
G1 X126.667 Y59.151 E1.45217
G1 X126.793 Y59.198 E1.45799
G1 X128.736 Y58.721 E1.54449
G1 X158.573 Y58.721 E2.83459
G1 X160.365 Y59.176 E2.91453
G1 X161.737 Y59.826 E2.98018
G1 X162.939 Y60.7 E3.04443
G1 X163.974 Y61.822 E3.11044
G1 X164.909 Y63.267 E3.18485
G1 X165.464 Y65.019 E3.26432
G1 X165.611 Y66.614 E3.33357
G1 X165.607 Y120.56 E5.6661
G1 X165.256 Y122.123 E5.73537
G1 X164.669 Y123.522 E5.80097
G1 X163.889 Y124.696 E5.86191
G1 X162.899 Y125.729 E5.92377
G1 X161.684 Y126.608 E5.98862
G1 X160.249 Y127.275 E6.05704
G1 X158.546 Y127.681 E6.13274
G1 X144.48 Y127.681 E6.74092
G1 X144.48 Y154.191 E7.88717
G1 X144.022 Y156.017 E7.96857
G1 X143.139 Y157.875 E8.05751
G1 X141.634 Y159.411 E8.15049
G1 X140.344 Y160.3 E8.21823
G1 X138.745 Y160.916 E8.29232
G1 X137.902 Y161.112 E8.32975
G1 X136.578 Y161.247 E8.38729
G1 X82.639 Y161.194 E10.71952
G1 X81.845 Y161.068 E10.75428
G1 X80.764 Y160.795 E10.80248
G1 X78.899 Y159.907 E10.8918
G1 X77.164 Y158.235 E10.99598
G1 X76.034 Y156.278 E11.09369
G1 X75.52 Y154.157 E11.18805
G1 X75.52 Y127.681 E12.33283
G1 X61.518 Y127.681 E12.93825
G1 X59.695 Y127.225 E13.0195
G1 X57.806 Y126.325 E13.10997
G1 X56.29 Y124.841 E13.2017
G1 X55.359 Y123.463 E13.27361
G1 X54.925 Y122.38 E13.32405
G1 X54.562 Y120.926 E13.38885
G1 X54.454 Y119.781 E13.43858
G1 X54.507 Y65.84 E15.77089
G1 X54.633 Y65.046 E15.80565
G1 X54.907 Y63.961 E15.85404
G1 X55.79 Y62.106 E15.94287
G1 X57.492 Y60.343 E16.04882
G1 X59.411 Y59.237 E16.14459
G1 X61.537 Y58.721 E16.23918
G1 X91.373 Y58.721 E17.52924
G1 X93.067 Y59.151 E17.60481
G1 X93.193 Y59.198 E17.61062
G0 F3000 X93.362 Y59.688
G1 F900 X95.198 Y59.241 E17.69233
G1 X124.908 Y59.241 E18.97693
G1 X126.539 Y59.655 E19.04969
G1 X126.785 Y59.761 E19.06127
G1 X126.962 Y59.688 E19.06955
G1 X128.798 Y59.241 E19.15126
G1 X158.508 Y59.241 E20.43586
G1 X160.189 Y59.668 E20.51085
G1 X161.467 Y60.273 E20.57199
G1 X162.593 Y61.092 E20.63219
G1 X163.56 Y62.14 E20.69385
G1 X164.435 Y63.492 E20.76348
G1 X164.951 Y65.122 E20.83741
G1 X165.091 Y66.614 E20.9022
G1 X165.087 Y120.504 E23.23231
G1 X164.759 Y121.965 E23.29705
G1 X164.21 Y123.273 E23.35839
G1 X163.483 Y124.367 E23.41518
G1 X162.553 Y125.338 E23.47332
G1 X161.422 Y126.156 E23.53367
G1 X160.076 Y126.782 E23.59785
G1 X158.485 Y127.161 E23.66857
G1 X143.96 Y127.161 E24.2966
G1 X143.96 Y154.128 E25.46261
G1 X143.531 Y155.838 E25.53884
G1 X142.706 Y157.574 E25.62194
G1 X141.298 Y159.011 E25.70893
G1 X140.101 Y159.836 E25.77179
G1 X138.624 Y160.41 E25.8403
G1 X137.848 Y160.595 E25.8748
G1 X136.578 Y160.727 E25.93001
G1 X82.72 Y160.68 E28.25873
G1 X81.926 Y160.554 E28.29349
G1 X80.94 Y160.303 E28.33748
G1 X79.199 Y159.474 E28.42086
G1 X77.577 Y157.911 E28.51825
G1 X76.521 Y156.082 E28.60957
G1 X76.04 Y154.097 E28.69788
G1 X76.04 Y127.161 E29.86254
G1 X61.58 Y127.161 E30.48777
G1 X59.873 Y126.734 E30.56385
G1 X58.11 Y125.894 E30.64829
G1 X56.69 Y124.504 E30.73421
G1 X55.822 Y123.219 E30.80126
G1 X55.43 Y122.254 E30.84629
G1 X55.067 Y120.8 E30.91109
G1 X54.974 Y119.781 E30.95533
G1 X55.021 Y65.921 E33.28414
G1 X55.147 Y65.127 E33.3189
G1 X55.398 Y64.141 E33.3629
G1 X56.225 Y62.404 E33.44608
G1 X57.813 Y60.759 E33.54494
G1 X59.609 Y59.724 E33.63457
G1 X61.598 Y59.241 E33.72307
G1 X91.308 Y59.241 E35.00767
G1 X92.939 Y59.655 E35.08043
G1 X93.185 Y59.761 E35.09201
G1 X93.362 Y59.688 E35.10029
G0 F3000 X93.485 Y60.193
G1 F900 X95.259 Y59.761 E35.17924
G1 X124.843 Y59.761 E36.4584
G1 X126.411 Y60.159 E36.52834
G1 X126.789 Y60.338 E36.54643
G1 X127.085 Y60.193 E36.56068
G1 X128.859 Y59.761 E36.63963
G1 X158.443 Y59.761 E37.91878
G1 X160.013 Y60.16 E37.98883
G1 X161.201 Y60.722 E38.04565
G1 X162.244 Y61.481 E38.10142
G1 X163.148 Y62.46 E38.15904
G1 X163.96 Y63.715 E38.22367
G1 X164.438 Y65.225 E38.29216
G1 X164.571 Y66.614 E38.35249
G1 X164.567 Y120.448 E40.68017
G1 X164.262 Y121.807 E40.74039
G1 X163.751 Y123.024 E40.79747
G1 X163.077 Y124.038 E40.85011
G1 X162.207 Y124.947 E40.90452
G1 X161.16 Y125.704 E40.96038
G1 X159.904 Y126.288 E41.02027
G1 X158.423 Y126.641 E41.0861
G1 X143.44 Y126.641 E41.73394
G1 X143.44 Y154.065 E42.9197
G1 X143.04 Y155.659 E42.99076
G1 X142.273 Y157.273 E43.06802
G1 X140.962 Y158.611 E43.14902
G1 X139.857 Y159.373 E43.20706
G1 X138.503 Y159.904 E43.26994
G1 X137.727 Y160.089 E43.30443
G1 X136.578 Y160.207 E43.35438
G1 X82.8 Y160.166 E45.67964
G1 X82.054 Y160.05 E45.71228
G1 X81.116 Y159.811 E45.75414
G1 X79.499 Y159.041 E45.83158
G1 X77.99 Y157.587 E45.92218
G1 X77.008 Y155.886 E46.00711
G1 X76.56 Y154.037 E46.08937
G1 X76.56 Y126.641 E47.27392
G1 X61.642 Y126.641 E47.91895
G1 X60.051 Y126.243 E47.98986
G1 X58.414 Y125.463 E48.06826
G1 X57.09 Y124.168 E48.14834
G1 X56.285 Y122.975 E48.21057
G1 X55.935 Y122.128 E48.2502
G1 X55.572 Y120.674 E48.31499
G1 X55.494 Y119.781 E48.35375
G1 X55.535 Y66.001 E50.6791
G1 X55.651 Y65.255 E50.71175
G1 X55.89 Y64.317 E50.7536
G1 X56.658 Y62.704 E50.83084
G1 X58.134 Y61.175 E50.92273
G1 X59.807 Y60.211 E51.00622
G1 X61.659 Y59.761 E51.08863
G1 X91.243 Y59.761 E52.36779
G1 X92.811 Y60.159 E52.43773
G1 X93.189 Y60.338 E52.45582
G1 X93.485 Y60.193 E52.47007
G0 F3000 X93.608 Y60.698
G1 F900 X95.32 Y60.281 E52.54626
G1 X124.778 Y60.281 E53.81997
G1 X126.235 Y60.651 E53.88496
G1 X126.812 Y60.924 E53.91256
G1 X127.208 Y60.698 E53.93228
G1 X128.92 Y60.281 E54.00847
G1 X158.378 Y60.281 E55.28218
G1 X159.835 Y60.651 E55.34717
G1 X160.933 Y61.171 E55.39971
G1 X161.898 Y61.873 E55.4513
G1 X162.734 Y62.778 E55.50457
G1 X163.486 Y63.94 E55.56442
G1 X163.925 Y65.328 E55.62736
G1 X164.051 Y66.614 E55.68324
G1 X164.047 Y120.392 E58.0085
G1 X163.765 Y121.649 E58.0642
G1 X163.292 Y122.775 E58.11701
G1 X162.669 Y123.713 E58.16569
G1 X161.864 Y124.553 E58.216
G1 X160.898 Y125.252 E58.26756
G1 X159.732 Y125.794 E58.32315
G1 X158.361 Y126.121 E58.38409
G1 X142.92 Y126.121 E59.05174
G1 X142.92 Y154.002 E60.25726
G1 X142.549 Y155.48 E60.32315
G1 X141.84 Y156.972 E60.39457
G1 X140.626 Y158.211 E60.46957
G1 X139.611 Y158.911 E60.52289
G1 X138.382 Y159.398 E60.58005
G1 X137.606 Y159.583 E60.61454
G1 X136.578 Y159.687 E60.65921
G1 X82.878 Y159.652 E62.9811
G1 X82.183 Y159.546 E63.0115
G1 X81.294 Y159.319 E63.05118
G1 X79.798 Y158.607 E63.12281
G1 X78.403 Y157.263 E63.20657
G1 X77.495 Y155.69 E63.2851
G1 X77.08 Y153.977 E63.36131
G1 X77.08 Y126.121 E64.56575
G1 X61.704 Y126.121 E65.23058
G1 X60.229 Y125.752 E65.29632
G1 X58.718 Y125.032 E65.3687
G1 X57.49 Y123.831 E65.44296
G1 X56.747 Y122.73 E65.5004
G1 X56.416 Y121.929 E65.53787
G1 X56.09 Y120.628 E65.59586
G1 X56.014 Y119.781 E65.63263
G1 X56.049 Y66.079 E67.95461
G1 X56.155 Y65.384 E67.98501
G1 X56.382 Y64.495 E68.02468
G1 X57.092 Y63.003 E68.09612
G1 X58.455 Y61.591 E68.18098
G1 X60.005 Y60.698 E68.25832
G1 X61.72 Y60.281 E68.33464
G1 X91.178 Y60.281 E69.60835
G1 X92.635 Y60.651 E69.67335
G1 X93.212 Y60.924 E69.70095
G1 X93.608 Y60.698 E69.72066
G0 F3000 X93.803 Y61.185
G1 F900 X95.381 Y60.801 E69.79088
G1 X124.713 Y60.801 E71.05914
G1 X126.057 Y61.142 E71.1191
G1 X126.834 Y61.511 E71.15629
G1 X127.403 Y61.185 E71.18464
G1 X128.981 Y60.801 E71.25486
G1 X158.313 Y60.801 E72.52313
G1 X159.657 Y61.142 E72.58308
G1 X160.665 Y61.62 E72.63132
G1 X161.552 Y62.265 E72.67874
G1 X162.322 Y63.098 E72.72778
G1 X163.011 Y64.163 E72.78263
G1 X163.414 Y65.436 E72.84036
G1 X163.531 Y66.614 E72.89155
G1 X163.527 Y120.336 E75.21439
G1 X163.269 Y121.486 E75.26535
G1 X162.831 Y122.53 E75.3143
G1 X162.261 Y123.387 E75.35881
G1 X161.521 Y124.159 E75.40504
G1 X160.636 Y124.8 E75.45229
G1 X159.56 Y125.3 E75.50359
G1 X158.299 Y125.601 E75.55965
G1 X142.4 Y125.601 E76.24709
G1 X142.4 Y153.94 E77.47242
G1 X142.059 Y155.3 E77.53304
G1 X141.407 Y156.671 E77.59869
G1 X140.29 Y157.811 E77.66769
G1 X139.366 Y158.449 E77.71625
G1 X138.261 Y158.892 E77.76772
G1 X137.485 Y159.077 E77.80221
G1 X136.578 Y159.167 E77.84162
G1 X82.955 Y159.138 E80.16018
G1 X82.312 Y159.042 E80.18829
G1 X81.469 Y158.827 E80.22591
G1 X80.098 Y158.174 E80.29157
G1 X78.816 Y156.939 E80.36854
G1 X77.982 Y155.494 E80.44068
G1 X77.6 Y153.917 E80.51084
G1 X77.6 Y125.601 E81.73517
G1 X61.766 Y125.601 E82.4198
G1 X60.407 Y125.261 E82.48037
G1 X59.022 Y124.601 E82.54671
G1 X57.89 Y123.494 E82.61517
G1 X57.209 Y122.485 E82.6678
G1 X56.897 Y121.73 E82.70313
G1 X56.608 Y120.58 E82.7544
G1 X56.534 Y119.781 E82.78909
G1 X56.563 Y66.156 E85.10774
G1 X56.659 Y65.513 E85.13585
G1 X56.874 Y64.67 E85.17347
G1 X57.525 Y63.303 E85.23893
G1 X58.776 Y62.007 E85.31682
G1 X60.203 Y61.185 E85.38802
G1 X61.781 Y60.801 E85.45824
G1 X91.113 Y60.801 E86.72651
G1 X92.457 Y61.142 E86.78646
G1 X93.234 Y61.511 E86.82365
G1 X93.803 Y61.185 E86.85201
G0 F3000 X93.999 Y61.672
G1 F900 X95.442 Y61.321 E86.91622
G1 X124.648 Y61.321 E88.17903
G1 X125.879 Y61.633 E88.23394
G1 X126.857 Y62.098 E88.28076
G1 X127.599 Y61.672 E88.31776
G1 X129.042 Y61.321 E88.38197
G1 X158.248 Y61.321 E89.64478
G1 X159.479 Y61.633 E89.69969
G1 X160.397 Y62.069 E89.74364
G1 X161.206 Y62.657 E89.78688
G1 X161.91 Y63.418 E89.8317
G1 X162.536 Y64.386 E89.88155
G1 X162.903 Y65.544 E89.93407
G1 X163.011 Y66.614 E89.98057
G1 X163.007 Y120.28 E92.30099
G1 X162.772 Y121.328 E92.34743
G1 X162.372 Y122.281 E92.39212
G1 X161.853 Y123.061 E92.43263
G1 X161.178 Y123.765 E92.4748
G1 X160.374 Y124.348 E92.51774
G1 X159.388 Y124.806 E92.56475
G1 X158.237 Y125.081 E92.61592
G1 X141.88 Y125.081 E93.32316
G1 X141.88 Y153.877 E94.56825
G1 X141.568 Y155.121 E94.6237
G1 X140.974 Y156.37 E94.6835
G1 X139.954 Y157.411 E94.74652
G1 X139.121 Y157.986 E94.79029
G1 X138.067 Y158.409 E94.83939
G1 X137.432 Y158.56 E94.86761
G1 X136.578 Y158.647 E94.90473
G1 X83.029 Y158.623 E97.22009
G1 X82.441 Y158.538 E97.24578
G1 X81.647 Y158.335 E97.28121
G1 X80.399 Y157.741 E97.34098
G1 X79.228 Y156.613 E97.41128
G1 X78.469 Y155.298 E97.47693
G1 X78.12 Y153.857 E97.54104
G1 X78.12 Y125.081 E98.78526
G1 X61.828 Y125.081 E99.48969
G1 X60.585 Y124.77 E99.5451
G1 X59.326 Y124.17 E99.6054
G1 X58.29 Y123.157 E99.66805
G1 X57.671 Y122.24 E99.71589
G1 X57.378 Y121.531 E99.74906
G1 X57.113 Y120.456 E99.79693
G1 X57.054 Y119.781 E99.82623
G1 X57.078 Y66.23 E102.14167
G1 X57.163 Y65.642 E102.16736
G1 X57.366 Y64.848 E102.2028
G1 X57.959 Y63.602 E102.26246
G1 X59.098 Y62.421 E102.33341
G1 X60.399 Y61.672 E102.39831
G1 X61.842 Y61.321 E102.46253
G1 X91.048 Y61.321 E103.72534
G1 X92.279 Y61.633 E103.78025
G1 X93.257 Y62.098 E103.82707
G1 X93.999 Y61.672 E103.86407
G1 F2400 E103.06407
G0 F3000 X95.503 Y61.841
G1 F2400 E103.86407
G1 F900 X124.583 Y61.841 E105.12143
G1 X125.701 Y62.124 E105.1713
G1 X126.529 Y62.518 E105.21095
G1 X126.813 Y62.724 E105.22612
G1 X127.795 Y62.159 E105.2751
G1 X129.103 Y61.841 E105.33331
G1 X158.183 Y61.841 E106.59067
G1 X159.301 Y62.124 E106.64054
G1 X160.129 Y62.518 E106.68018
G1 X160.86 Y63.049 E106.71925
G1 X161.499 Y63.74 E106.75994
G1 X162.061 Y64.608 E106.80466
G1 X162.392 Y65.652 E106.85201
G1 X162.491 Y66.614 E106.89383
G1 X162.487 Y120.224 E109.21182
G1 X162.276 Y121.165 E109.25352
G1 X161.911 Y122.036 E109.29435
G1 X161.447 Y122.732 E109.33052
G1 X160.832 Y123.374 E109.36896
G1 X160.111 Y123.896 E109.40745
G1 X159.216 Y124.312 E109.45012
G1 X158.175 Y124.561 E109.49641
G1 X141.32 Y124.561 E110.22518
G1 X141.36 Y124.781 E110.23485
G1 X141.36 Y153.814 E111.49019
G1 X141.077 Y154.942 E111.54047
G1 X140.541 Y156.069 E111.59443
G1 X139.618 Y157.011 E111.65145
G1 X138.873 Y157.525 E111.69059
G1 X137.947 Y157.903 E111.73384
G1 X137.312 Y158.054 E111.76206
G1 X136.578 Y158.127 E111.79395
G1 X83.101 Y158.108 E114.1062
G1 X82.57 Y158.034 E114.12938
G1 X81.827 Y157.844 E114.16254
G1 X80.699 Y157.307 E114.21656
G1 X79.64 Y156.287 E114.28013
G1 X78.956 Y155.102 E114.33929
G1 X78.64 Y153.797 E114.39735
G1 X78.64 Y124.781 E115.65195
G1 X78.68 Y124.561 E115.66162
G1 X61.89 Y124.561 E116.38759
G1 X60.763 Y124.279 E116.43782
G1 X59.63 Y123.739 E116.49209
G1 X58.69 Y122.82 E116.54893
G1 X58.133 Y121.995 E116.59197
G1 X57.859 Y121.332 E116.62299
G1 X57.618 Y120.334 E116.66738
G1 X57.574 Y119.781 E116.69136
G1 X57.593 Y66.302 E119.0037
G1 X57.667 Y65.771 E119.02688
G1 X57.857 Y65.028 E119.06004
G1 X58.394 Y63.9 E119.11406
G1 X59.42 Y62.835 E119.178
G1 X60.595 Y62.159 E119.23661
G1 X61.903 Y61.841 E119.29481
G1 X90.983 Y61.841 E120.55218
G1 X92.101 Y62.124 E120.60204
G1 X92.929 Y62.518 E120.64169
G1 X93.213 Y62.724 E120.65686
G1 X94.195 Y62.159 E120.70585
G1 X95.503 Y61.841 E120.76405
G0 F3000 X95.564 Y62.361
G1 F900 X124.519 Y62.361 E122.01601
G1 X125.524 Y62.615 E122.06083
G1 X126.259 Y62.965 E122.09603
G1 X126.823 Y63.375 E122.12618
G1 X127.011 Y63.21 E122.137
G1 X127.991 Y62.646 E122.18589
G1 X129.164 Y62.361 E122.23808
G1 X158.119 Y62.361 E123.49004
G1 X159.124 Y62.615 E123.53486
G1 X159.859 Y62.965 E123.57006
G1 X160.514 Y63.441 E123.60507
G1 X161.088 Y64.062 E123.64164
G1 X161.586 Y64.83 E123.68121
G1 X161.881 Y65.76 E123.7234
G1 X161.971 Y66.614 E123.76053
G1 X161.967 Y120.168 E126.07611
G1 X161.779 Y121.007 E126.11328
G1 X161.452 Y121.786 E126.14981
G1 X161.039 Y122.406 E126.18202
G1 X160.489 Y122.98 E126.2164
G1 X159.849 Y123.444 E126.25058
G1 X159.044 Y123.818 E126.28896
G1 X158.113 Y124.041 E126.33035
G1 X140.653 Y124.041 E127.08529
G1 X140.84 Y124.781 E127.11829
G1 X140.84 Y153.751 E128.3709
G1 X140.586 Y154.763 E128.41601
G1 X140.108 Y155.768 E128.46413
G1 X139.284 Y156.609 E128.51504
G1 X138.621 Y157.067 E128.54988
G1 X137.822 Y157.398 E128.58728
G1 X137.259 Y157.537 E128.61235
G1 X136.578 Y157.607 E128.64195
G1 X83.169 Y157.592 E130.95126
G1 X82.699 Y157.53 E130.97176
G1 X82.002 Y157.352 E131.00286
G1 X81.001 Y156.875 E131.05081
G1 X80.052 Y155.961 E131.10778
G1 X79.443 Y154.906 E131.16045
G1 X79.16 Y153.737 E131.21245
G1 X79.16 Y124.781 E132.46446
G1 X79.347 Y124.041 E132.49746
G1 X61.952 Y124.041 E133.24959
G1 X60.941 Y123.788 E133.29465
G1 X59.932 Y123.307 E133.34298
G1 X59.092 Y122.486 E133.39377
G1 X58.595 Y121.75 E133.43217
G1 X58.34 Y121.133 E133.46103
G1 X58.136 Y120.291 E133.49849
G1 X58.094 Y119.781 E133.52062
G1 X58.109 Y66.37 E135.83001
G1 X58.171 Y65.9 E135.85051
G1 X58.349 Y65.203 E135.88162
G1 X58.826 Y64.202 E135.92956
G1 X59.745 Y63.248 E135.98684
G1 X60.791 Y62.646 E136.03902
G1 X61.964 Y62.361 E136.09121
G1 X90.919 Y62.361 E137.34317
G1 X91.924 Y62.615 E137.38799
G1 X92.659 Y62.965 E137.42319
G1 X93.223 Y63.375 E137.45334
G1 X93.411 Y63.21 E137.46416
G1 X94.391 Y62.646 E137.51305
G1 X95.564 Y62.361 E137.56524
G0 F3000 X95.625 Y62.881
G1 F900 X124.455 Y62.881 E138.8118
G1 X125.347 Y63.106 E138.85157
G1 X125.989 Y63.412 E138.88233
G1 X126.568 Y63.833 E138.91328
G1 X126.831 Y64.117 E138.93001
G1 X127.27 Y63.661 E138.95738
G1 X128.187 Y63.133 E139.00314
G1 X129.225 Y62.881 E139.04932
G1 X158.055 Y62.881 E140.29588
G1 X158.947 Y63.106 E140.33565
G1 X159.589 Y63.412 E140.3664
G1 X160.168 Y63.833 E140.39736
G1 X160.677 Y64.384 E140.42979
G1 X161.11 Y65.052 E140.46421
G1 X161.37 Y65.87 E140.50132
G1 X161.451 Y66.614 E140.53368
G1 X161.447 Y120.112 E142.84684
G1 X161.283 Y120.844 E142.87927
G1 X160.991 Y121.54 E142.91191
G1 X160.631 Y122.08 E142.93997
